(BEFESTIGUNGSPLATTE_CNC001)
(T1  D=3.175 CR=0. KONIK=45GRAD - ZMIN=-1. - FASENFRSER)
G90 G94 G91.1 G40 G49 G17
G21
G28 G91 Z0.
G90

(DRILL2 2)
M5
M9
T1 M6
S20000 M3
G54
M9
G0 X25. Y115.
G43 Z15. H1
Z5.
G98 G81 X25. Y115. Z-1. R5. F200.
Y105.
X45.
X65.
X85.
X105.
Y115.
X88.5 Y85.
X63.5
Y45.
X88.5
X105. Y15.
Y25.
X85.
X65.
X45.
X25.
Y15.
G80
Z15.

M9
G28 G91 Z0.
G28 X0. Y0.
M30
