(GRUNDPLATTE_CNC003)
(T1  D=6. CR=0. - ZMIN=-1. - SCHAFTFRSER)
(T2  D=3.175 CR=0. KONIK=45GRAD - ZMIN=-2. - FASENFRSER)
G90 G94 G91.1 G40 G49 G17
G21
G28 G91 Z0.
G90

(2D ADAPTIVE5 2)
M5
M9
T1 M6
S10000 M3
G54
M7
G0 X-125.448 Y250.073
G43 Z15. H1
Z5.
Z0.754
G1 Z0.154 F200.
X-125.441 Y250.072 Z0.061
X-125.419 Y250.068 Z-0.031
X-125.384 Y250.061 Z-0.118
X-125.336 Y250.051 Z-0.198
X-125.276 Y250.039 Z-0.27
X-125.206 Y250.025 Z-0.331
X-125.127 Y250.009 Z-0.38
X-125.041 Y249.992 Z-0.416
X-124.952 Y249.975 Z-0.438
X-124.86 Y249.956 Z-0.445
G3 X-122.977 Y250.058 R3.798
G1 X-122.62 Y250.185 F500.
X-122.481 Y250.242
X-122.336 Y250.376
X-122.174 Y250.553
X-121.997 Y250.782
X-121.806 Y251.077
X-121.603 Y251.457
X-121.388 Y251.955
X-121.163 Y252.622
X-120.951 Y253.483
X-120.805 Y254.357
X-120.704 Y255.237
X-120.633 Y256.12
X-120.584 Y257.005
X-120.55 Y257.891
X-120.526 Y258.776
X-120.509 Y259.662
X-120.497 Y260.548
X-120.489 Y261.435
X-120.483 Y262.321
X-120.479 Y263.207
X-120.475 Y264.979
X-120.472 Y267.637
X-120.47 Y274.726
Y297.322
X-120.33 Y297.743
X-119.854 Y298.49
X-119.167 Y299.05
X-118.38 Y299.458
X-117.545 Y299.753
X-116.684 Y299.963
X-115.811 Y300.113
X-114.931 Y300.219
X-114.048 Y300.294
X-113.163 Y300.346
X-112.278 Y300.383
X-111.392 Y300.409
X-110.506 Y300.427
X-109.62 Y300.44
X-108.734 Y300.449
X-107.848 Y300.455
X-106.962 Y300.46
X-105.19 Y300.465
X-102.531 Y300.468
X-101.937 Y300.469
X-101.642 Y300.502
X-101.361 Y300.6
X-101.109 Y300.757
X-100.899 Y300.966
X-100.739 Y301.217
G3 X-101.829 Y301.719 R0.6
X-101.835 Y301.705 R0.6
G1 X-101.874 Y301.62 Z-0.438
X-101.911 Y301.536 Z-0.416
X-101.946 Y301.457 Z-0.38
X-101.979 Y301.383 Z-0.331
X-102.008 Y301.318 Z-0.27
X-102.033 Y301.262 Z-0.198
X-102.053 Y301.217 Z-0.118
X-102.068 Y301.184 Z-0.031
X-102.077 Y301.164 Z0.061
X-102.08 Y301.158 Z0.154
G0 Z5.
X-125.09 Y250.2
Z0.754
G1 Z0.154 F200.
X-125.083 Y250.198 Z0.061
X-125.062 Y250.194 Z-0.031
X-125.026 Y250.187 Z-0.118
X-124.978 Y250.177 Z-0.198
X-124.918 Y250.166 Z-0.27
X-124.848 Y250.152 Z-0.331
X-124.769 Y250.136 Z-0.38
X-124.684 Y250.119 Z-0.416
X-124.594 Y250.101 Z-0.438
X-124.502 Y250.083 Z-0.445
G3 X-122.62 Y250.185 R3.798
G1 X-121.325 Y250.643 F500.
X-121.186 Y250.7
X-121.004 Y250.795
X-120.812 Y250.916
X-120.593 Y251.082
X-120.368 Y251.284
X-120.136 Y251.53
X-119.883 Y251.847
X-119.633 Y252.221
X-119.368 Y252.698
X-119.097 Y253.301
X-118.825 Y254.071
X-118.6 Y254.928
X-118.434 Y255.798
X-118.311 Y256.676
X-118.22 Y257.557
X-118.153 Y258.441
X-118.104 Y259.325
X-118.068 Y260.211
X-118.041 Y261.097
X-118.022 Y261.982
X-118.008 Y262.868
X-117.997 Y263.755
X-117.99 Y264.641
X-117.984 Y265.527
X-117.98 Y266.413
X-117.975 Y268.185
X-117.972 Y270.843
X-117.97 Y277.046
Y293.883
X-117.908 Y294.321
X-117.608 Y295.155
X-117.052 Y295.845
X-116.35 Y296.386
X-115.566 Y296.798
X-114.736 Y297.109
X-113.88 Y297.34
X-113.011 Y297.51
X-112.134 Y297.636
X-111.252 Y297.728
X-110.369 Y297.794
X-109.484 Y297.843
X-108.599 Y297.878
X-107.713 Y297.904
X-106.827 Y297.922
X-105.941 Y297.936
X-105.055 Y297.945
X-104.169 Y297.952
X-103.283 Y297.977
X-102.678 Y298.042
X-102.159 Y298.143
X-101.972 Y298.195
X-101.705 Y298.303
X-101.468 Y298.464
X-101.271 Y298.673
X-101.123 Y298.92
X-101.031 Y299.192
X-101. Y299.478
X-100.999 Y299.972
G3 X-102.199 Y299.947 R0.6
Y299.932 R0.6
G1 X-102.195 Y299.838 Z-0.438
X-102.192 Y299.747 Z-0.416
X-102.189 Y299.66 Z-0.38
X-102.187 Y299.58 Z-0.331
X-102.184 Y299.508 Z-0.27
X-102.182 Y299.447 Z-0.198
X-102.181 Y299.398 Z-0.118
X-102.179 Y299.362 Z-0.031
Y299.34 Z0.061
X-102.178 Y299.332 Z0.154
G0 Z5.
X-123.795 Y250.658
Z0.754
G1 Z0.154 F200.
X-123.788 Y250.656 Z0.061
X-123.766 Y250.652 Z-0.031
X-123.731 Y250.645 Z-0.118
X-123.683 Y250.635 Z-0.198
X-123.623 Y250.623 Z-0.27
X-123.553 Y250.609 Z-0.331
X-123.474 Y250.594 Z-0.38
X-123.389 Y250.577 Z-0.416
X-123.299 Y250.559 Z-0.438
X-123.207 Y250.541 Z-0.445
G3 X-121.325 Y250.643 R3.798
G1 X-119.307 Y251.356 F500.
X-119.117 Y251.434
X-118.912 Y251.539
X-118.675 Y251.686
X-118.436 Y251.864
X-118.183 Y252.087
X-117.906 Y252.376
X-117.635 Y252.711
X-117.342 Y253.14
X-117.048 Y253.66
X-116.749 Y254.309
X-116.447 Y255.142
X-116.214 Y255.997
X-116.036 Y256.865
X-115.899 Y257.74
X-115.795 Y258.62
X-115.715 Y259.503
X-115.655 Y260.387
X-115.609 Y261.272
X-115.574 Y262.157
X-115.548 Y263.043
X-115.528 Y263.929
X-115.513 Y264.815
X-115.502 Y265.701
X-115.494 Y266.587
X-115.488 Y267.473
X-115.483 Y268.359
X-115.477 Y270.131
X-115.473 Y272.79
X-115.471 Y277.22
X-115.47 Y291.398
X-115.23 Y292.251
X-114.735 Y292.986
X-114.076 Y293.579
X-113.322 Y294.045
X-112.512 Y294.403
X-111.668 Y294.675
X-110.806 Y294.88
X-109.934 Y295.033
X-109.055 Y295.148
X-108.173 Y295.233
X-107.289 Y295.296
X-106.404 Y295.342
X-105.519 Y295.381
X-104.634 Y295.428
X-103.751 Y295.505
X-103.027 Y295.615
X-102.478 Y295.745
X-102.042 Y295.888
X-101.814 Y295.984
X-101.544 Y296.138
X-101.316 Y296.351
X-101.144 Y296.61
X-101.036 Y296.903
X-101. Y297.212
Y299.478
G3 X-102.2 Y299.452 R0.6
X-102.199 Y299.437 R0.6
G1 X-102.196 Y299.343 Z-0.438
X-102.193 Y299.252 Z-0.416
X-102.19 Y299.165 Z-0.38
X-102.187 Y299.084 Z-0.331
X-102.185 Y299.013 Z-0.27
X-102.183 Y298.952 Z-0.198
X-102.181 Y298.903 Z-0.118
X-102.18 Y298.867 Z-0.031
X-102.179 Y298.845 Z0.061
Y298.837 Z0.154
G0 Z5.
X-121.778 Y251.371
Z0.754
G1 Z0.154 F200.
X-121.77 Y251.37 Z0.061
X-121.749 Y251.365 Z-0.031
X-121.714 Y251.358 Z-0.118
X-121.665 Y251.349 Z-0.198
X-121.605 Y251.337 Z-0.27
X-121.535 Y251.323 Z-0.331
X-121.456 Y251.307 Z-0.38
X-121.371 Y251.29 Z-0.416
X-121.281 Y251.272 Z-0.438
X-121.189 Y251.254 Z-0.445
G3 X-119.307 Y251.356 R3.798
G1 X-117.092 Y252.139 F500.
X-116.846 Y252.24
X-116.632 Y252.35
X-116.391 Y252.5
X-116.122 Y252.7
X-115.862 Y252.929
X-115.569 Y253.235
X-115.28 Y253.59
X-114.967 Y254.05
X-114.658 Y254.596
X-114.339 Y255.29
X-114.036 Y256.123
X-113.799 Y256.977
X-113.613 Y257.843
X-113.468 Y258.717
X-113.355 Y259.596
X-113.267 Y260.478
X-113.198 Y261.361
X-113.145 Y262.246
X-113.104 Y263.131
X-113.072 Y264.016
X-113.048 Y264.902
X-113.029 Y265.788
X-113.015 Y266.674
X-113.004 Y267.56
X-112.996 Y268.446
X-112.99 Y269.332
X-112.985 Y270.219
X-112.978 Y271.991
X-112.973 Y274.649
X-112.971 Y279.08
X-112.97 Y288.827
X-112.712 Y289.675
X-112.213 Y290.407
X-111.558 Y291.004
X-110.808 Y291.476
X-110.002 Y291.843
X-109.161 Y292.123
X-108.301 Y292.336
X-107.43 Y292.499
X-106.553 Y292.628
X-105.674 Y292.741
X-104.796 Y292.858
X-103.921 Y292.995
X-103.053 Y293.175
X-102.43 Y293.356
X-101.929 Y293.549
X-101.753 Y293.634
X-101.501 Y293.793
X-101.29 Y294.004
X-101.132 Y294.257
X-101.033 Y294.538
X-101. Y294.834
Y297.212
G3 X-102.2 Y297.185 R0.6
X-102.199 Y297.17 R0.6
G1 X-102.196 Y297.076 Z-0.438
X-102.193 Y296.985 Z-0.416
X-102.19 Y296.898 Z-0.38
X-102.187 Y296.818 Z-0.331
X-102.184 Y296.746 Z-0.27
X-102.182 Y296.685 Z-0.198
X-102.181 Y296.636 Z-0.118
X-102.179 Y296.6 Z-0.031
Y296.578 Z0.061
X-102.178 Y296.571 Z0.154
G0 Z5.
X-119.562 Y252.154
Z0.754
G1 Z0.154 F200.
X-119.555 Y252.153 Z0.061
X-119.534 Y252.149 Z-0.031
X-119.498 Y252.141 Z-0.118
X-119.45 Y252.132 Z-0.198
X-119.39 Y252.12 Z-0.27
X-119.32 Y252.106 Z-0.331
X-119.241 Y252.09 Z-0.38
X-119.156 Y252.073 Z-0.416
X-119.066 Y252.055 Z-0.438
X-118.974 Y252.037 Z-0.445
G3 X-117.092 Y252.139 R3.798
G1 X-114.675 Y252.994 F500.
X-114.507 Y253.063
X-114.276 Y253.181
X-114.035 Y253.331
X-113.758 Y253.536
X-113.486 Y253.777
X-113.189 Y254.086
X-112.885 Y254.461
X-112.561 Y254.936
X-112.241 Y255.503
X-111.908 Y256.227
X-111.605 Y257.06
X-111.365 Y257.913
X-111.175 Y258.778
X-111.024 Y259.651
X-110.904 Y260.529
X-110.81 Y261.41
X-110.735 Y262.293
X-110.677 Y263.178
X-110.631 Y264.062
X-110.595 Y264.948
X-110.567 Y265.834
X-110.545 Y266.719
X-110.528 Y267.605
X-110.514 Y268.491
X-110.504 Y269.377
X-110.496 Y270.263
X-110.49 Y271.15
X-110.485 Y272.036
X-110.479 Y273.808
X-110.474 Y276.466
X-110.471 Y280.897
X-110.47 Y286.214
X-110.227 Y287.066
X-109.744 Y287.808
X-109.101 Y288.418
X-108.36 Y288.905
X-107.562 Y289.29
X-106.732 Y289.6
X-105.884 Y289.858
X-105.029 Y290.088
X-104.171 Y290.31
X-103.317 Y290.547
X-102.494 Y290.814
X-101.944 Y291.044
X-101.718 Y291.162
X-101.477 Y291.323
X-101.276 Y291.533
X-101.125 Y291.781
X-101.032 Y292.056
X-101. Y292.345
Y294.834
G3 X-102.2 Y294.808 R0.6
X-102.199 Y294.793 R0.6
G1 X-102.196 Y294.699 Z-0.438
X-102.193 Y294.607 Z-0.416
X-102.19 Y294.52 Z-0.38
X-102.187 Y294.44 Z-0.331
X-102.184 Y294.369 Z-0.27
X-102.182 Y294.307 Z-0.198
X-102.181 Y294.258 Z-0.118
X-102.179 Y294.222 Z-0.031
Y294.2 Z0.061
X-102.178 Y294.193 Z0.154
G0 Z5.
X-117.146 Y253.009
Z0.754
G1 Z0.154 F200.
X-117.139 Y253.007 Z0.061
X-117.117 Y253.003 Z-0.031
X-117.082 Y252.996 Z-0.118
X-117.033 Y252.986 Z-0.198
X-116.974 Y252.974 Z-0.27
X-116.903 Y252.96 Z-0.331
X-116.825 Y252.945 Z-0.38
X-116.739 Y252.928 Z-0.416
X-116.649 Y252.91 Z-0.438
X-116.557 Y252.891 Z-0.445
G3 X-114.675 Y252.994 R3.798
G1 X-112.259 Y253.848 F500.
X-112.119 Y253.905
X-111.877 Y254.029
X-111.636 Y254.179
X-111.359 Y254.385
X-111.076 Y254.635
X-110.777 Y254.947
X-110.464 Y255.333
X-110.134 Y255.817
X-109.805 Y256.399
X-109.462 Y257.144
X-109.159 Y257.977
X-108.917 Y258.829
X-108.724 Y259.694
X-108.569 Y260.566
X-108.445 Y261.444
X-108.346 Y262.324
X-108.267 Y263.207
X-108.204 Y264.091
X-108.154 Y264.975
X-108.115 Y265.861
X-108.083 Y266.746
X-108.059 Y267.632
X-108.039 Y268.518
X-108.024 Y269.404
X-108.012 Y270.29
X-108.003 Y271.176
X-107.995 Y272.062
X-107.989 Y272.948
X-107.982 Y274.72
X-107.977 Y276.493
X-107.973 Y279.151
X-107.971 Y283.582
X-107.76 Y284.442
X-107.31 Y285.206
X-106.701 Y285.85
X-105.996 Y286.387
X-105.234 Y286.839
X-104.44 Y287.232
X-103.63 Y287.591
X-102.817 Y287.943
X-102.015 Y288.32
X-101.669 Y288.519
X-101.443 Y288.683
X-101.255 Y288.89
X-101.116 Y289.132
X-101.029 Y289.397
X-101. Y289.675
Y292.345
G3 X-102.2 Y292.318 R0.6
X-102.199 Y292.303 R0.6
G1 X-102.196 Y292.209 Z-0.438
X-102.193 Y292.117 Z-0.416
X-102.19 Y292.03 Z-0.38
X-102.187 Y291.95 Z-0.331
X-102.184 Y291.879 Z-0.27
X-102.182 Y291.818 Z-0.198
X-102.181 Y291.768 Z-0.118
X-102.179 Y291.732 Z-0.031
Y291.71 Z0.061
X-102.178 Y291.703 Z0.154
G0 Z5.
X-114.729 Y253.863
Z0.754
G1 Z0.154 F200.
X-114.722 Y253.862 Z0.061
X-114.7 Y253.857 Z-0.031
X-114.665 Y253.85 Z-0.118
X-114.617 Y253.841 Z-0.198
X-114.557 Y253.829 Z-0.27
X-114.487 Y253.815 Z-0.331
X-114.408 Y253.799 Z-0.38
X-114.323 Y253.782 Z-0.416
X-114.233 Y253.764 Z-0.438
X-114.141 Y253.746 Z-0.445
G3 X-112.259 Y253.848 R3.798
G1 X-109.935 Y254.67 F500.
X-109.699 Y254.766
X-109.452 Y254.893
X-109.209 Y255.044
X-108.932 Y255.25
X-108.643 Y255.505
X-108.342 Y255.819
X-108.023 Y256.212
X-107.689 Y256.702
X-107.354 Y257.295
X-107.005 Y258.054
X-106.702 Y258.886
X-106.459 Y259.738
X-106.263 Y260.603
X-106.105 Y261.475
X-105.978 Y262.352
X-105.876 Y263.232
X-105.793 Y264.114
X-105.727 Y264.998
X-105.674 Y265.882
X-105.632 Y266.767
X-105.598 Y267.653
X-105.571 Y268.539
X-105.55 Y269.424
X-105.533 Y270.31
X-105.519 Y271.196
X-105.509 Y272.082
X-105.5 Y272.969
X-105.494 Y273.855
X-105.488 Y274.741
X-105.481 Y276.513
X-105.477 Y278.285
X-105.473 Y280.944
X-105.322 Y281.817
X-104.949 Y282.621
X-104.418 Y283.33
X-103.786 Y283.951
X-103.093 Y284.504
X-102.368 Y285.013
X-101.638 Y285.516
X-101.52 Y285.607
X-101.302 Y285.819
X-101.137 Y286.075
X-101.035 Y286.361
X-101. Y286.663
Y289.675
G3 X-102.2 Y289.648 R0.6
X-102.199 Y289.633 R0.6
G1 X-102.196 Y289.539 Z-0.438
X-102.193 Y289.448 Z-0.416
X-102.19 Y289.361 Z-0.38
X-102.187 Y289.281 Z-0.331
X-102.184 Y289.209 Z-0.27
X-102.182 Y289.148 Z-0.198
X-102.181 Y289.099 Z-0.118
X-102.179 Y289.063 Z-0.031
Y289.041 Z0.061
X-102.178 Y289.034 Z0.154
G0 Z5.
X-112.405 Y254.685
Z0.754
G1 Z0.154 F200.
X-112.398 Y254.683 Z0.061
X-112.377 Y254.679 Z-0.031
X-112.341 Y254.672 Z-0.118
X-112.293 Y254.662 Z-0.198
X-112.233 Y254.65 Z-0.27
X-112.163 Y254.636 Z-0.331
X-112.084 Y254.621 Z-0.38
X-111.999 Y254.604 Z-0.416
X-111.909 Y254.586 Z-0.438
X-111.817 Y254.567 Z-0.445
G3 X-109.935 Y254.67 R3.798
G1 X-107.425 Y255.557 F500.
X-107.267 Y255.622
X-107.016 Y255.75
X-106.77 Y255.903
X-106.494 Y256.109
X-106.199 Y256.369
X-105.896 Y256.684
X-105.573 Y257.083
X-105.236 Y257.577
X-104.896 Y258.18
X-104.541 Y258.95
X-104.238 Y259.783
X-103.994 Y260.635
X-103.796 Y261.499
X-103.636 Y262.37
X-103.506 Y263.247
X-103.401 Y264.127
X-103.316 Y265.009
X-103.248 Y265.892
X-103.192 Y266.776
X-103.148 Y267.661
X-103.112 Y268.547
X-103.083 Y269.432
X-103.06 Y270.318
X-103.041 Y271.204
X-103.026 Y272.09
X-103.015 Y272.976
X-103.005 Y273.862
X-102.998 Y274.748
X-102.992 Y275.635
X-102.983 Y277.407
X-102.98 Y278.293
X-102.914 Y279.177
X-102.66 Y280.025
X-102.25 Y280.811
X-101.733 Y281.53
X-101.32 Y282.013
X-101.145 Y282.274
X-101.037 Y282.568
X-101. Y282.88
Y286.663
G3 X-102.2 Y286.637 R0.6
X-102.199 Y286.622 R0.6
G1 X-102.196 Y286.528 Z-0.438
X-102.193 Y286.436 Z-0.416
X-102.19 Y286.349 Z-0.38
X-102.187 Y286.269 Z-0.331
X-102.184 Y286.198 Z-0.27
X-102.182 Y286.136 Z-0.198
X-102.181 Y286.087 Z-0.118
X-102.179 Y286.051 Z-0.031
Y286.029 Z0.061
X-102.178 Y286.022 Z0.154
G0 Z5.
X-109.896 Y255.572
Z0.754
G1 Z0.154 F200.
X-109.889 Y255.57 Z0.061
X-109.867 Y255.566 Z-0.031
X-109.832 Y255.559 Z-0.118
X-109.784 Y255.549 Z-0.198
X-109.724 Y255.537 Z-0.27
X-109.654 Y255.524 Z-0.331
X-109.575 Y255.508 Z-0.38
X-109.49 Y255.491 Z-0.416
X-109.4 Y255.473 Z-0.438
X-109.308 Y255.455 Z-0.445
G3 X-107.425 Y255.557 R3.798
G1 X-105.009 Y256.411 F500.
X-104.816 Y256.49
X-104.564 Y256.619
X-104.316 Y256.774
X-104.039 Y256.979
X-103.742 Y257.242
X-103.438 Y257.558
X-103.112 Y257.961
X-102.773 Y258.458
X-102.429 Y259.066
X-102.07 Y259.845
X-101.768 Y260.678
X-101.523 Y261.53
X-101.324 Y262.393
X-101.162 Y263.264
X-101.03 Y264.141
X-101.01 Y264.308
X-101.004 Y264.361
X-101.001 Y264.415
X-101. Y264.469
G3 X-102.14 Y264.708 R0.6
G1 X-102.266 Y264.446
X-105.517 Y257.686
X-105.73 Y257.243 F200.
G3 X-105.009 Y256.411 R0.6
G1 X-102.592 Y257.265 F500.
X-102.356 Y257.363
X-102.104 Y257.492
X-101.853 Y257.648
X-101.576 Y257.853
X-101.451 Y257.964
X-101.261 Y258.172
X-101.118 Y258.415
X-101.03 Y258.683
X-101. Y258.964
G3 X-102.011 Y259.379 R0.6
G1 X-102.382 Y259.03
X-102.987 Y258.46
X-103.184 Y258.275 F200.
G3 X-102.592 Y257.265 R0.6
G1 X-101.393 Y257.69 F500.
X-101.334 Y257.717
X-101.283 Y257.746
X-101.233 Y257.783
X-101.183 Y257.828
X-101.126 Y257.891
X-101.091 Y257.941
X-101.063 Y257.992
X-101.04 Y258.042
X-101.023 Y258.092
X-101.004 Y258.193
X-101. Y258.294
Y282.88
G3 X-102.2 Y282.853 R0.6
X-102.199 Y282.838 R0.6
G1 X-102.196 Y282.744 Z-0.438
X-102.193 Y282.652 Z-0.416
X-102.19 Y282.566 Z-0.38
X-102.187 Y282.485 Z-0.331
X-102.184 Y282.414 Z-0.27
X-102.182 Y282.353 Z-0.198
X-102.181 Y282.303 Z-0.118
X-102.179 Y282.267 Z-0.031
Y282.246 Z0.061
X-102.178 Y282.238 Z0.154
G0 Z5.
X-23.987 Y303.972
Z0.754
G1 Z0.154 F200.
X-23.981 Y303.968 Z0.061
X-23.963 Y303.956 Z-0.031
X-23.933 Y303.935 Z-0.118
X-23.893 Y303.907 Z-0.198
X-23.843 Y303.872 Z-0.27
X-23.784 Y303.831 Z-0.331
X-23.718 Y303.786 Z-0.38
X-23.646 Y303.736 Z-0.416
X-23.571 Y303.684 Z-0.438
X-23.494 Y303.63 Z-0.445
G3 X-21.727 Y302.973 R3.798
G1 X-21.637 Y302.967 F500.
X-21.435 Y302.94
X-21.234 Y302.892
X-21.033 Y302.839
X-20.908 Y302.791
X-20.831 Y302.758
X-20.63 Y302.665
X-20.428 Y302.552
X-20.197 Y302.389
X-20.026 Y302.254
X-19.986 Y302.217
X-19.836 Y302.09
X-19.577 Y301.906
X-19.244 Y301.709
X-18.812 Y301.5
X-18.241 Y301.28
X-17.457 Y301.051
X-16.589 Y300.874
X-15.712 Y300.751
X-14.83 Y300.666
X-13.945 Y300.607
X-13.06 Y300.566
X-12.175 Y300.537
X-11.289 Y300.517
X-10.403 Y300.503
X-9.517 Y300.493
X-8.63 Y300.486
X-7.744 Y300.481
X-6.858 Y300.478
X-5.086 Y300.474
X-2.871 Y300.472
X-2.433 Y300.401
X-2.039 Y300.199
X-1.344 Y299.649
X-0.829 Y298.928
X-0.454 Y298.125
X-0.184 Y297.281
X0.008 Y296.416
X0.145 Y295.541
X0.241 Y294.66
X0.309 Y293.776
X0.357 Y292.891
X0.391 Y292.006
X0.415 Y291.12
X0.431 Y290.234
X0.443 Y289.348
X0.451 Y288.462
X0.457 Y287.576
X0.461 Y286.69
X0.465 Y284.918
X0.468 Y282.259
X0.47 Y275.17
Y268.967
Y251.888
X0.498 Y251.616
X0.581 Y251.356
X0.715 Y251.118
X0.894 Y250.912
X1.112 Y250.747
X1.359 Y250.63
G3 X1.733 Y251.77 R0.6
X1.719 Y251.775 R0.6
G1 X1.63 Y251.803 Z-0.438
X1.542 Y251.831 Z-0.416
X1.459 Y251.857 Z-0.38
X1.383 Y251.881 Z-0.331
X1.314 Y251.903 Z-0.27
X1.256 Y251.921 Z-0.198
X1.209 Y251.936 Z-0.118
X1.175 Y251.946 Z-0.031
X1.154 Y251.953 Z0.061
X1.147 Y251.955 Z0.154
G0 Z5.
X-21.491 Y304.192
Z0.754
G1 Z0.154 F200.
X-21.487 Y304.185 Z0.061
X-21.475 Y304.167 Z-0.031
X-21.456 Y304.136 Z-0.118
X-21.429 Y304.095 Z-0.198
X-21.396 Y304.043 Z-0.27
X-21.358 Y303.983 Z-0.331
X-21.314 Y303.916 Z-0.38
X-21.268 Y303.842 Z-0.416
X-21.218 Y303.765 Z-0.438
X-21.168 Y303.686 Z-0.446
G3 X-19.986 Y302.217 Z-0.445 R8.75
G1 X-19.954 Y302.187 F500.
X-19.824 Y302.061
X-19.595 Y301.784
X-19.456 Y301.583
X-19.422 Y301.529
X-19.341 Y301.382
X-19.243 Y301.18
X-19.22 Y301.119
X-19.161 Y300.981
X-19.075 Y300.823
X-18.958 Y300.643
X-18.798 Y300.439
X-18.61 Y300.236
X-18.367 Y300.014
X-18.064 Y299.779
X-17.689 Y299.536
X-17.218 Y299.284
X-16.615 Y299.023
X-15.828 Y298.758
X-14.967 Y298.546
X-14.095 Y298.391
X-13.216 Y298.277
X-12.334 Y298.194
X-11.45 Y298.133
X-10.565 Y298.089
X-9.679 Y298.056
X-8.794 Y298.033
X-7.908 Y298.015
X-7.022 Y298.003
X-6.136 Y297.994
X-5.697 Y297.931
X-4.862 Y297.635
X-4.171 Y297.08
X-3.628 Y296.38
X-3.212 Y295.597
X-2.899 Y294.768
X-2.666 Y293.913
X-2.494 Y293.044
X-2.368 Y292.167
X-2.275 Y291.286
X-2.207 Y290.402
X-2.158 Y289.517
X-2.123 Y288.632
X-2.097 Y287.746
X-2.078 Y286.86
X-2.065 Y285.974
X-2.055 Y285.088
X-2.048 Y284.202
X-2.043 Y283.316
X-2.039 Y282.43
X-2.035 Y280.658
X-2.032 Y277.999
X-2.03 Y270.91
Y262.935
Y254.074
X-2.019 Y253.631
X-1.977 Y252.914
X-1.924 Y252.549
X-1.852 Y252.269
X-1.721 Y252.01
X-1.537 Y251.786
X-1.31 Y251.607
X-1.049 Y251.482
X1.359 Y250.63
G3 X1.733 Y251.77 R0.6
X1.719 Y251.775 R0.6
G1 X1.63 Y251.803 Z-0.438
X1.542 Y251.831 Z-0.416
X1.459 Y251.857 Z-0.38
X1.383 Y251.881 Z-0.331
X1.314 Y251.903 Z-0.27
X1.256 Y251.921 Z-0.198
X1.209 Y251.936 Z-0.118
X1.175 Y251.946 Z-0.031
X1.154 Y251.953 Z0.061
X1.147 Y251.955 Z0.154
G0 Z5.
X-19.681 Y303.558
Z0.754
G1 Z0.154 F200.
X-19.68 Y303.551 Z0.061
X-19.678 Y303.529 Z-0.031
X-19.674 Y303.493 Z-0.118
X-19.669 Y303.444 Z-0.198
X-19.663 Y303.383 Z-0.27
X-19.655 Y303.312 Z-0.331
X-19.647 Y303.232 Z-0.38
X-19.638 Y303.146 Z-0.416
X-19.628 Y303.055 Z-0.438
X-19.618 Y302.961 Z-0.445
G3 X-19.22 Y301.119 R8.75
G1 X-19.168 Y300.979 F500.
X-19.107 Y300.778
X-19.058 Y300.576
X-19.026 Y300.375
X-19.019 Y300.319
X-19.009 Y300.174
X-19.001 Y299.972
X-18.993 Y299.823
X-18.965 Y299.662
X-18.918 Y299.485
X-18.852 Y299.298
X-18.754 Y299.079
X-18.633 Y298.861
X-18.472 Y298.62
X-18.26 Y298.353
X-18.018 Y298.096
X-17.696 Y297.808
X-17.328 Y297.529
X-16.853 Y297.228
X-16.286 Y296.931
X-15.566 Y296.628
X-14.724 Y296.353
X-13.863 Y296.142
X-12.992 Y295.98
X-12.115 Y295.856
X-11.234 Y295.761
X-10.351 Y295.689
X-9.466 Y295.635
X-8.581 Y295.594
X-7.735 Y295.33
X-7.007 Y294.825
X-6.418 Y294.163
X-5.956 Y293.407
X-5.599 Y292.595
X-5.328 Y291.752
X-5.123 Y290.89
X-4.969 Y290.017
X-4.855 Y289.139
X-4.769 Y288.257
X-4.706 Y287.373
X-4.659 Y286.488
X-4.625 Y285.602
X-4.6 Y284.717
X-4.581 Y283.831
X-4.567 Y282.945
X-4.557 Y282.059
X-4.55 Y281.172
X-4.545 Y280.286
X-4.541 Y279.4
X-4.536 Y277.628
X-4.532 Y274.97
X-4.53 Y269.653
Y259.019
Y256.361
X-4.524 Y255.475
X-4.502 Y254.589
X-4.442 Y253.796
X-4.378 Y253.397
X-4.303 Y253.122
X-4.171 Y252.869
X-3.989 Y252.649
X-3.763 Y252.474
X-3.506 Y252.35
X-1.049 Y251.482
G3 X-0.674 Y252.622 R0.6
X-0.689 Y252.626 R0.6
G1 X-0.778 Y252.655 Z-0.438
X-0.865 Y252.682 Z-0.416
X-0.948 Y252.708 Z-0.38
X-1.025 Y252.732 Z-0.331
X-1.093 Y252.754 Z-0.27
X-1.152 Y252.772 Z-0.198
X-1.198 Y252.787 Z-0.118
X-1.233 Y252.798 Z-0.031
X-1.254 Y252.804 Z0.061
X-1.261 Y252.807 Z0.154
G0 Z5.
X-18.587 Y302.42
Z0.754
G1 Z0.154 F200.
X-18.588 Y302.413 Z0.061
X-18.594 Y302.391 Z-0.031
X-18.603 Y302.357 Z-0.118
X-18.615 Y302.309 Z-0.198
X-18.63 Y302.25 Z-0.27
X-18.648 Y302.18 Z-0.331
X-18.667 Y302.102 Z-0.38
X-18.689 Y302.018 Z-0.416
X-18.712 Y301.929 Z-0.438
X-18.735 Y301.838 Z-0.445
G3 X-19.001 Y299.972 R8.75
G1 X-19. Y298.362 F500.
X-18.987 Y298.098
X-18.962 Y297.916
X-18.916 Y297.706
X-18.846 Y297.479
X-18.749 Y297.239
X-18.613 Y296.969
X-18.449 Y296.7
X-18.224 Y296.393
X-17.966 Y296.098
X-17.627 Y295.767
X-17.236 Y295.446
X-16.737 Y295.101
X-16.153 Y294.766
X-15.422 Y294.423
X-14.591 Y294.115
X-13.74 Y293.869
X-12.876 Y293.674
X-12.003 Y293.519
X-11.125 Y293.397
X-10.3 Y293.075
X-9.586 Y292.55
X-9.002 Y291.884
X-8.537 Y291.129
X-8.174 Y290.321
X-7.893 Y289.48
X-7.679 Y288.621
X-7.517 Y287.749
X-7.394 Y286.872
X-7.301 Y285.991
X-7.232 Y285.107
X-7.18 Y284.223
X-7.142 Y283.337
X-7.113 Y282.452
X-7.091 Y281.566
X-7.075 Y280.68
X-7.064 Y279.794
X-7.055 Y278.908
X-7.048 Y278.022
X-7.043 Y277.135
X-7.037 Y275.363
X-7.033 Y272.705
X-7.031 Y268.274
X-7.03 Y258.527
X-7.028 Y257.641
X-7.021 Y256.755
X-7. Y255.869
X-6.951 Y254.984
X-6.869 Y254.331
X-6.763 Y253.827
X-6.662 Y253.617
X-6.502 Y253.448
X-6.297 Y253.337
X-3.506 Y252.35
G3 X-3.132 Y253.49 R0.6
X-3.146 Y253.495 R0.6
G1 X-3.235 Y253.523 Z-0.438
X-3.323 Y253.551 Z-0.416
X-3.406 Y253.577 Z-0.38
X-3.482 Y253.601 Z-0.331
X-3.55 Y253.623 Z-0.27
X-3.609 Y253.641 Z-0.198
X-3.656 Y253.656 Z-0.118
X-3.69 Y253.666 Z-0.031
X-3.711 Y253.673 Z0.061
X-3.718 Y253.675 Z0.154
G0 Z5.
X-18.162 Y300.686
Z0.754
G1 Z0.154 F200.
X-18.166 Y300.68 Z0.061
X-18.177 Y300.661 Z-0.031
X-18.196 Y300.63 Z-0.118
X-18.221 Y300.587 Z-0.198
X-18.252 Y300.535 Z-0.27
X-18.289 Y300.473 Z-0.331
X-18.33 Y300.404 Z-0.38
X-18.374 Y300.33 Z-0.416
X-18.421 Y300.251 Z-0.438
X-18.469 Y300.17 Z-0.445
G3 X-19. Y298.362 R3.798
G1 Y296.348 F500.
X-18.987 Y296.085
X-18.96 Y295.886
X-18.91 Y295.656
X-18.833 Y295.407
X-18.726 Y295.144
X-18.578 Y294.848
X-18.398 Y294.554
X-18.151 Y294.218
X-17.869 Y293.894
X-17.494 Y293.529
X-17.071 Y293.181
X-16.531 Y292.809
X-15.871 Y292.429
X-15.069 Y292.053
X-14.238 Y291.745
X-13.401 Y291.455
X-12.637 Y291.006
X-11.98 Y290.411
X-11.439 Y289.709
X-11.005 Y288.937
X-10.662 Y288.12
X-10.394 Y287.275
X-10.187 Y286.413
X-10.028 Y285.542
X-9.906 Y284.664
X-9.814 Y283.783
X-9.744 Y282.899
X-9.69 Y282.015
X-9.65 Y281.13
X-9.62 Y280.244
X-9.597 Y279.358
X-9.58 Y278.472
X-9.568 Y277.586
X-9.558 Y276.7
X-9.551 Y275.814
X-9.546 Y274.928
X-9.542 Y274.042
X-9.536 Y272.27
X-9.533 Y269.611
X-9.53 Y264.294
Y259.864
X-9.528 Y258.978
X-9.521 Y258.092
X-9.503 Y257.206
X-9.467 Y256.32
X-9.394 Y255.437
X-9.35 Y255.156
X-9.275 Y254.88
X-9.143 Y254.627
X-8.96 Y254.407
X-8.735 Y254.232
X-8.477 Y254.108
X-6.297 Y253.337
G3 X-5.922 Y254.477 R0.6
X-5.937 Y254.482 R0.6
G1 X-6.026 Y254.51 Z-0.438
X-6.113 Y254.537 Z-0.416
X-6.196 Y254.564 Z-0.38
X-6.273 Y254.588 Z-0.331
X-6.341 Y254.609 Z-0.27
X-6.4 Y254.628 Z-0.198
X-6.446 Y254.642 Z-0.118
X-6.481 Y254.653 Z-0.031
X-6.502 Y254.66 Z0.061
X-6.509 Y254.662 Z0.154
G0 Z5.
X-18.162 Y298.672
Z0.754
G1 Z0.154 F200.
X-18.166 Y298.666 Z0.061
X-18.177 Y298.647 Z-0.031
X-18.196 Y298.616 Z-0.118
X-18.221 Y298.574 Z-0.198
X-18.252 Y298.521 Z-0.27
X-18.289 Y298.46 Z-0.331
X-18.33 Y298.391 Z-0.38
X-18.374 Y298.316 Z-0.416
X-18.421 Y298.237 Z-0.438
X-18.469 Y298.157 Z-0.445
G3 X-19. Y296.348 R3.798
G1 Y294.133 F500.
X-18.991 Y293.959
X-18.961 Y293.736
X-18.911 Y293.506
X-18.827 Y293.236
X-18.718 Y292.964
X-18.563 Y292.656
X-18.366 Y292.335
X-18.116 Y291.994
X-17.798 Y291.629
X-17.419 Y291.26
X-16.916 Y290.846
X-16.187 Y290.343
X-15.466 Y289.826
X-14.816 Y289.225
X-14.256 Y288.538
X-13.788 Y287.786
X-13.407 Y286.986
X-13.101 Y286.154
X-12.859 Y285.301
X-12.669 Y284.436
X-12.521 Y283.562
X-12.406 Y282.684
X-12.317 Y281.802
X-12.249 Y280.919
X-12.196 Y280.034
X-12.156 Y279.149
X-12.126 Y278.263
X-12.102 Y277.377
X-12.085 Y276.491
X-12.071 Y275.605
X-12.061 Y274.719
X-12.053 Y273.833
X-12.048 Y272.947
X-12.043 Y272.061
X-12.037 Y270.289
X-12.033 Y267.63
X-12.03 Y261.428
X-12.028 Y260.541
X-12.023 Y259.655
X-12.012 Y258.769
X-11.988 Y257.883
X-11.946 Y256.998
X-11.873 Y256.273
X-11.821 Y255.996
X-11.741 Y255.729
X-11.608 Y255.485
X-11.427 Y255.273
X-11.206 Y255.104
X-10.955 Y254.984
X-8.477 Y254.108
G3 X-8.103 Y255.248 R0.6
X-8.117 Y255.253 R0.6
G1 X-8.207 Y255.281 Z-0.438
X-8.294 Y255.308 Z-0.416
X-8.377 Y255.335 Z-0.38
X-8.454 Y255.359 Z-0.331
X-8.522 Y255.38 Z-0.27
X-8.58 Y255.399 Z-0.198
X-8.627 Y255.413 Z-0.118
X-8.661 Y255.424 Z-0.031
X-8.682 Y255.431 Z0.061
X-8.689 Y255.433 Z0.154
G0 Z5.
X-18.162 Y296.458
Z0.754
G1 Z0.154 F200.
X-18.166 Y296.451 Z0.061
X-18.177 Y296.432 Z-0.031
X-18.196 Y296.401 Z-0.118
X-18.221 Y296.359 Z-0.198
X-18.252 Y296.307 Z-0.27
X-18.289 Y296.245 Z-0.331
X-18.33 Y296.176 Z-0.38
X-18.374 Y296.101 Z-0.416
X-18.421 Y296.023 Z-0.438
X-18.469 Y295.942 Z-0.445
G3 X-19. Y294.133 R3.798
G1 Y291.919 F500.
X-18.992 Y291.752
X-18.96 Y291.519
X-18.907 Y291.276
X-18.823 Y291.005
X-18.693 Y290.682
X-18.494 Y290.287
X-18.031 Y289.532
X-17.52 Y288.808
X-17.028 Y288.071
X-16.582 Y287.306
X-16.194 Y286.509
X-15.867 Y285.685
X-15.595 Y284.842
X-15.373 Y283.984
X-15.193 Y283.116
X-15.05 Y282.242
X-14.935 Y281.363
X-14.845 Y280.482
X-14.774 Y279.598
X-14.719 Y278.714
X-14.675 Y277.829
X-14.642 Y276.943
X-14.616 Y276.058
X-14.596 Y275.172
X-14.58 Y274.286
X-14.568 Y273.4
X-14.559 Y272.514
X-14.552 Y271.628
X-14.547 Y270.741
X-14.54 Y268.969
X-14.536 Y267.197
X-14.531 Y262.766
X-14.529 Y261.88
X-14.524 Y260.994
X-14.515 Y260.108
X-14.497 Y259.222
X-14.464 Y258.337
X-14.4 Y257.453
X-14.307 Y256.828
X-14.304 Y256.817
X-14.218 Y256.566
X-14.083 Y256.336
X-13.905 Y256.139
X-13.692 Y255.98
X-13.451 Y255.867
X-10.955 Y254.984
G3 X-10.58 Y256.124 R0.6
X-10.594 Y256.129 R0.6
G1 X-10.684 Y256.157 Z-0.438
X-10.771 Y256.184 Z-0.416
X-10.854 Y256.21 Z-0.38
X-10.931 Y256.234 Z-0.331
X-10.999 Y256.256 Z-0.27
X-11.057 Y256.274 Z-0.198
X-11.104 Y256.289 Z-0.118
X-11.139 Y256.3 Z-0.031
X-11.16 Y256.307 Z0.061
X-11.167 Y256.309 Z0.154
G0 Z5.
X-18.162 Y294.243
Z0.754
G1 Z0.154 F200.
X-18.166 Y294.236 Z0.061
X-18.177 Y294.218 Z-0.031
X-18.196 Y294.187 Z-0.118
X-18.221 Y294.144 Z-0.198
X-18.252 Y294.092 Z-0.27
X-18.289 Y294.03 Z-0.331
X-18.33 Y293.961 Z-0.38
X-18.374 Y293.886 Z-0.416
X-18.421 Y293.808 Z-0.438
X-18.469 Y293.727 Z-0.445
G3 X-19. Y291.919 R3.798
G1 Y289.301 F500.
X-18.962 Y288.55
X-18.846 Y287.685
X-18.656 Y286.819
X-18.443 Y285.959
X-18.233 Y285.098
X-18.037 Y284.234
X-17.862 Y283.365
X-17.711 Y282.492
X-17.582 Y281.616
X-17.474 Y280.736
X-17.385 Y279.854
X-17.313 Y278.971
X-17.254 Y278.087
X-17.206 Y277.202
X-17.169 Y276.317
X-17.139 Y275.431
X-17.115 Y274.546
X-17.096 Y273.66
X-17.081 Y272.774
X-17.07 Y271.888
X-17.061 Y271.001
X-17.054 Y270.115
X-17.048 Y269.229
X-17.041 Y267.457
X-17.035 Y264.799
X-17.03 Y263.026
X-17.025 Y262.14
X-17.017 Y261.254
X-17.001 Y260.368
X-16.972 Y259.483
X-16.918 Y258.598
X-16.835 Y257.91
X-16.798 Y257.732
X-16.716 Y257.472
X-16.582 Y257.233
X-16.402 Y257.027
X-16.184 Y256.862
X-15.937 Y256.745
X-13.451 Y255.867
G3 X-13.077 Y257.007 R0.6
X-13.091 Y257.011 R0.6
G1 X-13.18 Y257.039 Z-0.438
X-13.268 Y257.067 Z-0.416
X-13.351 Y257.093 Z-0.38
X-13.427 Y257.117 Z-0.331
X-13.496 Y257.139 Z-0.27
X-13.554 Y257.157 Z-0.198
X-13.601 Y257.172 Z-0.118
X-13.635 Y257.183 Z-0.031
X-13.656 Y257.189 Z0.061
X-13.663 Y257.191 Z0.154
G0 Z5.
X-18.162 Y291.625
Z0.754
G1 Z0.154 F200.
X-18.166 Y291.619 Z0.061
X-18.177 Y291.6 Z-0.031
X-18.196 Y291.569 Z-0.118
X-18.221 Y291.527 Z-0.198
X-18.252 Y291.474 Z-0.27
X-18.289 Y291.413 Z-0.331
X-18.33 Y291.344 Z-0.38
X-18.374 Y291.269 Z-0.416
X-18.421 Y291.19 Z-0.438
X-18.469 Y291.11 Z-0.445
G3 X-19. Y289.301 R3.798
G1 Y259.3 F500.
X-18.962 Y258.548
X-18.895 Y258.278
X-18.771 Y258.029
X-18.596 Y257.813
X-18.377 Y257.641
X-18.127 Y257.52
G3 X-17.386 Y258.306 R0.6
G1 X-17.579 Y258.811
X-17.754 Y259.27
X-17.84 Y259.494 F200.
G3 X-19. Y259.3 R0.6
G1 Y258.294 F500.
X-18.996 Y258.193
X-18.977 Y258.092
X-18.96 Y258.042
X-18.937 Y257.992
X-18.909 Y257.941
X-18.874 Y257.891
X-18.817 Y257.828
X-18.767 Y257.783
X-18.717 Y257.746
X-18.666 Y257.717
X-18.607 Y257.69
X-15.937 Y256.745
G3 X-15.178 Y257.475 R0.6
G1 X-15.21 Y257.542 Z-0.441
X-15.241 Y257.607 Z-0.427
X-15.272 Y257.671 Z-0.404
X-15.329 Y257.726 Z-0.366
X-15.382 Y257.776 Z-0.317
X-15.429 Y257.82 Z-0.257
X-15.475 Y257.843 Z-0.196
X-15.512 Y257.861 Z-0.128
X-15.542 Y257.875 Z-0.055
X-15.562 Y257.885 Z0.021
X-15.573 Y257.889 Z0.088
X-15.577 Y257.89 Z0.154
G0 Z5.
X-23.987 Y303.972
Z0.477
G1 Z-0.123 F200.
X-23.981 Y303.968 Z-0.217
X-23.963 Y303.956 Z-0.308
X-23.933 Y303.935 Z-0.395
X-23.893 Y303.907 Z-0.475
X-23.843 Y303.872 Z-0.547
X-23.784 Y303.831 Z-0.608
X-23.718 Y303.786 Z-0.657
X-23.646 Y303.736 Z-0.693
X-23.571 Y303.684 Z-0.715
X-23.494 Y303.63 Z-0.723
G3 X-21.727 Y302.973 R3.798
G1 X-21.637 Y302.967 F500.
X-21.435 Y302.94
X-21.234 Y302.892
X-21.033 Y302.839
X-20.908 Y302.791
X-20.831 Y302.758
X-20.63 Y302.665
X-20.428 Y302.552
X-20.197 Y302.389
X-20.026 Y302.254
X-19.986 Y302.217
X-19.836 Y302.09
X-19.577 Y301.906
X-19.244 Y301.709
X-18.812 Y301.5
X-18.241 Y301.28
X-17.457 Y301.051
X-16.589 Y300.874
X-15.712 Y300.751
X-14.83 Y300.666
X-13.945 Y300.607
X-13.06 Y300.566
X-12.175 Y300.537
X-11.289 Y300.517
X-10.403 Y300.503
X-9.517 Y300.493
X-8.63 Y300.486
X-7.744 Y300.481
X-6.858 Y300.478
X-5.086 Y300.474
X-2.871 Y300.472
X-2.433 Y300.401
X-2.039 Y300.199
X-1.344 Y299.649
X-0.829 Y298.928
X-0.454 Y298.125
X-0.184 Y297.281
X0.008 Y296.416
X0.145 Y295.541
X0.241 Y294.66
X0.309 Y293.776
X0.357 Y292.891
X0.391 Y292.006
X0.415 Y291.12
X0.431 Y290.234
X0.443 Y289.348
X0.451 Y288.462
X0.457 Y287.576
X0.461 Y286.69
X0.465 Y284.918
X0.468 Y282.259
X0.47 Y275.17
Y268.967
Y251.888
X0.498 Y251.616
X0.581 Y251.356
X0.715 Y251.118
X0.894 Y250.912
X1.112 Y250.747
X1.359 Y250.63
G3 X2.118 Y251.36 R0.6
G1 X2.086 Y251.427 Z-0.718
X2.055 Y251.493 Z-0.704
X2.024 Y251.556 Z-0.682
X1.967 Y251.611 Z-0.643
X1.914 Y251.661 Z-0.594
X1.867 Y251.705 Z-0.535
X1.821 Y251.728 Z-0.473
X1.783 Y251.746 Z-0.405
X1.754 Y251.76 Z-0.332
X1.733 Y251.77 Z-0.256
X1.723 Y251.774 Z-0.19
X1.719 Y251.775 Z-0.123
G0 Z5.
X-21.491 Y304.192
Z0.477
G1 Z-0.123 F200.
X-21.487 Y304.185 Z-0.217
X-21.475 Y304.167 Z-0.308
X-21.456 Y304.136 Z-0.395
X-21.429 Y304.095 Z-0.475
X-21.396 Y304.043 Z-0.547
X-21.358 Y303.983 Z-0.608
X-21.314 Y303.916 Z-0.657
X-21.268 Y303.842 Z-0.693
X-21.218 Y303.765 Z-0.715
X-21.168 Y303.686 Z-0.723
G3 X-19.986 Y302.217 R8.75
G1 X-19.954 Y302.187 F500.
X-19.824 Y302.061
X-19.595 Y301.784
X-19.456 Y301.583
X-19.422 Y301.529
X-19.341 Y301.382
X-19.243 Y301.18
X-19.22 Y301.119
X-19.161 Y300.981
X-19.075 Y300.823
X-18.958 Y300.643
X-18.798 Y300.439
X-18.61 Y300.236
X-18.367 Y300.014
X-18.064 Y299.779
X-17.689 Y299.536
X-17.218 Y299.284
X-16.615 Y299.023
X-15.828 Y298.758
X-14.967 Y298.546
X-14.095 Y298.391
X-13.216 Y298.277
X-12.334 Y298.194
X-11.45 Y298.133
X-10.565 Y298.089
X-9.679 Y298.056
X-8.794 Y298.033
X-7.908 Y298.015
X-7.022 Y298.003
X-6.136 Y297.994
X-5.697 Y297.931
X-4.862 Y297.635
X-4.171 Y297.08
X-3.628 Y296.38
X-3.212 Y295.597
X-2.899 Y294.768
X-2.666 Y293.913
X-2.494 Y293.044
X-2.368 Y292.167
X-2.275 Y291.286
X-2.207 Y290.402
X-2.158 Y289.517
X-2.123 Y288.632
X-2.097 Y287.746
X-2.078 Y286.86
X-2.065 Y285.974
X-2.055 Y285.088
X-2.048 Y284.202
X-2.043 Y283.316
X-2.039 Y282.43
X-2.035 Y280.658
X-2.032 Y277.999
X-2.03 Y270.91
Y262.935
Y254.074
X-2.019 Y253.631
X-1.977 Y252.914
X-1.924 Y252.549
X-1.852 Y252.269
X-1.721 Y252.01
X-1.537 Y251.786
X-1.31 Y251.607
X-1.049 Y251.482
X1.359 Y250.63
G3 X2.118 Y251.36 R0.6
G1 X2.086 Y251.427 Z-0.718
X2.055 Y251.493 Z-0.704
X2.024 Y251.556 Z-0.682
X1.967 Y251.611 Z-0.643
X1.914 Y251.661 Z-0.594
X1.867 Y251.705 Z-0.535
X1.821 Y251.728 Z-0.473
X1.783 Y251.746 Z-0.405
X1.754 Y251.76 Z-0.332
X1.733 Y251.77 Z-0.256
X1.723 Y251.774 Z-0.19
X1.719 Y251.775 Z-0.123
G0 Z5.
X-19.681 Y303.558
Z0.477
G1 Z-0.123 F200.
X-19.68 Y303.551 Z-0.217
X-19.678 Y303.529 Z-0.308
X-19.674 Y303.493 Z-0.395
X-19.669 Y303.444 Z-0.475
X-19.663 Y303.383 Z-0.547
X-19.655 Y303.312 Z-0.608
X-19.647 Y303.232 Z-0.657
X-19.638 Y303.146 Z-0.693
X-19.628 Y303.055 Z-0.715
X-19.618 Y302.961 Z-0.723
G3 X-19.22 Y301.119 R8.75
G1 X-19.168 Y300.979 F500.
X-19.107 Y300.778
X-19.058 Y300.576
X-19.026 Y300.375
X-19.019 Y300.319
X-19.009 Y300.174
X-19.001 Y299.972
X-18.993 Y299.823
X-18.965 Y299.662
X-18.918 Y299.485
X-18.852 Y299.298
X-18.754 Y299.079
X-18.633 Y298.861
X-18.472 Y298.62
X-18.26 Y298.353
X-18.018 Y298.096
X-17.696 Y297.808
X-17.328 Y297.529
X-16.853 Y297.228
X-16.286 Y296.931
X-15.566 Y296.628
X-14.724 Y296.353
X-13.863 Y296.142
X-12.992 Y295.98
X-12.115 Y295.856
X-11.234 Y295.761
X-10.351 Y295.689
X-9.466 Y295.635
X-8.581 Y295.594
X-7.735 Y295.33
X-7.007 Y294.825
X-6.418 Y294.163
X-5.956 Y293.407
X-5.599 Y292.595
X-5.328 Y291.752
X-5.123 Y290.89
X-4.969 Y290.017
X-4.855 Y289.139
X-4.769 Y288.257
X-4.706 Y287.373
X-4.659 Y286.488
X-4.625 Y285.602
X-4.6 Y284.717
X-4.581 Y283.831
X-4.567 Y282.945
X-4.557 Y282.059
X-4.55 Y281.172
X-4.545 Y280.286
X-4.541 Y279.4
X-4.536 Y277.628
X-4.532 Y274.97
X-4.53 Y269.653
Y259.019
Y256.361
X-4.524 Y255.475
X-4.502 Y254.589
X-4.442 Y253.796
X-4.378 Y253.397
X-4.303 Y253.122
X-4.171 Y252.869
X-3.989 Y252.649
X-3.763 Y252.474
X-3.506 Y252.35
X-1.049 Y251.482
G3 X-0.29 Y252.212 R0.6
G1 X-0.322 Y252.278 Z-0.718
X-0.353 Y252.344 Z-0.704
X-0.384 Y252.407 Z-0.682
X-0.441 Y252.462 Z-0.643
X-0.494 Y252.512 Z-0.594
X-0.541 Y252.557 Z-0.535
X-0.587 Y252.579 Z-0.473
X-0.624 Y252.597 Z-0.405
X-0.654 Y252.612 Z-0.332
X-0.674 Y252.622 Z-0.256
X-0.685 Y252.625 Z-0.19
X-0.689 Y252.626 Z-0.123
G0 Z5.
X-18.587 Y302.42
Z0.477
G1 Z-0.123 F200.
X-18.588 Y302.413 Z-0.217
X-18.594 Y302.391 Z-0.308
X-18.603 Y302.357 Z-0.395
X-18.615 Y302.309 Z-0.475
X-18.63 Y302.25 Z-0.547
X-18.648 Y302.18 Z-0.608
X-18.667 Y302.102 Z-0.657
X-18.689 Y302.018 Z-0.693
X-18.712 Y301.929 Z-0.715
X-18.735 Y301.838 Z-0.723
G3 X-19.001 Y299.972 R8.75
G1 X-19. Y298.362 F500.
X-18.987 Y298.098
X-18.962 Y297.916
X-18.916 Y297.706
X-18.846 Y297.479
X-18.749 Y297.239
X-18.613 Y296.969
X-18.449 Y296.7
X-18.224 Y296.393
X-17.966 Y296.098
X-17.627 Y295.767
X-17.236 Y295.446
X-16.737 Y295.101
X-16.153 Y294.766
X-15.422 Y294.423
X-14.591 Y294.115
X-13.74 Y293.869
X-12.876 Y293.674
X-12.003 Y293.519
X-11.125 Y293.397
X-10.3 Y293.075
X-9.586 Y292.55
X-9.002 Y291.884
X-8.537 Y291.129
X-8.174 Y290.321
X-7.893 Y289.48
X-7.679 Y288.621
X-7.517 Y287.749
X-7.394 Y286.872
X-7.301 Y285.991
X-7.232 Y285.107
X-7.18 Y284.223
X-7.142 Y283.337
X-7.113 Y282.452
X-7.091 Y281.566
X-7.075 Y280.68
X-7.064 Y279.794
X-7.055 Y278.908
X-7.048 Y278.022
X-7.043 Y277.135
X-7.037 Y275.363
X-7.033 Y272.705
X-7.031 Y268.274
X-7.03 Y258.527
X-7.028 Y257.641
X-7.021 Y256.755
X-7. Y255.869
X-6.951 Y254.984
X-6.869 Y254.331
X-6.763 Y253.827
X-6.662 Y253.617
X-6.502 Y253.448
X-6.297 Y253.337
X-3.506 Y252.35
G3 X-2.747 Y253.08 R0.6
G1 X-2.779 Y253.147 Z-0.718
X-2.81 Y253.213 Z-0.704
X-2.841 Y253.276 Z-0.682
X-2.898 Y253.331 Z-0.643
X-2.951 Y253.381 Z-0.594
X-2.998 Y253.425 Z-0.535
X-3.044 Y253.448 Z-0.473
X-3.082 Y253.466 Z-0.405
X-3.111 Y253.48 Z-0.332
X-3.132 Y253.49 Z-0.256
X-3.142 Y253.494 Z-0.19
X-3.146 Y253.495 Z-0.123
G0 Z5.
X-18.162 Y300.686
Z0.477
G1 Z-0.123 F200.
X-18.166 Y300.68 Z-0.217
X-18.177 Y300.661 Z-0.308
X-18.196 Y300.63 Z-0.395
X-18.221 Y300.587 Z-0.475
X-18.252 Y300.535 Z-0.547
X-18.289 Y300.473 Z-0.608
X-18.33 Y300.404 Z-0.657
X-18.374 Y300.33 Z-0.693
X-18.421 Y300.251 Z-0.715
X-18.469 Y300.17 Z-0.723
G3 X-19. Y298.362 R3.798
G1 Y296.348 F500.
X-18.987 Y296.085
X-18.96 Y295.886
X-18.91 Y295.656
X-18.833 Y295.407
X-18.726 Y295.144
X-18.578 Y294.848
X-18.398 Y294.554
X-18.151 Y294.218
X-17.869 Y293.894
X-17.494 Y293.529
X-17.071 Y293.181
X-16.531 Y292.809
X-15.871 Y292.429
X-15.069 Y292.053
X-14.238 Y291.745
X-13.401 Y291.455
X-12.637 Y291.006
X-11.98 Y290.411
X-11.439 Y289.709
X-11.005 Y288.937
X-10.662 Y288.12
X-10.394 Y287.275
X-10.187 Y286.413
X-10.028 Y285.542
X-9.906 Y284.664
X-9.814 Y283.783
X-9.744 Y282.899
X-9.69 Y282.015
X-9.65 Y281.13
X-9.62 Y280.244
X-9.597 Y279.358
X-9.58 Y278.472
X-9.568 Y277.586
X-9.558 Y276.7
X-9.551 Y275.814
X-9.546 Y274.928
X-9.542 Y274.042
X-9.536 Y272.27
X-9.533 Y269.611
X-9.53 Y264.294
Y259.864
X-9.528 Y258.978
X-9.521 Y258.092
X-9.503 Y257.206
X-9.467 Y256.32
X-9.394 Y255.437
X-9.35 Y255.156
X-9.275 Y254.88
X-9.143 Y254.627
X-8.96 Y254.407
X-8.735 Y254.232
X-8.477 Y254.108
X-6.297 Y253.337
G3 X-5.538 Y254.067 R0.6
G1 X-5.57 Y254.134 Z-0.718
X-5.601 Y254.199 Z-0.704
X-5.632 Y254.263 Z-0.682
X-5.689 Y254.317 Z-0.643
X-5.742 Y254.367 Z-0.594
X-5.789 Y254.412 Z-0.535
X-5.835 Y254.434 Z-0.473
X-5.872 Y254.453 Z-0.405
X-5.902 Y254.467 Z-0.332
X-5.922 Y254.477 Z-0.256
X-5.933 Y254.481 Z-0.19
X-5.937 Y254.482 Z-0.123
G0 Z5.
X-18.162 Y298.672
Z0.477
G1 Z-0.123 F200.
X-18.166 Y298.666 Z-0.217
X-18.177 Y298.647 Z-0.308
X-18.196 Y298.616 Z-0.395
X-18.221 Y298.574 Z-0.475
X-18.252 Y298.521 Z-0.547
X-18.289 Y298.46 Z-0.608
X-18.33 Y298.391 Z-0.657
X-18.374 Y298.316 Z-0.693
X-18.421 Y298.237 Z-0.715
X-18.469 Y298.157 Z-0.723
G3 X-19. Y296.348 R3.798
G1 Y294.133 F500.
X-18.991 Y293.959
X-18.961 Y293.736
X-18.911 Y293.506
X-18.827 Y293.236
X-18.718 Y292.964
X-18.563 Y292.656
X-18.366 Y292.335
X-18.116 Y291.994
X-17.798 Y291.629
X-17.419 Y291.26
X-16.916 Y290.846
X-16.187 Y290.343
X-15.466 Y289.826
X-14.816 Y289.225
X-14.256 Y288.538
X-13.788 Y287.786
X-13.407 Y286.986
X-13.101 Y286.154
X-12.859 Y285.301
X-12.669 Y284.436
X-12.521 Y283.562
X-12.406 Y282.684
X-12.317 Y281.802
X-12.249 Y280.919
X-12.196 Y280.034
X-12.156 Y279.149
X-12.126 Y278.263
X-12.102 Y277.377
X-12.085 Y276.491
X-12.071 Y275.605
X-12.061 Y274.719
X-12.053 Y273.833
X-12.048 Y272.947
X-12.043 Y272.061
X-12.037 Y270.289
X-12.033 Y267.63
X-12.03 Y261.428
X-12.028 Y260.541
X-12.023 Y259.655
X-12.012 Y258.769
X-11.988 Y257.883
X-11.946 Y256.998
X-11.873 Y256.273
X-11.821 Y255.996
X-11.741 Y255.729
X-11.608 Y255.485
X-11.427 Y255.273
X-11.206 Y255.104
X-10.955 Y254.984
X-8.477 Y254.108
G3 X-7.718 Y254.838 R0.6
G1 X-7.75 Y254.905 Z-0.718
X-7.782 Y254.97 Z-0.704
X-7.812 Y255.034 Z-0.682
X-7.87 Y255.088 Z-0.643
X-7.923 Y255.138 Z-0.594
X-7.97 Y255.183 Z-0.535
X-8.015 Y255.205 Z-0.473
X-8.053 Y255.224 Z-0.405
X-8.082 Y255.238 Z-0.332
X-8.103 Y255.248 Z-0.256
X-8.114 Y255.252 Z-0.19
X-8.117 Y255.253 Z-0.123
G0 Z5.
X-18.162 Y296.458
Z0.477
G1 Z-0.123 F200.
X-18.166 Y296.451 Z-0.217
X-18.177 Y296.432 Z-0.308
X-18.196 Y296.401 Z-0.395
X-18.221 Y296.359 Z-0.475
X-18.252 Y296.307 Z-0.547
X-18.289 Y296.245 Z-0.608
X-18.33 Y296.176 Z-0.657
X-18.374 Y296.101 Z-0.693
X-18.421 Y296.023 Z-0.715
X-18.469 Y295.942 Z-0.723
G3 X-19. Y294.133 R3.798
G1 Y291.919 F500.
X-18.992 Y291.752
X-18.96 Y291.519
X-18.907 Y291.276
X-18.823 Y291.005
X-18.693 Y290.682
X-18.494 Y290.287
X-18.031 Y289.532
X-17.52 Y288.808
X-17.028 Y288.071
X-16.582 Y287.306
X-16.194 Y286.509
X-15.867 Y285.685
X-15.595 Y284.842
X-15.373 Y283.984
X-15.193 Y283.116
X-15.05 Y282.242
X-14.935 Y281.363
X-14.845 Y280.482
X-14.774 Y279.598
X-14.719 Y278.714
X-14.675 Y277.829
X-14.642 Y276.943
X-14.616 Y276.058
X-14.596 Y275.172
X-14.58 Y274.286
X-14.568 Y273.4
X-14.559 Y272.514
X-14.552 Y271.628
X-14.547 Y270.741
X-14.54 Y268.969
X-14.536 Y267.197
X-14.531 Y262.766
X-14.529 Y261.88
X-14.524 Y260.994
X-14.515 Y260.108
X-14.497 Y259.222
X-14.464 Y258.337
X-14.4 Y257.453
X-14.307 Y256.828
X-14.304 Y256.817
X-14.218 Y256.566
X-14.083 Y256.336
X-13.905 Y256.139
X-13.692 Y255.98
X-13.451 Y255.867
X-10.955 Y254.984
G3 X-10.196 Y255.714 R0.6
G1 X-10.228 Y255.78 Z-0.718
X-10.259 Y255.846 Z-0.704
X-10.289 Y255.91 Z-0.682
X-10.347 Y255.964 Z-0.643
X-10.4 Y256.014 Z-0.594
X-10.447 Y256.059 Z-0.535
X-10.492 Y256.081 Z-0.473
X-10.53 Y256.1 Z-0.405
X-10.56 Y256.114 Z-0.332
X-10.58 Y256.124 Z-0.256
X-10.591 Y256.127 Z-0.19
X-10.594 Y256.129 Z-0.123
G0 Z5.
X-18.162 Y294.243
Z0.477
G1 Z-0.123 F200.
X-18.166 Y294.236 Z-0.217
X-18.177 Y294.218 Z-0.308
X-18.196 Y294.187 Z-0.395
X-18.221 Y294.144 Z-0.475
X-18.252 Y294.092 Z-0.547
X-18.289 Y294.03 Z-0.608
X-18.33 Y293.961 Z-0.657
X-18.374 Y293.886 Z-0.693
X-18.421 Y293.808 Z-0.715
X-18.469 Y293.727 Z-0.723
G3 X-19. Y291.919 R3.798
G1 Y289.301 F500.
X-18.962 Y288.55
X-18.846 Y287.685
X-18.656 Y286.819
X-18.443 Y285.959
X-18.233 Y285.098
X-18.037 Y284.234
X-17.862 Y283.365
X-17.711 Y282.492
X-17.582 Y281.616
X-17.474 Y280.736
X-17.385 Y279.854
X-17.313 Y278.971
X-17.254 Y278.087
X-17.206 Y277.202
X-17.169 Y276.317
X-17.139 Y275.431
X-17.115 Y274.546
X-17.096 Y273.66
X-17.081 Y272.774
X-17.07 Y271.888
X-17.061 Y271.001
X-17.054 Y270.115
X-17.048 Y269.229
X-17.041 Y267.457
X-17.035 Y264.799
X-17.03 Y263.026
X-17.025 Y262.14
X-17.017 Y261.254
X-17.001 Y260.368
X-16.972 Y259.483
X-16.918 Y258.598
X-16.835 Y257.91
X-16.798 Y257.732
X-16.716 Y257.472
X-16.582 Y257.233
X-16.402 Y257.027
X-16.184 Y256.862
X-15.937 Y256.745
X-13.451 Y255.867
G3 X-12.692 Y256.597 R0.6
G1 X-12.724 Y256.663 Z-0.718
X-12.755 Y256.729 Z-0.704
X-12.786 Y256.792 Z-0.682
X-12.843 Y256.847 Z-0.643
X-12.896 Y256.897 Z-0.594
X-12.943 Y256.942 Z-0.535
X-12.989 Y256.964 Z-0.473
X-13.027 Y256.982 Z-0.405
X-13.056 Y256.997 Z-0.332
X-13.077 Y257.007 Z-0.256
X-13.087 Y257.01 Z-0.19
X-13.091 Y257.011 Z-0.123
G0 Z5.
X-18.162 Y291.625
Z0.477
G1 Z-0.123 F200.
X-18.166 Y291.619 Z-0.217
X-18.177 Y291.6 Z-0.308
X-18.196 Y291.569 Z-0.395
X-18.221 Y291.527 Z-0.475
X-18.252 Y291.474 Z-0.547
X-18.289 Y291.413 Z-0.608
X-18.33 Y291.344 Z-0.657
X-18.374 Y291.269 Z-0.693
X-18.421 Y291.19 Z-0.715
X-18.469 Y291.11 Z-0.723
G3 X-19. Y289.301 R3.798
G1 Y259.3 F500.
X-18.962 Y258.548
X-18.895 Y258.278
X-18.771 Y258.029
X-18.596 Y257.813
X-18.377 Y257.641
X-18.127 Y257.52
G3 X-17.386 Y258.306 R0.6
G1 X-17.579 Y258.811
X-17.754 Y259.27
X-17.84 Y259.494 F200.
G3 X-19. Y259.3 R0.6
G1 Y258.294 F500.
X-18.996 Y258.193
X-18.977 Y258.092
X-18.96 Y258.042
X-18.937 Y257.992
X-18.909 Y257.941
X-18.874 Y257.891
X-18.817 Y257.828
X-18.767 Y257.783
X-18.717 Y257.746
X-18.666 Y257.717
X-18.607 Y257.69
X-15.937 Y256.745
G3 X-15.178 Y257.475 R0.6
G1 X-15.21 Y257.542 Z-0.718
X-15.241 Y257.607 Z-0.704
X-15.272 Y257.671 Z-0.682
X-15.329 Y257.726 Z-0.643
X-15.382 Y257.776 Z-0.594
X-15.429 Y257.82 Z-0.535
X-15.475 Y257.843 Z-0.473
X-15.512 Y257.861 Z-0.405
X-15.542 Y257.875 Z-0.332
X-15.562 Y257.885 Z-0.256
X-15.573 Y257.889 Z-0.19
X-15.577 Y257.89 Z-0.123
G0 Z5.
X-125.448 Y250.073
Z0.477
G1 Z-0.123 F200.
X-125.441 Y250.072 Z-0.217
X-125.419 Y250.068 Z-0.308
X-125.384 Y250.061 Z-0.395
X-125.336 Y250.051 Z-0.475
X-125.276 Y250.039 Z-0.547
X-125.206 Y250.025 Z-0.608
X-125.127 Y250.009 Z-0.657
X-125.041 Y249.992 Z-0.693
X-124.952 Y249.975 Z-0.715
X-124.86 Y249.956 Z-0.723
G3 X-122.977 Y250.058 R3.798
G1 X-122.62 Y250.185 F500.
X-122.481 Y250.242
X-122.336 Y250.376
X-122.174 Y250.553
X-121.997 Y250.782
X-121.806 Y251.077
X-121.603 Y251.457
X-121.388 Y251.955
X-121.163 Y252.622
X-120.951 Y253.483
X-120.805 Y254.357
X-120.704 Y255.237
X-120.633 Y256.12
X-120.584 Y257.005
X-120.55 Y257.891
X-120.526 Y258.776
X-120.509 Y259.662
X-120.497 Y260.548
X-120.489 Y261.435
X-120.483 Y262.321
X-120.479 Y263.207
X-120.475 Y264.979
X-120.472 Y267.637
X-120.47 Y274.726
Y297.322
X-120.33 Y297.743
X-119.854 Y298.49
X-119.167 Y299.05
X-118.38 Y299.458
X-117.545 Y299.753
X-116.684 Y299.963
X-115.811 Y300.113
X-114.931 Y300.219
X-114.048 Y300.294
X-113.163 Y300.346
X-112.278 Y300.383
X-111.392 Y300.409
X-110.506 Y300.427
X-109.62 Y300.44
X-108.734 Y300.449
X-107.848 Y300.455
X-106.962 Y300.46
X-105.19 Y300.465
X-102.531 Y300.468
X-101.937 Y300.469
X-101.642 Y300.502
X-101.361 Y300.6
X-101.109 Y300.757
X-100.899 Y300.966
X-100.739 Y301.217
G3 X-101.829 Y301.719 R0.6
X-101.835 Y301.705 R0.6
G1 X-101.874 Y301.62 Z-0.715
X-101.911 Y301.536 Z-0.693
X-101.946 Y301.457 Z-0.657
X-101.979 Y301.383 Z-0.608
X-102.008 Y301.318 Z-0.547
X-102.033 Y301.262 Z-0.475
X-102.053 Y301.217 Z-0.395
X-102.068 Y301.184 Z-0.308
X-102.077 Y301.164 Z-0.217
X-102.08 Y301.158 Z-0.123
G0 Z5.
X-125.09 Y250.2
Z0.477
G1 Z-0.123 F200.
X-125.083 Y250.198 Z-0.217
X-125.062 Y250.194 Z-0.308
X-125.026 Y250.187 Z-0.395
X-124.978 Y250.177 Z-0.475
X-124.918 Y250.166 Z-0.547
X-124.848 Y250.152 Z-0.608
X-124.769 Y250.136 Z-0.657
X-124.684 Y250.119 Z-0.693
X-124.594 Y250.101 Z-0.715
X-124.502 Y250.083 Z-0.723
G3 X-122.62 Y250.185 R3.798
G1 X-121.325 Y250.643 F500.
X-121.186 Y250.7
X-121.004 Y250.795
X-120.812 Y250.916
X-120.593 Y251.082
X-120.368 Y251.284
X-120.136 Y251.53
X-119.883 Y251.847
X-119.633 Y252.221
X-119.368 Y252.698
X-119.097 Y253.301
X-118.825 Y254.071
X-118.6 Y254.928
X-118.434 Y255.798
X-118.311 Y256.676
X-118.22 Y257.557
X-118.153 Y258.441
X-118.104 Y259.325
X-118.068 Y260.211
X-118.041 Y261.097
X-118.022 Y261.982
X-118.008 Y262.868
X-117.997 Y263.755
X-117.99 Y264.641
X-117.984 Y265.527
X-117.98 Y266.413
X-117.975 Y268.185
X-117.972 Y270.843
X-117.97 Y277.046
Y293.883
X-117.908 Y294.321
X-117.608 Y295.155
X-117.052 Y295.845
X-116.35 Y296.386
X-115.566 Y296.798
X-114.736 Y297.109
X-113.88 Y297.34
X-113.011 Y297.51
X-112.134 Y297.636
X-111.252 Y297.728
X-110.369 Y297.794
X-109.484 Y297.843
X-108.599 Y297.878
X-107.713 Y297.904
X-106.827 Y297.922
X-105.941 Y297.936
X-105.055 Y297.945
X-104.169 Y297.952
X-103.283 Y297.977
X-102.678 Y298.042
X-102.159 Y298.143
X-101.972 Y298.195
X-101.705 Y298.303
X-101.468 Y298.464
X-101.271 Y298.673
X-101.123 Y298.92
X-101.031 Y299.192
X-101. Y299.478
X-100.999 Y299.972
G3 X-102.199 Y299.947 R0.6
Y299.932 R0.6
G1 X-102.195 Y299.838 Z-0.715
X-102.192 Y299.747 Z-0.693
X-102.189 Y299.66 Z-0.657
X-102.187 Y299.58 Z-0.608
X-102.184 Y299.508 Z-0.547
X-102.182 Y299.447 Z-0.475
X-102.181 Y299.398 Z-0.395
X-102.179 Y299.362 Z-0.308
Y299.34 Z-0.217
X-102.178 Y299.332 Z-0.123
G0 Z5.
X-123.795 Y250.658
Z0.477
G1 Z-0.123 F200.
X-123.788 Y250.656 Z-0.217
X-123.766 Y250.652 Z-0.308
X-123.731 Y250.645 Z-0.395
X-123.683 Y250.635 Z-0.475
X-123.623 Y250.623 Z-0.547
X-123.553 Y250.609 Z-0.608
X-123.474 Y250.594 Z-0.657
X-123.389 Y250.577 Z-0.693
X-123.299 Y250.559 Z-0.715
X-123.207 Y250.541 Z-0.723
G3 X-121.325 Y250.643 R3.798
G1 X-119.307 Y251.356 F500.
X-119.117 Y251.434
X-118.912 Y251.539
X-118.675 Y251.686
X-118.436 Y251.864
X-118.183 Y252.087
X-117.906 Y252.376
X-117.635 Y252.711
X-117.342 Y253.14
X-117.048 Y253.66
X-116.749 Y254.309
X-116.447 Y255.142
X-116.214 Y255.997
X-116.036 Y256.865
X-115.899 Y257.74
X-115.795 Y258.62
X-115.715 Y259.503
X-115.655 Y260.387
X-115.609 Y261.272
X-115.574 Y262.157
X-115.548 Y263.043
X-115.528 Y263.929
X-115.513 Y264.815
X-115.502 Y265.701
X-115.494 Y266.587
X-115.488 Y267.473
X-115.483 Y268.359
X-115.477 Y270.131
X-115.473 Y272.79
X-115.471 Y277.22
X-115.47 Y291.398
X-115.23 Y292.251
X-114.735 Y292.986
X-114.076 Y293.579
X-113.322 Y294.045
X-112.512 Y294.403
X-111.668 Y294.675
X-110.806 Y294.88
X-109.934 Y295.033
X-109.055 Y295.148
X-108.173 Y295.233
X-107.289 Y295.296
X-106.404 Y295.342
X-105.519 Y295.381
X-104.634 Y295.428
X-103.751 Y295.505
X-103.027 Y295.615
X-102.478 Y295.745
X-102.042 Y295.888
X-101.814 Y295.984
X-101.544 Y296.138
X-101.316 Y296.351
X-101.144 Y296.61
X-101.036 Y296.903
X-101. Y297.212
Y299.478
G3 X-102.2 Y299.452 R0.6
X-102.199 Y299.437 R0.6
G1 X-102.196 Y299.343 Z-0.715
X-102.193 Y299.252 Z-0.693
X-102.19 Y299.165 Z-0.657
X-102.187 Y299.084 Z-0.608
X-102.185 Y299.013 Z-0.547
X-102.183 Y298.952 Z-0.475
X-102.181 Y298.903 Z-0.395
X-102.18 Y298.867 Z-0.308
X-102.179 Y298.845 Z-0.217
Y298.837 Z-0.123
G0 Z5.
X-121.778 Y251.371
Z0.477
G1 Z-0.123 F200.
X-121.77 Y251.37 Z-0.217
X-121.749 Y251.365 Z-0.308
X-121.714 Y251.358 Z-0.395
X-121.665 Y251.349 Z-0.475
X-121.605 Y251.337 Z-0.547
X-121.535 Y251.323 Z-0.608
X-121.456 Y251.307 Z-0.657
X-121.371 Y251.29 Z-0.693
X-121.281 Y251.272 Z-0.715
X-121.189 Y251.254 Z-0.723
G3 X-119.307 Y251.356 R3.798
G1 X-117.092 Y252.139 F500.
X-116.846 Y252.24
X-116.632 Y252.35
X-116.391 Y252.5
X-116.122 Y252.7
X-115.862 Y252.929
X-115.569 Y253.235
X-115.28 Y253.59
X-114.967 Y254.05
X-114.658 Y254.596
X-114.339 Y255.29
X-114.036 Y256.123
X-113.799 Y256.977
X-113.613 Y257.843
X-113.468 Y258.717
X-113.355 Y259.596
X-113.267 Y260.478
X-113.198 Y261.361
X-113.145 Y262.246
X-113.104 Y263.131
X-113.072 Y264.016
X-113.048 Y264.902
X-113.029 Y265.788
X-113.015 Y266.674
X-113.004 Y267.56
X-112.996 Y268.446
X-112.99 Y269.332
X-112.985 Y270.219
X-112.978 Y271.991
X-112.973 Y274.649
X-112.971 Y279.08
X-112.97 Y288.827
X-112.712 Y289.675
X-112.213 Y290.407
X-111.558 Y291.004
X-110.808 Y291.476
X-110.002 Y291.843
X-109.161 Y292.123
X-108.301 Y292.336
X-107.43 Y292.499
X-106.553 Y292.628
X-105.674 Y292.741
X-104.796 Y292.858
X-103.921 Y292.995
X-103.053 Y293.175
X-102.43 Y293.356
X-101.929 Y293.549
X-101.753 Y293.634
X-101.501 Y293.793
X-101.29 Y294.004
X-101.132 Y294.257
X-101.033 Y294.538
X-101. Y294.834
Y297.212
G3 X-102.2 Y297.185 R0.6
X-102.199 Y297.17 R0.6
G1 X-102.196 Y297.076 Z-0.715
X-102.193 Y296.985 Z-0.693
X-102.19 Y296.898 Z-0.657
X-102.187 Y296.818 Z-0.608
X-102.184 Y296.746 Z-0.547
X-102.182 Y296.685 Z-0.475
X-102.181 Y296.636 Z-0.395
X-102.179 Y296.6 Z-0.308
Y296.578 Z-0.217
X-102.178 Y296.571 Z-0.123
G0 Z5.
X-119.562 Y252.154
Z0.477
G1 Z-0.123 F200.
X-119.555 Y252.153 Z-0.217
X-119.534 Y252.149 Z-0.308
X-119.498 Y252.141 Z-0.395
X-119.45 Y252.132 Z-0.475
X-119.39 Y252.12 Z-0.547
X-119.32 Y252.106 Z-0.608
X-119.241 Y252.09 Z-0.657
X-119.156 Y252.073 Z-0.693
X-119.066 Y252.055 Z-0.715
X-118.974 Y252.037 Z-0.723
G3 X-117.092 Y252.139 R3.798
G1 X-114.675 Y252.994 F500.
X-114.507 Y253.063
X-114.276 Y253.181
X-114.035 Y253.331
X-113.758 Y253.536
X-113.486 Y253.777
X-113.189 Y254.086
X-112.885 Y254.461
X-112.561 Y254.936
X-112.241 Y255.503
X-111.908 Y256.227
X-111.605 Y257.06
X-111.365 Y257.913
X-111.175 Y258.778
X-111.024 Y259.651
X-110.904 Y260.529
X-110.81 Y261.41
X-110.735 Y262.293
X-110.677 Y263.178
X-110.631 Y264.062
X-110.595 Y264.948
X-110.567 Y265.834
X-110.545 Y266.719
X-110.528 Y267.605
X-110.514 Y268.491
X-110.504 Y269.377
X-110.496 Y270.263
X-110.49 Y271.15
X-110.485 Y272.036
X-110.479 Y273.808
X-110.474 Y276.466
X-110.471 Y280.897
X-110.47 Y286.214
X-110.227 Y287.066
X-109.744 Y287.808
X-109.101 Y288.418
X-108.36 Y288.905
X-107.562 Y289.29
X-106.732 Y289.6
X-105.884 Y289.858
X-105.029 Y290.088
X-104.171 Y290.31
X-103.317 Y290.547
X-102.494 Y290.814
X-101.944 Y291.044
X-101.718 Y291.162
X-101.477 Y291.323
X-101.276 Y291.533
X-101.125 Y291.781
X-101.032 Y292.056
X-101. Y292.345
Y294.834
G3 X-102.2 Y294.808 R0.6
X-102.199 Y294.793 R0.6
G1 X-102.196 Y294.699 Z-0.715
X-102.193 Y294.607 Z-0.693
X-102.19 Y294.52 Z-0.657
X-102.187 Y294.44 Z-0.608
X-102.184 Y294.369 Z-0.547
X-102.182 Y294.307 Z-0.475
X-102.181 Y294.258 Z-0.395
X-102.179 Y294.222 Z-0.308
Y294.2 Z-0.217
X-102.178 Y294.193 Z-0.123
G0 Z5.
X-117.146 Y253.009
Z0.477
G1 Z-0.123 F200.
X-117.139 Y253.007 Z-0.217
X-117.117 Y253.003 Z-0.308
X-117.082 Y252.996 Z-0.395
X-117.033 Y252.986 Z-0.475
X-116.974 Y252.974 Z-0.547
X-116.903 Y252.96 Z-0.608
X-116.825 Y252.945 Z-0.657
X-116.739 Y252.928 Z-0.693
X-116.649 Y252.91 Z-0.715
X-116.557 Y252.891 Z-0.723
G3 X-114.675 Y252.994 R3.798
G1 X-112.259 Y253.848 F500.
X-112.119 Y253.905
X-111.877 Y254.029
X-111.636 Y254.179
X-111.359 Y254.385
X-111.076 Y254.635
X-110.777 Y254.947
X-110.464 Y255.333
X-110.134 Y255.817
X-109.805 Y256.399
X-109.462 Y257.144
X-109.159 Y257.977
X-108.917 Y258.829
X-108.724 Y259.694
X-108.569 Y260.566
X-108.445 Y261.444
X-108.346 Y262.324
X-108.267 Y263.207
X-108.204 Y264.091
X-108.154 Y264.975
X-108.115 Y265.861
X-108.083 Y266.746
X-108.059 Y267.632
X-108.039 Y268.518
X-108.024 Y269.404
X-108.012 Y270.29
X-108.003 Y271.176
X-107.995 Y272.062
X-107.989 Y272.948
X-107.982 Y274.72
X-107.977 Y276.493
X-107.973 Y279.151
X-107.971 Y283.582
X-107.76 Y284.442
X-107.31 Y285.206
X-106.701 Y285.85
X-105.996 Y286.387
X-105.234 Y286.839
X-104.44 Y287.232
X-103.63 Y287.591
X-102.817 Y287.943
X-102.015 Y288.32
X-101.669 Y288.519
X-101.443 Y288.683
X-101.255 Y288.89
X-101.116 Y289.132
X-101.029 Y289.397
X-101. Y289.675
Y292.345
G3 X-102.2 Y292.318 R0.6
X-102.199 Y292.303 R0.6
G1 X-102.196 Y292.209 Z-0.715
X-102.193 Y292.117 Z-0.693
X-102.19 Y292.03 Z-0.657
X-102.187 Y291.95 Z-0.608
X-102.184 Y291.879 Z-0.547
X-102.182 Y291.818 Z-0.475
X-102.181 Y291.768 Z-0.395
X-102.179 Y291.732 Z-0.308
Y291.71 Z-0.217
X-102.178 Y291.703 Z-0.123
G0 Z5.
X-114.729 Y253.863
Z0.477
G1 Z-0.123 F200.
X-114.722 Y253.862 Z-0.217
X-114.7 Y253.857 Z-0.308
X-114.665 Y253.85 Z-0.395
X-114.617 Y253.841 Z-0.475
X-114.557 Y253.829 Z-0.547
X-114.487 Y253.815 Z-0.608
X-114.408 Y253.799 Z-0.657
X-114.323 Y253.782 Z-0.693
X-114.233 Y253.764 Z-0.715
X-114.141 Y253.746 Z-0.723
G3 X-112.259 Y253.848 R3.798
G1 X-109.935 Y254.67 F500.
X-109.699 Y254.766
X-109.452 Y254.893
X-109.209 Y255.044
X-108.932 Y255.25
X-108.643 Y255.505
X-108.342 Y255.819
X-108.023 Y256.212
X-107.689 Y256.702
X-107.354 Y257.295
X-107.005 Y258.054
X-106.702 Y258.886
X-106.459 Y259.738
X-106.263 Y260.603
X-106.105 Y261.475
X-105.978 Y262.352
X-105.876 Y263.232
X-105.793 Y264.114
X-105.727 Y264.998
X-105.674 Y265.882
X-105.632 Y266.767
X-105.598 Y267.653
X-105.571 Y268.539
X-105.55 Y269.424
X-105.533 Y270.31
X-105.519 Y271.196
X-105.509 Y272.082
X-105.5 Y272.969
X-105.494 Y273.855
X-105.488 Y274.741
X-105.481 Y276.513
X-105.477 Y278.285
X-105.473 Y280.944
X-105.322 Y281.817
X-104.949 Y282.621
X-104.418 Y283.33
X-103.786 Y283.951
X-103.093 Y284.504
X-102.368 Y285.013
X-101.638 Y285.516
X-101.52 Y285.607
X-101.302 Y285.819
X-101.137 Y286.075
X-101.035 Y286.361
X-101. Y286.663
Y289.675
G3 X-102.2 Y289.648 R0.6
X-102.199 Y289.633 R0.6
G1 X-102.196 Y289.539 Z-0.715
X-102.193 Y289.448 Z-0.693
X-102.19 Y289.361 Z-0.657
X-102.187 Y289.281 Z-0.608
X-102.184 Y289.209 Z-0.547
X-102.182 Y289.148 Z-0.475
X-102.181 Y289.099 Z-0.395
X-102.179 Y289.063 Z-0.308
Y289.041 Z-0.217
X-102.178 Y289.034 Z-0.123
G0 Z5.
X-112.405 Y254.685
Z0.477
G1 Z-0.123 F200.
X-112.398 Y254.683 Z-0.217
X-112.377 Y254.679 Z-0.308
X-112.341 Y254.672 Z-0.395
X-112.293 Y254.662 Z-0.475
X-112.233 Y254.65 Z-0.547
X-112.163 Y254.636 Z-0.608
X-112.084 Y254.621 Z-0.657
X-111.999 Y254.604 Z-0.693
X-111.909 Y254.586 Z-0.715
X-111.817 Y254.567 Z-0.723
G3 X-109.935 Y254.67 R3.798
G1 X-107.425 Y255.557 F500.
X-107.267 Y255.622
X-107.016 Y255.75
X-106.77 Y255.903
X-106.494 Y256.109
X-106.199 Y256.369
X-105.896 Y256.684
X-105.573 Y257.083
X-105.236 Y257.577
X-104.896 Y258.18
X-104.541 Y258.95
X-104.238 Y259.783
X-103.994 Y260.635
X-103.796 Y261.499
X-103.636 Y262.37
X-103.506 Y263.247
X-103.401 Y264.127
X-103.316 Y265.009
X-103.248 Y265.892
X-103.192 Y266.776
X-103.148 Y267.661
X-103.112 Y268.547
X-103.083 Y269.432
X-103.06 Y270.318
X-103.041 Y271.204
X-103.026 Y272.09
X-103.015 Y272.976
X-103.005 Y273.862
X-102.998 Y274.748
X-102.992 Y275.635
X-102.983 Y277.407
X-102.98 Y278.293
X-102.914 Y279.177
X-102.66 Y280.025
X-102.25 Y280.811
X-101.733 Y281.53
X-101.32 Y282.013
X-101.145 Y282.274
X-101.037 Y282.568
X-101. Y282.88
Y286.663
G3 X-102.2 Y286.637 R0.6
X-102.199 Y286.622 R0.6
G1 X-102.196 Y286.528 Z-0.715
X-102.193 Y286.436 Z-0.693
X-102.19 Y286.349 Z-0.657
X-102.187 Y286.269 Z-0.608
X-102.184 Y286.198 Z-0.547
X-102.182 Y286.136 Z-0.475
X-102.181 Y286.087 Z-0.395
X-102.179 Y286.051 Z-0.308
Y286.029 Z-0.217
X-102.178 Y286.022 Z-0.123
G0 Z5.
X-109.896 Y255.572
Z0.477
G1 Z-0.123 F200.
X-109.889 Y255.57 Z-0.217
X-109.867 Y255.566 Z-0.308
X-109.832 Y255.559 Z-0.395
X-109.784 Y255.549 Z-0.475
X-109.724 Y255.537 Z-0.547
X-109.654 Y255.524 Z-0.608
X-109.575 Y255.508 Z-0.657
X-109.49 Y255.491 Z-0.693
X-109.4 Y255.473 Z-0.715
X-109.308 Y255.455 Z-0.723
G3 X-107.425 Y255.557 R3.798
G1 X-105.009 Y256.411 F500.
X-104.816 Y256.49
X-104.564 Y256.619
X-104.316 Y256.774
X-104.039 Y256.979
X-103.742 Y257.242
X-103.438 Y257.558
X-103.112 Y257.961
X-102.773 Y258.458
X-102.429 Y259.066
X-102.07 Y259.845
X-101.768 Y260.678
X-101.523 Y261.53
X-101.324 Y262.393
X-101.162 Y263.264
X-101.03 Y264.141
X-101.01 Y264.308
X-101.004 Y264.361
X-101.001 Y264.415
X-101. Y264.469
G3 X-102.14 Y264.708 R0.6
G1 X-102.266 Y264.446
X-105.517 Y257.686
X-105.73 Y257.243 F200.
G3 X-105.009 Y256.411 R0.6
G1 X-102.592 Y257.265 F500.
X-102.356 Y257.363
X-102.104 Y257.492
X-101.853 Y257.648
X-101.576 Y257.853
X-101.451 Y257.964
X-101.261 Y258.172
X-101.118 Y258.415
X-101.03 Y258.683
X-101. Y258.964
G3 X-102.011 Y259.379 R0.6
G1 X-102.382 Y259.03
X-102.987 Y258.46
X-103.184 Y258.275 F200.
G3 X-102.592 Y257.265 R0.6
G1 X-101.393 Y257.69 F500.
X-101.334 Y257.717
X-101.283 Y257.746
X-101.233 Y257.783
X-101.183 Y257.828
X-101.126 Y257.891
X-101.091 Y257.941
X-101.063 Y257.992
X-101.04 Y258.042
X-101.023 Y258.092
X-101.004 Y258.193
X-101. Y258.294
Y282.88
G3 X-101.941 Y283.352 R0.6
G1 X-101.993 Y283.3 Z-0.718
X-102.045 Y283.248 Z-0.704
X-102.094 Y283.198 Z-0.682
X-102.127 Y283.126 Z-0.643
X-102.156 Y283.059 Z-0.594
X-102.183 Y283. Z-0.535
X-102.188 Y282.953 Z-0.478
X-102.193 Y282.914 Z-0.416
X-102.197 Y282.882 Z-0.35
X-102.2 Y282.859 Z-0.28
Y282.853 Z-0.256
X-102.199 Y282.841 Z-0.19
Y282.838 Z-0.123
G0 Z5.
X-23.987 Y303.972
Z0.2
G1 Z-0.4 F200.
X-23.981 Y303.968 Z-0.494
X-23.963 Y303.956 Z-0.585
X-23.933 Y303.935 Z-0.672
X-23.893 Y303.907 Z-0.753
X-23.843 Y303.872 Z-0.824
X-23.784 Y303.831 Z-0.885
X-23.718 Y303.786 Z-0.935
X-23.646 Y303.736 Z-0.971
X-23.571 Y303.684 Z-0.993
X-23.494 Y303.63 Z-1.
G3 X-21.727 Y302.973 R3.798
G1 X-21.637 Y302.967 F500.
X-21.435 Y302.94
X-21.234 Y302.892
X-21.033 Y302.839
X-20.908 Y302.791
X-20.831 Y302.758
X-20.63 Y302.665
X-20.428 Y302.552
X-20.197 Y302.389
X-20.026 Y302.254
X-19.986 Y302.217
X-19.836 Y302.09
X-19.577 Y301.906
X-19.244 Y301.709
X-18.812 Y301.5
X-18.241 Y301.28
X-17.457 Y301.051
X-16.589 Y300.874
X-15.712 Y300.751
X-14.83 Y300.666
X-13.945 Y300.607
X-13.06 Y300.566
X-12.175 Y300.537
X-11.289 Y300.517
X-10.403 Y300.503
X-9.517 Y300.493
X-8.63 Y300.486
X-7.744 Y300.481
X-6.858 Y300.478
X-5.086 Y300.474
X-2.871 Y300.472
X-2.433 Y300.401
X-2.039 Y300.199
X-1.344 Y299.649
X-0.829 Y298.928
X-0.454 Y298.125
X-0.184 Y297.281
X0.008 Y296.416
X0.145 Y295.541
X0.241 Y294.66
X0.309 Y293.776
X0.357 Y292.891
X0.391 Y292.006
X0.415 Y291.12
X0.431 Y290.234
X0.443 Y289.348
X0.451 Y288.462
X0.457 Y287.576
X0.461 Y286.69
X0.465 Y284.918
X0.468 Y282.259
X0.47 Y275.17
Y268.967
Y251.888
X0.498 Y251.616
X0.581 Y251.356
X0.715 Y251.118
X0.894 Y250.912
X1.112 Y250.747
X1.359 Y250.63
G3 X2.118 Y251.36 R0.6
G1 X2.086 Y251.427 Z-0.995
X2.055 Y251.493 Z-0.982
X2.024 Y251.556 Z-0.959
X1.967 Y251.611 Z-0.921
X1.914 Y251.661 Z-0.871
X1.867 Y251.705 Z-0.812
X1.821 Y251.728 Z-0.75
X1.783 Y251.746 Z-0.682
X1.754 Y251.76 Z-0.61
X1.733 Y251.77 Z-0.533
X1.723 Y251.774 Z-0.467
X1.719 Y251.775 Z-0.4
G0 Z5.
X-21.491 Y304.192
Z0.2
G1 Z-0.4 F200.
X-21.487 Y304.185 Z-0.494
X-21.475 Y304.167 Z-0.585
X-21.456 Y304.136 Z-0.672
X-21.429 Y304.095 Z-0.753
X-21.396 Y304.043 Z-0.824
X-21.358 Y303.983 Z-0.885
X-21.314 Y303.916 Z-0.935
X-21.268 Y303.842 Z-0.971
X-21.218 Y303.765 Z-0.993
X-21.168 Y303.686 Z-1.
G3 X-19.986 Y302.217 R8.75
G1 X-19.954 Y302.187 F500.
X-19.824 Y302.061
X-19.595 Y301.784
X-19.456 Y301.583
X-19.422 Y301.529
X-19.341 Y301.382
X-19.243 Y301.18
X-19.22 Y301.119
X-19.161 Y300.981
X-19.075 Y300.823
X-18.958 Y300.643
X-18.798 Y300.439
X-18.61 Y300.236
X-18.367 Y300.014
X-18.064 Y299.779
X-17.689 Y299.536
X-17.218 Y299.284
X-16.615 Y299.023
X-15.828 Y298.758
X-14.967 Y298.546
X-14.095 Y298.391
X-13.216 Y298.277
X-12.334 Y298.194
X-11.45 Y298.133
X-10.565 Y298.089
X-9.679 Y298.056
X-8.794 Y298.033
X-7.908 Y298.015
X-7.022 Y298.003
X-6.136 Y297.994
X-5.697 Y297.931
X-4.862 Y297.635
X-4.171 Y297.08
X-3.628 Y296.38
X-3.212 Y295.597
X-2.899 Y294.768
X-2.666 Y293.913
X-2.494 Y293.044
X-2.368 Y292.167
X-2.275 Y291.286
X-2.207 Y290.402
X-2.158 Y289.517
X-2.123 Y288.632
X-2.097 Y287.746
X-2.078 Y286.86
X-2.065 Y285.974
X-2.055 Y285.088
X-2.048 Y284.202
X-2.043 Y283.316
X-2.039 Y282.43
X-2.035 Y280.658
X-2.032 Y277.999
X-2.03 Y270.91
Y262.935
Y254.074
X-2.019 Y253.631
X-1.977 Y252.914
X-1.924 Y252.549
X-1.852 Y252.269
X-1.721 Y252.01
X-1.537 Y251.786
X-1.31 Y251.607
X-1.049 Y251.482
X1.359 Y250.63
G3 X2.118 Y251.36 R0.6
G1 X2.086 Y251.427 Z-0.995
X2.055 Y251.493 Z-0.982
X2.024 Y251.556 Z-0.959
X1.967 Y251.611 Z-0.921
X1.914 Y251.661 Z-0.871
X1.867 Y251.705 Z-0.812
X1.821 Y251.728 Z-0.75
X1.783 Y251.746 Z-0.682
X1.754 Y251.76 Z-0.61
X1.733 Y251.77 Z-0.533
X1.723 Y251.774 Z-0.467
X1.719 Y251.775 Z-0.4
G0 Z5.
X-19.681 Y303.558
Z0.2
G1 Z-0.4 F200.
X-19.68 Y303.551 Z-0.494
X-19.678 Y303.529 Z-0.585
X-19.674 Y303.493 Z-0.672
X-19.669 Y303.444 Z-0.753
X-19.663 Y303.383 Z-0.824
X-19.655 Y303.312 Z-0.885
X-19.647 Y303.232 Z-0.935
X-19.638 Y303.146 Z-0.971
X-19.628 Y303.055 Z-0.993
X-19.618 Y302.961 Z-1.
G3 X-19.22 Y301.119 R8.75
G1 X-19.168 Y300.979 F500.
X-19.107 Y300.778
X-19.058 Y300.576
X-19.026 Y300.375
X-19.019 Y300.319
X-19.009 Y300.174
X-19.001 Y299.972
X-18.993 Y299.823
X-18.965 Y299.662
X-18.918 Y299.485
X-18.852 Y299.298
X-18.754 Y299.079
X-18.633 Y298.861
X-18.472 Y298.62
X-18.26 Y298.353
X-18.018 Y298.096
X-17.696 Y297.808
X-17.328 Y297.529
X-16.853 Y297.228
X-16.286 Y296.931
X-15.566 Y296.628
X-14.724 Y296.353
X-13.863 Y296.142
X-12.992 Y295.98
X-12.115 Y295.856
X-11.234 Y295.761
X-10.351 Y295.689
X-9.466 Y295.635
X-8.581 Y295.594
X-7.735 Y295.33
X-7.007 Y294.825
X-6.418 Y294.163
X-5.956 Y293.407
X-5.599 Y292.595
X-5.328 Y291.752
X-5.123 Y290.89
X-4.969 Y290.017
X-4.855 Y289.139
X-4.769 Y288.257
X-4.706 Y287.373
X-4.659 Y286.488
X-4.625 Y285.602
X-4.6 Y284.717
X-4.581 Y283.831
X-4.567 Y282.945
X-4.557 Y282.059
X-4.55 Y281.172
X-4.545 Y280.286
X-4.541 Y279.4
X-4.536 Y277.628
X-4.532 Y274.97
X-4.53 Y269.653
Y259.019
Y256.361
X-4.524 Y255.475
X-4.502 Y254.589
X-4.442 Y253.796
X-4.378 Y253.397
X-4.303 Y253.122
X-4.171 Y252.869
X-3.989 Y252.649
X-3.763 Y252.474
X-3.506 Y252.35
X-1.049 Y251.482
G3 X-0.29 Y252.212 R0.6
G1 X-0.322 Y252.278 Z-0.995
X-0.353 Y252.344 Z-0.982
X-0.384 Y252.407 Z-0.959
X-0.441 Y252.462 Z-0.921
X-0.494 Y252.512 Z-0.871
X-0.541 Y252.557 Z-0.812
X-0.587 Y252.579 Z-0.75
X-0.624 Y252.597 Z-0.682
X-0.654 Y252.612 Z-0.61
X-0.674 Y252.622 Z-0.533
X-0.685 Y252.625 Z-0.467
X-0.689 Y252.626 Z-0.4
G0 Z5.
X-18.587 Y302.42
Z0.2
G1 Z-0.4 F200.
X-18.588 Y302.413 Z-0.494
X-18.594 Y302.391 Z-0.585
X-18.603 Y302.357 Z-0.672
X-18.615 Y302.309 Z-0.753
X-18.63 Y302.25 Z-0.824
X-18.648 Y302.18 Z-0.885
X-18.667 Y302.102 Z-0.935
X-18.689 Y302.018 Z-0.971
X-18.712 Y301.929 Z-0.993
X-18.735 Y301.838 Z-1.
G3 X-19.001 Y299.972 R8.75
G1 X-19. Y298.362 F500.
X-18.987 Y298.098
X-18.962 Y297.916
X-18.916 Y297.706
X-18.846 Y297.479
X-18.749 Y297.239
X-18.613 Y296.969
X-18.449 Y296.7
X-18.224 Y296.393
X-17.966 Y296.098
X-17.627 Y295.767
X-17.236 Y295.446
X-16.737 Y295.101
X-16.153 Y294.766
X-15.422 Y294.423
X-14.591 Y294.115
X-13.74 Y293.869
X-12.876 Y293.674
X-12.003 Y293.519
X-11.125 Y293.397
X-10.3 Y293.075
X-9.586 Y292.55
X-9.002 Y291.884
X-8.537 Y291.129
X-8.174 Y290.321
X-7.893 Y289.48
X-7.679 Y288.621
X-7.517 Y287.749
X-7.394 Y286.872
X-7.301 Y285.991
X-7.232 Y285.107
X-7.18 Y284.223
X-7.142 Y283.337
X-7.113 Y282.452
X-7.091 Y281.566
X-7.075 Y280.68
X-7.064 Y279.794
X-7.055 Y278.908
X-7.048 Y278.022
X-7.043 Y277.135
X-7.037 Y275.363
X-7.033 Y272.705
X-7.031 Y268.274
X-7.03 Y258.527
X-7.028 Y257.641
X-7.021 Y256.755
X-7. Y255.869
X-6.951 Y254.984
X-6.869 Y254.331
X-6.763 Y253.827
X-6.662 Y253.617
X-6.502 Y253.448
X-6.297 Y253.337
X-3.506 Y252.35
G3 X-2.747 Y253.08 R0.6
G1 X-2.779 Y253.147 Z-0.995
X-2.81 Y253.213 Z-0.982
X-2.841 Y253.276 Z-0.959
X-2.898 Y253.331 Z-0.921
X-2.951 Y253.381 Z-0.871
X-2.998 Y253.425 Z-0.812
X-3.044 Y253.448 Z-0.75
X-3.082 Y253.466 Z-0.682
X-3.111 Y253.48 Z-0.61
X-3.132 Y253.49 Z-0.533
X-3.142 Y253.494 Z-0.467
X-3.146 Y253.495 Z-0.4
G0 Z5.
X-18.162 Y300.686
Z0.2
G1 Z-0.4 F200.
X-18.166 Y300.68 Z-0.494
X-18.177 Y300.661 Z-0.585
X-18.196 Y300.63 Z-0.672
X-18.221 Y300.587 Z-0.753
X-18.252 Y300.535 Z-0.824
X-18.289 Y300.473 Z-0.885
X-18.33 Y300.404 Z-0.935
X-18.374 Y300.33 Z-0.971
X-18.421 Y300.251 Z-0.993
X-18.469 Y300.17 Z-1.
G3 X-19. Y298.362 R3.798
G1 Y296.348 F500.
X-18.987 Y296.085
X-18.96 Y295.886
X-18.91 Y295.656
X-18.833 Y295.407
X-18.726 Y295.144
X-18.578 Y294.848
X-18.398 Y294.554
X-18.151 Y294.218
X-17.869 Y293.894
X-17.494 Y293.529
X-17.071 Y293.181
X-16.531 Y292.809
X-15.871 Y292.429
X-15.069 Y292.053
X-14.238 Y291.745
X-13.401 Y291.455
X-12.637 Y291.006
X-11.98 Y290.411
X-11.439 Y289.709
X-11.005 Y288.937
X-10.662 Y288.12
X-10.394 Y287.275
X-10.187 Y286.413
X-10.028 Y285.542
X-9.906 Y284.664
X-9.814 Y283.783
X-9.744 Y282.899
X-9.69 Y282.015
X-9.65 Y281.13
X-9.62 Y280.244
X-9.597 Y279.358
X-9.58 Y278.472
X-9.568 Y277.586
X-9.558 Y276.7
X-9.551 Y275.814
X-9.546 Y274.928
X-9.542 Y274.042
X-9.536 Y272.27
X-9.533 Y269.611
X-9.53 Y264.294
Y259.864
X-9.528 Y258.978
X-9.521 Y258.092
X-9.503 Y257.206
X-9.467 Y256.32
X-9.394 Y255.437
X-9.35 Y255.156
X-9.275 Y254.88
X-9.143 Y254.627
X-8.96 Y254.407
X-8.735 Y254.232
X-8.477 Y254.108
X-6.297 Y253.337
G3 X-5.538 Y254.067 R0.6
G1 X-5.57 Y254.134 Z-0.995
X-5.601 Y254.199 Z-0.982
X-5.632 Y254.263 Z-0.959
X-5.689 Y254.317 Z-0.921
X-5.742 Y254.367 Z-0.871
X-5.789 Y254.412 Z-0.812
X-5.835 Y254.434 Z-0.75
X-5.872 Y254.453 Z-0.682
X-5.902 Y254.467 Z-0.61
X-5.922 Y254.477 Z-0.533
X-5.933 Y254.481 Z-0.467
X-5.937 Y254.482 Z-0.4
G0 Z5.
X-18.162 Y298.672
Z0.2
G1 Z-0.4 F200.
X-18.166 Y298.666 Z-0.494
X-18.177 Y298.647 Z-0.585
X-18.196 Y298.616 Z-0.672
X-18.221 Y298.574 Z-0.753
X-18.252 Y298.521 Z-0.824
X-18.289 Y298.46 Z-0.885
X-18.33 Y298.391 Z-0.935
X-18.374 Y298.316 Z-0.971
X-18.421 Y298.237 Z-0.993
X-18.469 Y298.157 Z-1.
G3 X-19. Y296.348 R3.798
G1 Y294.133 F500.
X-18.991 Y293.959
X-18.961 Y293.736
X-18.911 Y293.506
X-18.827 Y293.236
X-18.718 Y292.964
X-18.563 Y292.656
X-18.366 Y292.335
X-18.116 Y291.994
X-17.798 Y291.629
X-17.419 Y291.26
X-16.916 Y290.846
X-16.187 Y290.343
X-15.466 Y289.826
X-14.816 Y289.225
X-14.256 Y288.538
X-13.788 Y287.786
X-13.407 Y286.986
X-13.101 Y286.154
X-12.859 Y285.301
X-12.669 Y284.436
X-12.521 Y283.562
X-12.406 Y282.684
X-12.317 Y281.802
X-12.249 Y280.919
X-12.196 Y280.034
X-12.156 Y279.149
X-12.126 Y278.263
X-12.102 Y277.377
X-12.085 Y276.491
X-12.071 Y275.605
X-12.061 Y274.719
X-12.053 Y273.833
X-12.048 Y272.947
X-12.043 Y272.061
X-12.037 Y270.289
X-12.033 Y267.63
X-12.03 Y261.428
X-12.028 Y260.541
X-12.023 Y259.655
X-12.012 Y258.769
X-11.988 Y257.883
X-11.946 Y256.998
X-11.873 Y256.273
X-11.821 Y255.996
X-11.741 Y255.729
X-11.608 Y255.485
X-11.427 Y255.273
X-11.206 Y255.104
X-10.955 Y254.984
X-8.477 Y254.108
G3 X-7.718 Y254.838 R0.6
G1 X-7.75 Y254.905 Z-0.995
X-7.782 Y254.97 Z-0.982
X-7.812 Y255.034 Z-0.959
X-7.87 Y255.088 Z-0.921
X-7.923 Y255.138 Z-0.871
X-7.97 Y255.183 Z-0.812
X-8.015 Y255.205 Z-0.75
X-8.053 Y255.224 Z-0.682
X-8.082 Y255.238 Z-0.61
X-8.103 Y255.248 Z-0.533
X-8.114 Y255.252 Z-0.467
X-8.117 Y255.253 Z-0.4
G0 Z5.
X-18.162 Y296.458
Z0.2
G1 Z-0.4 F200.
X-18.166 Y296.451 Z-0.494
X-18.177 Y296.432 Z-0.585
X-18.196 Y296.401 Z-0.672
X-18.221 Y296.359 Z-0.753
X-18.252 Y296.307 Z-0.824
X-18.289 Y296.245 Z-0.885
X-18.33 Y296.176 Z-0.935
X-18.374 Y296.101 Z-0.971
X-18.421 Y296.023 Z-0.993
X-18.469 Y295.942 Z-1.
G3 X-19. Y294.133 R3.798
G1 Y291.919 F500.
X-18.992 Y291.752
X-18.96 Y291.519
X-18.907 Y291.276
X-18.823 Y291.005
X-18.693 Y290.682
X-18.494 Y290.287
X-18.031 Y289.532
X-17.52 Y288.808
X-17.028 Y288.071
X-16.582 Y287.306
X-16.194 Y286.509
X-15.867 Y285.685
X-15.595 Y284.842
X-15.373 Y283.984
X-15.193 Y283.116
X-15.05 Y282.242
X-14.935 Y281.363
X-14.845 Y280.482
X-14.774 Y279.598
X-14.719 Y278.714
X-14.675 Y277.829
X-14.642 Y276.943
X-14.616 Y276.058
X-14.596 Y275.172
X-14.58 Y274.286
X-14.568 Y273.4
X-14.559 Y272.514
X-14.552 Y271.628
X-14.547 Y270.741
X-14.54 Y268.969
X-14.536 Y267.197
X-14.531 Y262.766
X-14.529 Y261.88
X-14.524 Y260.994
X-14.515 Y260.108
X-14.497 Y259.222
X-14.464 Y258.337
X-14.4 Y257.453
X-14.307 Y256.828
X-14.304 Y256.817
X-14.218 Y256.566
X-14.083 Y256.336
X-13.905 Y256.139
X-13.692 Y255.98
X-13.451 Y255.867
X-10.955 Y254.984
G3 X-10.196 Y255.714 R0.6
G1 X-10.228 Y255.78 Z-0.995
X-10.259 Y255.846 Z-0.982
X-10.289 Y255.91 Z-0.959
X-10.347 Y255.964 Z-0.921
X-10.4 Y256.014 Z-0.871
X-10.447 Y256.059 Z-0.812
X-10.492 Y256.081 Z-0.75
X-10.53 Y256.1 Z-0.682
X-10.56 Y256.114 Z-0.61
X-10.58 Y256.124 Z-0.533
X-10.591 Y256.127 Z-0.467
X-10.594 Y256.129 Z-0.4
G0 Z5.
X-18.162 Y294.243
Z0.2
G1 Z-0.4 F200.
X-18.166 Y294.236 Z-0.494
X-18.177 Y294.218 Z-0.585
X-18.196 Y294.187 Z-0.672
X-18.221 Y294.144 Z-0.753
X-18.252 Y294.092 Z-0.824
X-18.289 Y294.03 Z-0.885
X-18.33 Y293.961 Z-0.935
X-18.374 Y293.886 Z-0.971
X-18.421 Y293.808 Z-0.993
X-18.469 Y293.727 Z-1.
G3 X-19. Y291.919 R3.798
G1 Y289.301 F500.
X-18.962 Y288.55
X-18.846 Y287.685
X-18.656 Y286.819
X-18.443 Y285.959
X-18.233 Y285.098
X-18.037 Y284.234
X-17.862 Y283.365
X-17.711 Y282.492
X-17.582 Y281.616
X-17.474 Y280.736
X-17.385 Y279.854
X-17.313 Y278.971
X-17.254 Y278.087
X-17.206 Y277.202
X-17.169 Y276.317
X-17.139 Y275.431
X-17.115 Y274.546
X-17.096 Y273.66
X-17.081 Y272.774
X-17.07 Y271.888
X-17.061 Y271.001
X-17.054 Y270.115
X-17.048 Y269.229
X-17.041 Y267.457
X-17.035 Y264.799
X-17.03 Y263.026
X-17.025 Y262.14
X-17.017 Y261.254
X-17.001 Y260.368
X-16.972 Y259.483
X-16.918 Y258.598
X-16.835 Y257.91
X-16.798 Y257.732
X-16.716 Y257.472
X-16.582 Y257.233
X-16.402 Y257.027
X-16.184 Y256.862
X-15.937 Y256.745
X-13.451 Y255.867
G3 X-12.692 Y256.597 R0.6
G1 X-12.724 Y256.663 Z-0.995
X-12.755 Y256.729 Z-0.982
X-12.786 Y256.792 Z-0.959
X-12.843 Y256.847 Z-0.921
X-12.896 Y256.897 Z-0.871
X-12.943 Y256.942 Z-0.812
X-12.989 Y256.964 Z-0.75
X-13.027 Y256.982 Z-0.682
X-13.056 Y256.997 Z-0.61
X-13.077 Y257.007 Z-0.533
X-13.087 Y257.01 Z-0.467
X-13.091 Y257.011 Z-0.4
G0 Z5.
X-18.162 Y291.625
Z0.2
G1 Z-0.4 F200.
X-18.166 Y291.619 Z-0.494
X-18.177 Y291.6 Z-0.585
X-18.196 Y291.569 Z-0.672
X-18.221 Y291.527 Z-0.753
X-18.252 Y291.474 Z-0.824
X-18.289 Y291.413 Z-0.885
X-18.33 Y291.344 Z-0.935
X-18.374 Y291.269 Z-0.971
X-18.421 Y291.19 Z-0.993
X-18.469 Y291.11 Z-1.
G3 X-19. Y289.301 R3.798
G1 Y259.3 F500.
X-18.962 Y258.548
X-18.895 Y258.278
X-18.771 Y258.029
X-18.596 Y257.813
X-18.377 Y257.641
X-18.127 Y257.52
G3 X-17.386 Y258.306 R0.6
G1 X-17.579 Y258.811
X-17.754 Y259.27
X-17.84 Y259.494 F200.
G3 X-19. Y259.3 R0.6
G1 Y258.294 F500.
X-18.996 Y258.193
X-18.977 Y258.092
X-18.96 Y258.042
X-18.937 Y257.992
X-18.909 Y257.941
X-18.874 Y257.891
X-18.817 Y257.828
X-18.767 Y257.783
X-18.717 Y257.746
X-18.666 Y257.717
X-18.607 Y257.69
X-15.937 Y256.745
G3 X-15.178 Y257.475 R0.6
G1 X-15.21 Y257.542 Z-0.995
X-15.241 Y257.607 Z-0.982
X-15.272 Y257.671 Z-0.959
X-15.329 Y257.726 Z-0.921
X-15.382 Y257.776 Z-0.871
X-15.429 Y257.82 Z-0.812
X-15.475 Y257.843 Z-0.75
X-15.512 Y257.861 Z-0.682
X-15.542 Y257.875 Z-0.61
X-15.562 Y257.885 Z-0.533
X-15.573 Y257.889 Z-0.467
X-15.577 Y257.89 Z-0.4
G0 Z5.
X-125.448 Y250.073
Z0.2
G1 Z-0.4 F200.
X-125.441 Y250.072 Z-0.494
X-125.419 Y250.068 Z-0.585
X-125.384 Y250.061 Z-0.672
X-125.336 Y250.051 Z-0.753
X-125.276 Y250.039 Z-0.824
X-125.206 Y250.025 Z-0.885
X-125.127 Y250.009 Z-0.935
X-125.041 Y249.992 Z-0.971
X-124.952 Y249.975 Z-0.993
X-124.86 Y249.956 Z-1.
G3 X-122.977 Y250.058 R3.798
G1 X-122.62 Y250.185 F500.
X-122.481 Y250.242
X-122.336 Y250.376
X-122.174 Y250.553
X-121.997 Y250.782
X-121.806 Y251.077
X-121.603 Y251.457
X-121.388 Y251.955
X-121.163 Y252.622
X-120.951 Y253.483
X-120.805 Y254.357
X-120.704 Y255.237
X-120.633 Y256.12
X-120.584 Y257.005
X-120.55 Y257.891
X-120.526 Y258.776
X-120.509 Y259.662
X-120.497 Y260.548
X-120.489 Y261.435
X-120.483 Y262.321
X-120.479 Y263.207
X-120.475 Y264.979
X-120.472 Y267.637
X-120.47 Y274.726
Y297.322
X-120.33 Y297.743
X-119.854 Y298.49
X-119.167 Y299.05
X-118.38 Y299.458
X-117.545 Y299.753
X-116.684 Y299.963
X-115.811 Y300.113
X-114.931 Y300.219
X-114.048 Y300.294
X-113.163 Y300.346
X-112.278 Y300.383
X-111.392 Y300.409
X-110.506 Y300.427
X-109.62 Y300.44
X-108.734 Y300.449
X-107.848 Y300.455
X-106.962 Y300.46
X-105.19 Y300.465
X-102.531 Y300.468
X-101.937 Y300.469
X-101.642 Y300.502
X-101.361 Y300.6
X-101.109 Y300.757
X-100.899 Y300.966
X-100.739 Y301.217
G3 X-101.829 Y301.719 R0.6
X-101.835 Y301.705 R0.6
G1 X-101.874 Y301.62 Z-0.993
X-101.911 Y301.536 Z-0.971
X-101.946 Y301.457 Z-0.935
X-101.979 Y301.383 Z-0.885
X-102.008 Y301.318 Z-0.824
X-102.033 Y301.262 Z-0.753
X-102.053 Y301.217 Z-0.672
X-102.068 Y301.184 Z-0.585
X-102.077 Y301.164 Z-0.494
X-102.08 Y301.158 Z-0.4
G0 Z5.
X-125.09 Y250.2
Z0.2
G1 Z-0.4 F200.
X-125.083 Y250.198 Z-0.494
X-125.062 Y250.194 Z-0.585
X-125.026 Y250.187 Z-0.672
X-124.978 Y250.177 Z-0.753
X-124.918 Y250.166 Z-0.824
X-124.848 Y250.152 Z-0.885
X-124.769 Y250.136 Z-0.935
X-124.684 Y250.119 Z-0.971
X-124.594 Y250.101 Z-0.993
X-124.502 Y250.083 Z-1.
G3 X-122.62 Y250.185 R3.798
G1 X-121.325 Y250.643 F500.
X-121.186 Y250.7
X-121.004 Y250.795
X-120.812 Y250.916
X-120.593 Y251.082
X-120.368 Y251.284
X-120.136 Y251.53
X-119.883 Y251.847
X-119.633 Y252.221
X-119.368 Y252.698
X-119.097 Y253.301
X-118.825 Y254.071
X-118.6 Y254.928
X-118.434 Y255.798
X-118.311 Y256.676
X-118.22 Y257.557
X-118.153 Y258.441
X-118.104 Y259.325
X-118.068 Y260.211
X-118.041 Y261.097
X-118.022 Y261.982
X-118.008 Y262.868
X-117.997 Y263.755
X-117.99 Y264.641
X-117.984 Y265.527
X-117.98 Y266.413
X-117.975 Y268.185
X-117.972 Y270.843
X-117.97 Y277.046
Y293.883
X-117.908 Y294.321
X-117.608 Y295.155
X-117.052 Y295.845
X-116.35 Y296.386
X-115.566 Y296.798
X-114.736 Y297.109
X-113.88 Y297.34
X-113.011 Y297.51
X-112.134 Y297.636
X-111.252 Y297.728
X-110.369 Y297.794
X-109.484 Y297.843
X-108.599 Y297.878
X-107.713 Y297.904
X-106.827 Y297.922
X-105.941 Y297.936
X-105.055 Y297.945
X-104.169 Y297.952
X-103.283 Y297.977
X-102.678 Y298.042
X-102.159 Y298.143
X-101.972 Y298.195
X-101.705 Y298.303
X-101.468 Y298.464
X-101.271 Y298.673
X-101.123 Y298.92
X-101.031 Y299.192
X-101. Y299.478
X-100.999 Y299.972
G3 X-102.199 Y299.947 R0.6
Y299.932 R0.6
G1 X-102.195 Y299.838 Z-0.993
X-102.192 Y299.747 Z-0.971
X-102.189 Y299.66 Z-0.935
X-102.187 Y299.58 Z-0.885
X-102.184 Y299.508 Z-0.824
X-102.182 Y299.447 Z-0.753
X-102.181 Y299.398 Z-0.672
X-102.179 Y299.362 Z-0.585
Y299.34 Z-0.494
X-102.178 Y299.332 Z-0.4
G0 Z5.
X-123.795 Y250.658
Z0.2
G1 Z-0.4 F200.
X-123.788 Y250.656 Z-0.494
X-123.766 Y250.652 Z-0.585
X-123.731 Y250.645 Z-0.672
X-123.683 Y250.635 Z-0.753
X-123.623 Y250.623 Z-0.824
X-123.553 Y250.609 Z-0.885
X-123.474 Y250.594 Z-0.935
X-123.389 Y250.577 Z-0.971
X-123.299 Y250.559 Z-0.993
X-123.207 Y250.541 Z-1.
G3 X-121.325 Y250.643 R3.798
G1 X-119.307 Y251.356 F500.
X-119.117 Y251.434
X-118.912 Y251.539
X-118.675 Y251.686
X-118.436 Y251.864
X-118.183 Y252.087
X-117.906 Y252.376
X-117.635 Y252.711
X-117.342 Y253.14
X-117.048 Y253.66
X-116.749 Y254.309
X-116.447 Y255.142
X-116.214 Y255.997
X-116.036 Y256.865
X-115.899 Y257.74
X-115.795 Y258.62
X-115.715 Y259.503
X-115.655 Y260.387
X-115.609 Y261.272
X-115.574 Y262.157
X-115.548 Y263.043
X-115.528 Y263.929
X-115.513 Y264.815
X-115.502 Y265.701
X-115.494 Y266.587
X-115.488 Y267.473
X-115.483 Y268.359
X-115.477 Y270.131
X-115.473 Y272.79
X-115.471 Y277.22
X-115.47 Y291.398
X-115.23 Y292.251
X-114.735 Y292.986
X-114.076 Y293.579
X-113.322 Y294.045
X-112.512 Y294.403
X-111.668 Y294.675
X-110.806 Y294.88
X-109.934 Y295.033
X-109.055 Y295.148
X-108.173 Y295.233
X-107.289 Y295.296
X-106.404 Y295.342
X-105.519 Y295.381
X-104.634 Y295.428
X-103.751 Y295.505
X-103.027 Y295.615
X-102.478 Y295.745
X-102.042 Y295.888
X-101.814 Y295.984
X-101.544 Y296.138
X-101.316 Y296.351
X-101.144 Y296.61
X-101.036 Y296.903
X-101. Y297.212
Y299.478
G3 X-102.2 Y299.452 R0.6
X-102.199 Y299.437 R0.6
G1 X-102.196 Y299.343 Z-0.993
X-102.193 Y299.252 Z-0.971
X-102.19 Y299.165 Z-0.935
X-102.187 Y299.084 Z-0.885
X-102.185 Y299.013 Z-0.824
X-102.183 Y298.952 Z-0.753
X-102.181 Y298.903 Z-0.672
X-102.18 Y298.867 Z-0.585
X-102.179 Y298.845 Z-0.494
Y298.837 Z-0.4
G0 Z5.
X-121.778 Y251.371
Z0.2
G1 Z-0.4 F200.
X-121.77 Y251.37 Z-0.494
X-121.749 Y251.365 Z-0.585
X-121.714 Y251.358 Z-0.672
X-121.665 Y251.349 Z-0.753
X-121.605 Y251.337 Z-0.824
X-121.535 Y251.323 Z-0.885
X-121.456 Y251.307 Z-0.935
X-121.371 Y251.29 Z-0.971
X-121.281 Y251.272 Z-0.993
X-121.189 Y251.254 Z-1.
G3 X-119.307 Y251.356 R3.798
G1 X-117.092 Y252.139 F500.
X-116.846 Y252.24
X-116.632 Y252.35
X-116.391 Y252.5
X-116.122 Y252.7
X-115.862 Y252.929
X-115.569 Y253.235
X-115.28 Y253.59
X-114.967 Y254.05
X-114.658 Y254.596
X-114.339 Y255.29
X-114.036 Y256.123
X-113.799 Y256.977
X-113.613 Y257.843
X-113.468 Y258.717
X-113.355 Y259.596
X-113.267 Y260.478
X-113.198 Y261.361
X-113.145 Y262.246
X-113.104 Y263.131
X-113.072 Y264.016
X-113.048 Y264.902
X-113.029 Y265.788
X-113.015 Y266.674
X-113.004 Y267.56
X-112.996 Y268.446
X-112.99 Y269.332
X-112.985 Y270.219
X-112.978 Y271.991
X-112.973 Y274.649
X-112.971 Y279.08
X-112.97 Y288.827
X-112.712 Y289.675
X-112.213 Y290.407
X-111.558 Y291.004
X-110.808 Y291.476
X-110.002 Y291.843
X-109.161 Y292.123
X-108.301 Y292.336
X-107.43 Y292.499
X-106.553 Y292.628
X-105.674 Y292.741
X-104.796 Y292.858
X-103.921 Y292.995
X-103.053 Y293.175
X-102.43 Y293.356
X-101.929 Y293.549
X-101.753 Y293.634
X-101.501 Y293.793
X-101.29 Y294.004
X-101.132 Y294.257
X-101.033 Y294.538
X-101. Y294.834
Y297.212
G3 X-102.2 Y297.185 R0.6
X-102.199 Y297.17 R0.6
G1 X-102.196 Y297.076 Z-0.993
X-102.193 Y296.985 Z-0.971
X-102.19 Y296.898 Z-0.935
X-102.187 Y296.818 Z-0.885
X-102.184 Y296.746 Z-0.824
X-102.182 Y296.685 Z-0.753
X-102.181 Y296.636 Z-0.672
X-102.179 Y296.6 Z-0.585
Y296.578 Z-0.494
X-102.178 Y296.571 Z-0.4
G0 Z5.
X-119.562 Y252.154
Z0.2
G1 Z-0.4 F200.
X-119.555 Y252.153 Z-0.494
X-119.534 Y252.149 Z-0.585
X-119.498 Y252.141 Z-0.672
X-119.45 Y252.132 Z-0.753
X-119.39 Y252.12 Z-0.824
X-119.32 Y252.106 Z-0.885
X-119.241 Y252.09 Z-0.935
X-119.156 Y252.073 Z-0.971
X-119.066 Y252.055 Z-0.993
X-118.974 Y252.037 Z-1.
G3 X-117.092 Y252.139 R3.798
G1 X-114.675 Y252.994 F500.
X-114.507 Y253.063
X-114.276 Y253.181
X-114.035 Y253.331
X-113.758 Y253.536
X-113.486 Y253.777
X-113.189 Y254.086
X-112.885 Y254.461
X-112.561 Y254.936
X-112.241 Y255.503
X-111.908 Y256.227
X-111.605 Y257.06
X-111.365 Y257.913
X-111.175 Y258.778
X-111.024 Y259.651
X-110.904 Y260.529
X-110.81 Y261.41
X-110.735 Y262.293
X-110.677 Y263.178
X-110.631 Y264.062
X-110.595 Y264.948
X-110.567 Y265.834
X-110.545 Y266.719
X-110.528 Y267.605
X-110.514 Y268.491
X-110.504 Y269.377
X-110.496 Y270.263
X-110.49 Y271.15
X-110.485 Y272.036
X-110.479 Y273.808
X-110.474 Y276.466
X-110.471 Y280.897
X-110.47 Y286.214
X-110.227 Y287.066
X-109.744 Y287.808
X-109.101 Y288.418
X-108.36 Y288.905
X-107.562 Y289.29
X-106.732 Y289.6
X-105.884 Y289.858
X-105.029 Y290.088
X-104.171 Y290.31
X-103.317 Y290.547
X-102.494 Y290.814
X-101.944 Y291.044
X-101.718 Y291.162
X-101.477 Y291.323
X-101.276 Y291.533
X-101.125 Y291.781
X-101.032 Y292.056
X-101. Y292.345
Y294.834
G3 X-102.2 Y294.808 R0.6
X-102.199 Y294.793 R0.6
G1 X-102.196 Y294.699 Z-0.993
X-102.193 Y294.607 Z-0.971
X-102.19 Y294.52 Z-0.935
X-102.187 Y294.44 Z-0.885
X-102.184 Y294.369 Z-0.824
X-102.182 Y294.307 Z-0.753
X-102.181 Y294.258 Z-0.672
X-102.179 Y294.222 Z-0.585
Y294.2 Z-0.494
X-102.178 Y294.193 Z-0.4
G0 Z5.
X-117.146 Y253.009
Z0.2
G1 Z-0.4 F200.
X-117.139 Y253.007 Z-0.494
X-117.117 Y253.003 Z-0.585
X-117.082 Y252.996 Z-0.672
X-117.033 Y252.986 Z-0.753
X-116.974 Y252.974 Z-0.824
X-116.903 Y252.96 Z-0.885
X-116.825 Y252.945 Z-0.935
X-116.739 Y252.928 Z-0.971
X-116.649 Y252.91 Z-0.993
X-116.557 Y252.891 Z-1.
G3 X-114.675 Y252.994 R3.798
G1 X-112.259 Y253.848 F500.
X-112.119 Y253.905
X-111.877 Y254.029
X-111.636 Y254.179
X-111.359 Y254.385
X-111.076 Y254.635
X-110.777 Y254.947
X-110.464 Y255.333
X-110.134 Y255.817
X-109.805 Y256.399
X-109.462 Y257.144
X-109.159 Y257.977
X-108.917 Y258.829
X-108.724 Y259.694
X-108.569 Y260.566
X-108.445 Y261.444
X-108.346 Y262.324
X-108.267 Y263.207
X-108.204 Y264.091
X-108.154 Y264.975
X-108.115 Y265.861
X-108.083 Y266.746
X-108.059 Y267.632
X-108.039 Y268.518
X-108.024 Y269.404
X-108.012 Y270.29
X-108.003 Y271.176
X-107.995 Y272.062
X-107.989 Y272.948
X-107.982 Y274.72
X-107.977 Y276.493
X-107.973 Y279.151
X-107.971 Y283.582
X-107.76 Y284.442
X-107.31 Y285.206
X-106.701 Y285.85
X-105.996 Y286.387
X-105.234 Y286.839
X-104.44 Y287.232
X-103.63 Y287.591
X-102.817 Y287.943
X-102.015 Y288.32
X-101.669 Y288.519
X-101.443 Y288.683
X-101.255 Y288.89
X-101.116 Y289.132
X-101.029 Y289.397
X-101. Y289.675
Y292.345
G3 X-102.2 Y292.318 R0.6
X-102.199 Y292.303 R0.6
G1 X-102.196 Y292.209 Z-0.993
X-102.193 Y292.117 Z-0.971
X-102.19 Y292.03 Z-0.935
X-102.187 Y291.95 Z-0.885
X-102.184 Y291.879 Z-0.824
X-102.182 Y291.818 Z-0.753
X-102.181 Y291.768 Z-0.672
X-102.179 Y291.732 Z-0.585
Y291.71 Z-0.494
X-102.178 Y291.703 Z-0.4
G0 Z5.
X-114.729 Y253.863
Z0.2
G1 Z-0.4 F200.
X-114.722 Y253.862 Z-0.494
X-114.7 Y253.857 Z-0.585
X-114.665 Y253.85 Z-0.672
X-114.617 Y253.841 Z-0.753
X-114.557 Y253.829 Z-0.824
X-114.487 Y253.815 Z-0.885
X-114.408 Y253.799 Z-0.935
X-114.323 Y253.782 Z-0.971
X-114.233 Y253.764 Z-0.993
X-114.141 Y253.746 Z-1.
G3 X-112.259 Y253.848 R3.798
G1 X-109.935 Y254.67 F500.
X-109.699 Y254.766
X-109.452 Y254.893
X-109.209 Y255.044
X-108.932 Y255.25
X-108.643 Y255.505
X-108.342 Y255.819
X-108.023 Y256.212
X-107.689 Y256.702
X-107.354 Y257.295
X-107.005 Y258.054
X-106.702 Y258.886
X-106.459 Y259.738
X-106.263 Y260.603
X-106.105 Y261.475
X-105.978 Y262.352
X-105.876 Y263.232
X-105.793 Y264.114
X-105.727 Y264.998
X-105.674 Y265.882
X-105.632 Y266.767
X-105.598 Y267.653
X-105.571 Y268.539
X-105.55 Y269.424
X-105.533 Y270.31
X-105.519 Y271.196
X-105.509 Y272.082
X-105.5 Y272.969
X-105.494 Y273.855
X-105.488 Y274.741
X-105.481 Y276.513
X-105.477 Y278.285
X-105.473 Y280.944
X-105.322 Y281.817
X-104.949 Y282.621
X-104.418 Y283.33
X-103.786 Y283.951
X-103.093 Y284.504
X-102.368 Y285.013
X-101.638 Y285.516
X-101.52 Y285.607
X-101.302 Y285.819
X-101.137 Y286.075
X-101.035 Y286.361
X-101. Y286.663
Y289.675
G3 X-102.2 Y289.648 R0.6
X-102.199 Y289.633 R0.6
G1 X-102.196 Y289.539 Z-0.993
X-102.193 Y289.448 Z-0.971
X-102.19 Y289.361 Z-0.935
X-102.187 Y289.281 Z-0.885
X-102.184 Y289.209 Z-0.824
X-102.182 Y289.148 Z-0.753
X-102.181 Y289.099 Z-0.672
X-102.179 Y289.063 Z-0.585
Y289.041 Z-0.494
X-102.178 Y289.034 Z-0.4
G0 Z5.
X-112.405 Y254.685
Z0.2
G1 Z-0.4 F200.
X-112.398 Y254.683 Z-0.494
X-112.377 Y254.679 Z-0.585
X-112.341 Y254.672 Z-0.672
X-112.293 Y254.662 Z-0.753
X-112.233 Y254.65 Z-0.824
X-112.163 Y254.636 Z-0.885
X-112.084 Y254.621 Z-0.935
X-111.999 Y254.604 Z-0.971
X-111.909 Y254.586 Z-0.993
X-111.817 Y254.567 Z-1.
G3 X-109.935 Y254.67 R3.798
G1 X-107.425 Y255.557 F500.
X-107.267 Y255.622
X-107.016 Y255.75
X-106.77 Y255.903
X-106.494 Y256.109
X-106.199 Y256.369
X-105.896 Y256.684
X-105.573 Y257.083
X-105.236 Y257.577
X-104.896 Y258.18
X-104.541 Y258.95
X-104.238 Y259.783
X-103.994 Y260.635
X-103.796 Y261.499
X-103.636 Y262.37
X-103.506 Y263.247
X-103.401 Y264.127
X-103.316 Y265.009
X-103.248 Y265.892
X-103.192 Y266.776
X-103.148 Y267.661
X-103.112 Y268.547
X-103.083 Y269.432
X-103.06 Y270.318
X-103.041 Y271.204
X-103.026 Y272.09
X-103.015 Y272.976
X-103.005 Y273.862
X-102.998 Y274.748
X-102.992 Y275.635
X-102.983 Y277.407
X-102.98 Y278.293
X-102.914 Y279.177
X-102.66 Y280.025
X-102.25 Y280.811
X-101.733 Y281.53
X-101.32 Y282.013
X-101.145 Y282.274
X-101.037 Y282.568
X-101. Y282.88
Y286.663
G3 X-102.2 Y286.637 R0.6
X-102.199 Y286.622 R0.6
G1 X-102.196 Y286.528 Z-0.993
X-102.193 Y286.436 Z-0.971
X-102.19 Y286.349 Z-0.935
X-102.187 Y286.269 Z-0.885
X-102.184 Y286.198 Z-0.824
X-102.182 Y286.136 Z-0.753
X-102.181 Y286.087 Z-0.672
X-102.179 Y286.051 Z-0.585
Y286.029 Z-0.494
X-102.178 Y286.022 Z-0.4
G0 Z5.
X-109.896 Y255.572
Z0.2
G1 Z-0.4 F200.
X-109.889 Y255.57 Z-0.494
X-109.867 Y255.566 Z-0.585
X-109.832 Y255.559 Z-0.672
X-109.784 Y255.549 Z-0.753
X-109.724 Y255.537 Z-0.824
X-109.654 Y255.524 Z-0.885
X-109.575 Y255.508 Z-0.935
X-109.49 Y255.491 Z-0.971
X-109.4 Y255.473 Z-0.993
X-109.308 Y255.455 Z-1.
G3 X-107.425 Y255.557 R3.798
G1 X-105.009 Y256.411 F500.
X-104.816 Y256.49
X-104.564 Y256.619
X-104.316 Y256.774
X-104.039 Y256.979
X-103.742 Y257.242
X-103.438 Y257.558
X-103.112 Y257.961
X-102.773 Y258.458
X-102.429 Y259.066
X-102.07 Y259.845
X-101.768 Y260.678
X-101.523 Y261.53
X-101.324 Y262.393
X-101.162 Y263.264
X-101.03 Y264.141
X-101.01 Y264.308
X-101.004 Y264.361
X-101.001 Y264.415
X-101. Y264.469
G3 X-102.14 Y264.708 R0.6
G1 X-102.266 Y264.446
X-105.517 Y257.686
X-105.73 Y257.243 F200.
G3 X-105.009 Y256.411 R0.6
G1 X-102.592 Y257.265 F500.
X-102.356 Y257.363
X-102.104 Y257.492
X-101.853 Y257.648
X-101.576 Y257.853
X-101.451 Y257.964
X-101.261 Y258.172
X-101.118 Y258.415
X-101.03 Y258.683
X-101. Y258.964
G3 X-102.011 Y259.379 R0.6
G1 X-102.382 Y259.03
X-102.987 Y258.46
X-103.184 Y258.275 F200.
G3 X-102.592 Y257.265 R0.6
G1 X-101.393 Y257.69 F500.
X-101.334 Y257.717
X-101.283 Y257.746
X-101.233 Y257.783
X-101.183 Y257.828
X-101.126 Y257.891
X-101.091 Y257.941
X-101.063 Y257.992
X-101.04 Y258.042
X-101.023 Y258.092
X-101.004 Y258.193
X-101. Y258.294
Y282.88
G3 X-101.941 Y283.352 R0.6
G1 X-101.993 Y283.3 Z-0.995
X-102.045 Y283.248 Z-0.982
X-102.094 Y283.198 Z-0.959
X-102.127 Y283.126 Z-0.921
X-102.156 Y283.059 Z-0.871
X-102.183 Y283. Z-0.812
X-102.188 Y282.953 Z-0.755
X-102.193 Y282.914 Z-0.693
X-102.197 Y282.882 Z-0.627
X-102.2 Y282.859 Z-0.557
Y282.853 Z-0.533
X-102.199 Y282.841 Z-0.467
Y282.838 Z-0.4
G0 Z5.
Z15.

(2D POCKET1)
M7
G0 X-47.658 Y257.85
Z15.
Z5.
G1 Z3.1 F200.
G3 X-47.686 Z2.918 R2.85 F300.
X-47.767 Y257.848 Z2.754 R2.85
X-47.895 Y257.84 Z2.622 R2.85
X-48.055 Y257.822 Z2.534 R2.85
X-48.233 Y257.791 Z2.5 R2.85
X-49.365 Y257.28 Z2.456 R2.85
X-45.945 Y252.72 Z2.144 R2.85
X-49.365 Y257.28 Z1.831 R2.85
X-45.945 Y252.72 Z1.518 R2.85
X-49.365 Y257.28 Z1.206 R2.85
X-45.945 Y252.72 Z0.893 R2.85
X-49.365 Y257.28 Z0.58 R2.85
X-45.945 Y252.72 Z0.268 R2.85
X-49.365 Y257.28 Z-0.045 R2.85
X-45.945 Y252.72 Z-0.358 R2.85
X-44.805 Y255. Z-0.45 R2.85
G1 Y255.876 F500.
G3 X-45.124 Y256.195 R0.319
G1 X-74.876
G3 X-75.195 Y255.876 R0.319
G1 Y254.124
G3 X-74.876 Y253.805 R0.319
G1 X-45.124
G3 X-44.805 Y254.124 R0.319
G1 Y255.
G2 X-43.831 Y256.703 R1.976
G3 X-44.347 Y258.595 R1.016
G1 X-77.276
G3 X-77.595 Y258.276 R0.319
G1 Y251.724
G3 X-77.276 Y251.405 R0.319
G1 X-42.724
G3 X-42.405 Y251.724 R0.319
G1 Y258.276
G3 X-42.724 Y258.595 R0.319
G1 X-44.347
G2 X-46.147 Y259.795 R1.95
G3 X-47.947 Y260.995 R1.95
G1 X-79.676
G3 X-79.995 Y260.676 R0.319
G1 Y249.324
G3 X-79.676 Y249.005 R0.319
G1 X-40.324
G3 X-40.005 Y249.324 R0.319
G1 Y260.676
G3 X-40.324 Y260.995 R0.319
G1 X-47.947
G2 X-49.747 Y262.195 R1.95
G3 X-51.547 Y263.395 R1.95
G1 X-82.076
G3 X-82.395 Y263.076 R0.319
G1 Y246.924
G3 X-82.076 Y246.605 R0.319
G1 X-37.924
G3 X-37.605 Y246.924 R0.319
G1 Y263.076
G3 X-37.924 Y263.395 R0.319
G1 X-51.547
G2 X-53.351 Y264.598 R1.954
G3 X-55.155 Y265.8 R1.954
G1 X-83.
G3 X-84.8 Y264. R1.8
G1 Y246.
G3 X-83. Y244.2 R1.8
G1 X-37.
G3 X-35.2 Y246. R1.8
G1 Y264.
G3 X-37. Y265.8 R1.8
G1 X-55.155
G2 X-55.305 Y265.9 R0.162
G3 X-55.455 Y266. R0.163
G1 X-83.
G3 X-85. Y264. R2.
G1 Y246.
G3 X-83. Y244. R2.
G1 X-37.
G3 X-35. Y246. R2.
G1 Y264.
G3 X-37. Y266. R2.
G1 X-55.455
G3 X-57.514 Y261.18 Z-0.571 R2.85 F300.
G1 X-49.714 Y253.029 Z-0.777
G3 X-44.805 Y255. Z-0.9 R2.85
G1 Y255.876 F500.
G3 X-45.124 Y256.195 R0.319
G1 X-74.876
G3 X-75.195 Y255.876 R0.319
G1 Y254.124
G3 X-74.876 Y253.805 R0.319
G1 X-45.124
G3 X-44.805 Y254.124 R0.319
G1 Y255.
G2 X-43.831 Y256.703 R1.976
G3 X-44.347 Y258.595 R1.016
G1 X-77.276
G3 X-77.595 Y258.276 R0.319
G1 Y251.724
G3 X-77.276 Y251.405 R0.319
G1 X-42.724
G3 X-42.405 Y251.724 R0.319
G1 Y258.276
G3 X-42.724 Y258.595 R0.319
G1 X-44.347
G2 X-46.147 Y259.795 R1.95
G3 X-47.947 Y260.995 R1.95
G1 X-79.676
G3 X-79.995 Y260.676 R0.319
G1 Y249.324
G3 X-79.676 Y249.005 R0.319
G1 X-40.324
G3 X-40.005 Y249.324 R0.319
G1 Y260.676
G3 X-40.324 Y260.995 R0.319
G1 X-47.947
G2 X-49.747 Y262.195 R1.95
G3 X-51.547 Y263.395 R1.95
G1 X-82.076
G3 X-82.395 Y263.076 R0.319
G1 Y246.924
G3 X-82.076 Y246.605 R0.319
G1 X-37.924
G3 X-37.605 Y246.924 R0.319
G1 Y263.076
G3 X-37.924 Y263.395 R0.319
G1 X-51.547
G2 X-53.351 Y264.598 R1.954
G3 X-55.155 Y265.8 R1.954
G1 X-83.
G3 X-84.8 Y264. R1.8
G1 Y246.
G3 X-83. Y244.2 R1.8
G1 X-37.
G3 X-35.2 Y246. R1.8
G1 Y264.
G3 X-37. Y265.8 R1.8
G1 X-55.155
G2 X-55.305 Y265.9 R0.162
G3 X-55.455 Y266. R0.163
G1 X-83.
G3 X-85. Y264. R2.
G1 Y246.
G3 X-83. Y244. R2.
G1 X-37.
G3 X-35. Y246. R2.
G1 Y264.
G3 X-37. Y266. R2.
G1 X-55.455
G3 X-57.514 Y261.18 Z-0.927 R2.85 F300.
G1 X-49.714 Y253.029 Z-0.973
G3 X-44.805 Y255. Z-1. R2.85
G1 Y255.876 F500.
G3 X-45.124 Y256.195 R0.319
G1 X-74.876
G3 X-75.195 Y255.876 R0.319
G1 Y254.124
G3 X-74.876 Y253.805 R0.319
G1 X-45.124
G3 X-44.805 Y254.124 R0.319
G1 Y255.
G2 X-43.831 Y256.703 R1.976
G3 X-44.347 Y258.595 R1.016
G1 X-77.276
G3 X-77.595 Y258.276 R0.319
G1 Y251.724
G3 X-77.276 Y251.405 R0.319
G1 X-42.724
G3 X-42.405 Y251.724 R0.319
G1 Y258.276
G3 X-42.724 Y258.595 R0.319
G1 X-44.347
G2 X-46.147 Y259.795 R1.95
G3 X-47.947 Y260.995 R1.95
G1 X-79.676
G3 X-79.995 Y260.676 R0.319
G1 Y249.324
G3 X-79.676 Y249.005 R0.319
G1 X-40.324
G3 X-40.005 Y249.324 R0.319
G1 Y260.676
G3 X-40.324 Y260.995 R0.319
G1 X-47.947
G2 X-49.747 Y262.195 R1.95
G3 X-51.547 Y263.395 R1.95
G1 X-82.076
G3 X-82.395 Y263.076 R0.319
G1 Y246.924
G3 X-82.076 Y246.605 R0.319
G1 X-37.924
G3 X-37.605 Y246.924 R0.319
G1 Y263.076
G3 X-37.924 Y263.395 R0.319
G1 X-51.547
G2 X-53.351 Y264.598 R1.954
G3 X-55.155 Y265.8 R1.954
G1 X-83.
G3 X-84.8 Y264. R1.8
G1 Y246.
G3 X-83. Y244.2 R1.8
G1 X-37.
G3 X-35.2 Y246. R1.8
G1 Y264.
G3 X-37. Y265.8 R1.8
G1 X-55.155
G2 X-55.305 Y265.9 R0.162
G3 X-55.455 Y266. R0.163
G1 X-83.
G3 X-85. Y264. R2.
G1 Y246.
G3 X-83. Y244. R2.
G1 X-37.
G3 X-35. Y246. R2.
G1 Y264.
G3 X-37. Y266. R2.
G1 X-55.455
G3 X-55.637 Y265.972 Z-0.971 R0.6
X-55.787 Y265.899 Z-0.885 R0.6
X-55.889 Y265.814 Z-0.753 R0.6
X-55.943 Y265.749 Z-0.585 R0.6
X-55.959 Y265.724 Z-0.4 R0.6
G0 Z15.
G28 G91 Z0.
G90

(DRILL2 2)
M5
M9
M1
T2 M6
S20000 M3
M7
G0 X-107.5 Y290.
G43 Z15. H2
Z5.
G98 G81 X-107.5 Y290. Z-2. R4. F300.
X-79. Y261.
Y249.
X-41.
Y261.
X-12.5 Y290.
G80
Z15.

M9
G28 G91 Z0.
G28 X0. Y0.
M30
