(GRUNDPLATTE_CNC001)
(T1  D=6. CR=0. - ZMIN=-1. - SCHAFTFRSER)
(T2  D=3.175 CR=0. KONIK=45GRAD - ZMIN=-2. - FASENFRSER)
G90 G94 G91.1 G40 G49 G17
G21
G28 G91 Z0.
G90

(2D ADAPTIVE5 3)
M5
M9
T1 M6
S10000 M3
G54
M7
G0 X125.314 Y47.162
G43 Z15. H1
Z5.
Z0.705
G1 Z0.105 F200.
X125.308 Y47.166 Z0.011
X125.289 Y47.177 Z-0.08
X125.258 Y47.196 Z-0.167
X125.216 Y47.221 Z-0.248
X125.163 Y47.252 Z-0.319
X125.102 Y47.289 Z-0.38
X125.033 Y47.33 Z-0.43
X124.958 Y47.374 Z-0.466
X124.879 Y47.421 Z-0.488
X124.799 Y47.469 Z-0.495
G3 X122.99 Y48. R3.798
G1 X122.386 F500.
X122.236 Y47.993
X121.988 Y47.841
X121.71 Y47.623
X121.409 Y47.322
X121.087 Y46.914
X120.749 Y46.362
X120.4 Y45.602
X120.129 Y44.758
X119.935 Y43.894
X119.798 Y43.018
X119.7 Y42.137
X119.632 Y41.254
X119.584 Y40.369
X119.55 Y39.484
X119.526 Y38.598
X119.509 Y37.712
X119.497 Y36.826
X119.489 Y35.94
X119.483 Y35.054
X119.479 Y34.168
X119.475 Y32.395
X119.472 Y29.737
X119.47 Y22.648
Y2.932
X119.397 Y2.722
X119.333 Y2.633
X119.051 Y2.29
X118.366 Y1.729
X117.562 Y1.356
X116.713 Y1.102
X115.844 Y0.928
X114.966 Y0.807
X114.084 Y0.724
X113.2 Y0.665
X112.315 Y0.625
X111.429 Y0.596
X110.543 Y0.576
X109.657 Y0.562
X108.771 Y0.553
X107.885 Y0.546
X106.999 Y0.541
X105.226 Y0.535
X102.568 Y0.532
X96.365 Y0.53
X73.667
X73.461 Y0.497
X73.275 Y0.403
X73.127 Y0.255
X73.033 Y0.069
X73. Y-0.137
G3 X74.2 Y-0.11 R0.6
X74.199 Y-0.095 R0.6
G1 X74.196 Y-0.001 Z-0.488
X74.193 Y0.091 Z-0.466
X74.19 Y0.177 Z-0.43
X74.187 Y0.258 Z-0.38
X74.184 Y0.329 Z-0.319
X74.182 Y0.39 Z-0.248
X74.181 Y0.439 Z-0.167
X74.179 Y0.475 Z-0.08
Y0.497 Z0.011
X74.178 Y0.505 Z0.105
G0 Z5.
X124.71 Y47.162
Z0.705
G1 Z0.105 F200.
X124.704 Y47.166 Z0.011
X124.685 Y47.177 Z-0.08
X124.654 Y47.196 Z-0.167
X124.612 Y47.221 Z-0.248
X124.559 Y47.252 Z-0.319
X124.498 Y47.289 Z-0.38
X124.429 Y47.33 Z-0.43
X124.354 Y47.374 Z-0.466
X124.275 Y47.421 Z-0.488
X124.195 Y47.469 Z-0.495
G3 X122.386 Y48. R3.798
G1 X120.775 F500.
X120.674 Y47.995
X120.384 Y47.959
X120.085 Y47.884
X119.751 Y47.758
X119.377 Y47.563
X119.003 Y47.307
X118.591 Y46.947
X118.18 Y46.491
X117.751 Y45.885
X117.329 Y45.106
X117. Y44.283
X116.746 Y43.434
X116.551 Y42.57
X116.403 Y41.696
X116.292 Y40.817
X116.208 Y39.935
X116.146 Y39.051
X116.1 Y38.166
X116.065 Y37.28
X116.04 Y36.395
X116.021 Y35.509
X116.007 Y34.623
X115.997 Y33.737
X115.99 Y32.85
X115.984 Y31.964
X115.98 Y31.078
X115.975 Y29.306
X115.972 Y26.648
X115.97 Y20.445
Y6.931
X115.85 Y6.505
X115.599 Y6.14
X114.965 Y5.52
X114.192 Y5.088
X113.359 Y4.784
X112.5 Y4.568
X111.627 Y4.415
X110.748 Y4.305
X109.865 Y4.227
X108.981 Y4.171
X108.096 Y4.131
X107.21 Y4.102
X106.324 Y4.082
X105.438 Y4.067
X104.552 Y4.056
X103.666 Y4.049
X102.78 Y4.043
X101.894 Y4.04
X100.122 Y4.035
X97.463 Y4.032
X91.26 Y4.03
X76.196
X75.31 Y4.021
X74.426 Y3.955
X73.739 Y3.822
X73.464 Y3.734
X73.277 Y3.64
X73.128 Y3.492
X73.033 Y3.306
X73. Y3.099
Y-0.137
G3 X74.2 Y-0.11 R0.6
X74.199 Y-0.095 R0.6
G1 X74.196 Y-0.001 Z-0.488
X74.193 Y0.091 Z-0.466
X74.19 Y0.177 Z-0.43
X74.187 Y0.258 Z-0.38
X74.184 Y0.329 Z-0.319
X74.182 Y0.39 Z-0.248
X74.181 Y0.439 Z-0.167
X74.179 Y0.475 Z-0.08
Y0.497 Z0.011
X74.178 Y0.505 Z0.105
G0 Z5.
X123.1 Y47.162
Z0.705
G1 Z0.105 F200.
X123.093 Y47.166 Z0.011
X123.074 Y47.177 Z-0.08
X123.043 Y47.196 Z-0.167
X123.001 Y47.221 Z-0.248
X122.949 Y47.252 Z-0.319
X122.887 Y47.289 Z-0.38
X122.818 Y47.33 Z-0.43
X122.743 Y47.374 Z-0.466
X122.665 Y47.421 Z-0.488
X122.584 Y47.469 Z-0.495
G3 X120.775 Y48. R3.798
G1 X118.158 F500.
X117.771 Y47.981
X117.424 Y47.921
X117.049 Y47.811
X116.656 Y47.642
X116.213 Y47.385
X115.772 Y47.054
X115.294 Y46.598
X114.807 Y46.007
X114.328 Y45.262
X113.939 Y44.466
X113.624 Y43.637
X113.373 Y42.787
X113.172 Y41.924
X113.014 Y41.052
X112.889 Y40.175
X112.792 Y39.294
X112.716 Y38.411
X112.657 Y37.527
X112.612 Y36.642
X112.578 Y35.757
X112.551 Y34.871
X112.531 Y33.985
X112.516 Y33.099
X112.504 Y32.213
X112.496 Y31.327
X112.489 Y30.441
X112.484 Y29.555
X112.478 Y27.783
X112.473 Y25.124
X112.471 Y20.694
X112.47 Y10.503
X112.33 Y10.083
X111.826 Y9.354
X111.105 Y8.838
X110.299 Y8.471
X109.452 Y8.209
X108.587 Y8.02
X107.711 Y7.884
X106.83 Y7.786
X105.947 Y7.715
X105.062 Y7.664
X104.177 Y7.627
X103.291 Y7.6
X102.405 Y7.581
X101.519 Y7.567
X100.633 Y7.556
X99.747 Y7.549
X98.861 Y7.544
X97.975 Y7.54
X96.203 Y7.535
X93.544 Y7.532
X87.342 Y7.53
X78.48
X77.594 Y7.528
X76.708 Y7.514
X75.823 Y7.475
X74.94 Y7.395
X74.067 Y7.247
X73.641 Y7.125
X73.438 Y7.051
X73.26 Y6.953
X73.12 Y6.807
X73.031 Y6.625
X73. Y6.425
Y3.099
G3 X74.2 Y3.126 R0.6
X74.199 Y3.141 R0.6
G1 X74.196 Y3.235 Z-0.488
X74.193 Y3.326 Z-0.466
X74.19 Y3.413 Z-0.43
X74.187 Y3.494 Z-0.38
X74.184 Y3.565 Z-0.319
X74.182 Y3.626 Z-0.248
X74.181 Y3.675 Z-0.167
X74.179 Y3.711 Z-0.08
Y3.733 Z0.011
X74.178 Y3.741 Z0.105
G0 Z5.
X120.482 Y47.162
Z0.705
G1 Z0.105 F200.
X120.476 Y47.166 Z0.011
X120.457 Y47.177 Z-0.08
X120.426 Y47.196 Z-0.167
X120.384 Y47.221 Z-0.248
X120.331 Y47.252 Z-0.319
X120.27 Y47.289 Z-0.38
X120.201 Y47.33 Z-0.43
X120.126 Y47.374 Z-0.466
X120.047 Y47.421 Z-0.488
X119.966 Y47.469 Z-0.495
G3 X118.158 Y48. R3.798
G1 X115.138 F500.
X114.704 Y47.978
X114.337 Y47.916
X113.955 Y47.803
X113.512 Y47.613
X113.067 Y47.355
X112.569 Y46.981
X112.072 Y46.506
X111.546 Y45.868
X111.067 Y45.123
X110.668 Y44.331
X110.339 Y43.509
X110.068 Y42.665
X109.848 Y41.807
X109.668 Y40.939
X109.524 Y40.065
X109.407 Y39.186
X109.314 Y38.305
X109.239 Y37.422
X109.18 Y36.538
X109.133 Y35.653
X109.097 Y34.768
X109.068 Y33.882
X109.045 Y32.996
X109.028 Y32.11
X109.014 Y31.224
X109.004 Y30.338
X108.996 Y29.452
X108.99 Y28.566
X108.985 Y27.68
X108.978 Y25.907
X108.974 Y23.249
X108.971 Y18.819
X108.97 Y14.166
X108.881 Y13.732
X108.655 Y13.351
X108.059 Y12.696
X107.305 Y12.23
X106.484 Y11.896
X105.631 Y11.657
X104.762 Y11.484
X103.885 Y11.36
X103.003 Y11.269
X102.119 Y11.204
X101.235 Y11.156
X100.349 Y11.122
X99.463 Y11.097
X98.577 Y11.078
X97.691 Y11.065
X96.805 Y11.056
X95.919 Y11.049
X95.033 Y11.043
X94.147 Y11.04
X92.375 Y11.035
X89.716 Y11.032
X83.514 Y11.03
X79.969
X79.083 Y11.026
X78.197 Y11.016
X77.311 Y10.992
X76.426 Y10.947
X75.543 Y10.872
X74.666 Y10.749
X73.8 Y10.557
X73.446 Y10.434
X73.266 Y10.337
X73.123 Y10.19
X73.031 Y10.007
X73. Y9.804
Y6.425
G3 X74.2 Y6.451 R0.6
X74.199 Y6.466 R0.6
G1 X74.196 Y6.56 Z-0.488
X74.193 Y6.652 Z-0.466
X74.19 Y6.739 Z-0.43
X74.187 Y6.819 Z-0.38
X74.184 Y6.89 Z-0.319
X74.182 Y6.952 Z-0.248
X74.181 Y7.001 Z-0.167
X74.179 Y7.037 Z-0.08
Y7.059 Z0.011
X74.178 Y7.066 Z0.105
G0 Z5.
X117.462 Y47.162
Z0.705
G1 Z0.105 F200.
X117.456 Y47.166 Z0.011
X117.437 Y47.177 Z-0.08
X117.406 Y47.196 Z-0.167
X117.363 Y47.221 Z-0.248
X117.311 Y47.252 Z-0.319
X117.249 Y47.289 Z-0.38
X117.18 Y47.33 Z-0.43
X117.106 Y47.374 Z-0.466
X117.027 Y47.421 Z-0.488
X116.946 Y47.469 Z-0.495
G3 X115.138 Y48. R3.798
G1 X111.916 F500.
X111.533 Y47.981
X111.149 Y47.915
X110.756 Y47.799
X110.302 Y47.604
X109.834 Y47.333
X109.316 Y46.944
X108.793 Y46.445
X108.238 Y45.772
X107.759 Y45.027
X107.356 Y44.238
X107.018 Y43.419
X106.736 Y42.579
X106.501 Y41.724
X106.307 Y40.86
X106.147 Y39.988
X106.016 Y39.112
X105.909 Y38.232
X105.821 Y37.35
X105.75 Y36.467
X105.692 Y35.583
X105.646 Y34.698
X105.609 Y33.813
X105.579 Y32.927
X105.556 Y32.041
X105.537 Y31.155
X105.522 Y30.269
X105.51 Y29.383
X105.501 Y28.497
X105.494 Y27.611
X105.489 Y26.725
X105.481 Y24.953
X105.476 Y23.181
X105.473 Y20.522
X105.471 Y17.864
X105.465 Y17.642
X105.354 Y17.213
X105.12 Y16.837
X104.516 Y16.189
X103.759 Y15.728
X102.937 Y15.397
X102.084 Y15.158
X101.215 Y14.986
X100.337 Y14.862
X99.456 Y14.771
X98.572 Y14.706
X97.687 Y14.658
X96.802 Y14.623
X95.916 Y14.598
X95.03 Y14.579
X94.144 Y14.566
X93.258 Y14.556
X92.372 Y14.549
X91.486 Y14.544
X90.6 Y14.54
X88.827 Y14.535
X86.169 Y14.532
X81.739 Y14.53
X80.852 Y14.528
X79.966 Y14.522
X79.08 Y14.51
X78.194 Y14.487
X77.309 Y14.448
X76.425 Y14.385
X75.544 Y14.291
X74.668 Y14.157
X73.805 Y13.958
X73.444 Y13.83
X73.264 Y13.733
X73.122 Y13.586
X73.031 Y13.404
X73. Y13.202
Y9.804
G3 X74.2 Y9.831 R0.6
X74.199 Y9.846 R0.6
G1 X74.196 Y9.94 Z-0.488
X74.193 Y10.031 Z-0.466
X74.19 Y10.118 Z-0.43
X74.187 Y10.199 Z-0.38
X74.184 Y10.27 Z-0.319
X74.182 Y10.331 Z-0.248
X74.181 Y10.38 Z-0.167
X74.179 Y10.416 Z-0.08
Y10.438 Z0.011
X74.178 Y10.446 Z0.105
G0 Z5.
X114.24 Y47.162
Z0.705
G1 Z0.105 F200.
X114.234 Y47.166 Z0.011
X114.215 Y47.177 Z-0.08
X114.184 Y47.196 Z-0.167
X114.142 Y47.221 Z-0.248
X114.089 Y47.252 Z-0.319
X114.028 Y47.289 Z-0.38
X113.959 Y47.33 Z-0.43
X113.884 Y47.374 Z-0.466
X113.805 Y47.421 Z-0.488
X113.725 Y47.469 Z-0.495
G3 X111.916 Y48. R3.798
G1 X108.695 F500.
X108.287 Y47.98
X107.897 Y47.913
X107.492 Y47.793
X107.034 Y47.596
X106.549 Y47.316
X106.019 Y46.918
X105.478 Y46.401
X104.914 Y45.718
X104.434 Y44.973
X104.025 Y44.187
X103.68 Y43.371
X103.388 Y42.534
X103.142 Y41.683
X102.937 Y40.821
X102.765 Y39.952
X102.621 Y39.077
X102.502 Y38.199
X102.403 Y37.319
X102.321 Y36.436
X102.254 Y35.553
X102.199 Y34.668
X102.153 Y33.783
X102.117 Y32.898
X102.087 Y32.012
X102.063 Y31.127
X102.044 Y30.241
X102.028 Y29.355
X102.016 Y28.469
X102.006 Y27.583
X101.998 Y26.696
X101.992 Y25.81
X101.987 Y24.924
X101.98 Y23.152
X101.976 Y21.38
X101.969 Y21.158
X101.858 Y20.729
X101.626 Y20.352
X101.024 Y19.702
X100.269 Y19.238
X99.448 Y18.905
X98.595 Y18.665
X97.726 Y18.492
X96.848 Y18.366
X95.967 Y18.275
X95.083 Y18.209
X94.199 Y18.16
X93.313 Y18.125
X92.427 Y18.099
X91.541 Y18.081
X90.655 Y18.067
X89.769 Y18.057
X88.883 Y18.05
X87.997 Y18.044
X87.111 Y18.04
X85.339 Y18.036
X82.68 Y18.031
X81.794 Y18.027
X80.908 Y18.02
X80.022 Y18.008
X79.136 Y17.987
X78.251 Y17.954
X77.366 Y17.903
X76.483 Y17.83
X75.603 Y17.727
X74.728 Y17.588
X73.864 Y17.389
X73.446 Y17.244
X73.405 Y17.226
X73.24 Y17.125
X73.111 Y16.981
X73.028 Y16.805
X73. Y16.613
Y13.202
G3 X74.2 Y13.229 R0.6
X74.199 Y13.244 R0.6
G1 X74.196 Y13.338 Z-0.488
X74.193 Y13.429 Z-0.466
X74.19 Y13.516 Z-0.43
X74.187 Y13.596 Z-0.38
X74.184 Y13.668 Z-0.319
X74.182 Y13.729 Z-0.248
X74.181 Y13.778 Z-0.167
X74.179 Y13.814 Z-0.08
Y13.836 Z0.011
X74.178 Y13.843 Z0.105
G0 Z5.
X111.019 Y47.162
Z0.705
G1 Z0.105 F200.
X111.012 Y47.166 Z0.011
X110.994 Y47.177 Z-0.08
X110.963 Y47.196 Z-0.167
X110.92 Y47.221 Z-0.248
X110.868 Y47.252 Z-0.319
X110.806 Y47.289 Z-0.38
X110.737 Y47.33 Z-0.43
X110.662 Y47.374 Z-0.466
X110.584 Y47.421 Z-0.488
X110.503 Y47.469 Z-0.495
G3 X108.695 Y48. R3.798
G1 X105.272 F500.
X105.001 Y47.986
X104.609 Y47.92
X104.194 Y47.797
X103.731 Y47.598
X103.235 Y47.311
X102.694 Y46.905
X102.14 Y46.376
X101.576 Y45.692
X101.093 Y44.949
X100.68 Y44.165
X100.328 Y43.352
X100.028 Y42.518
X99.774 Y41.669
X99.558 Y40.81
X99.376 Y39.943
X99.222 Y39.07
X99.093 Y38.193
X98.984 Y37.314
X98.893 Y36.433
X98.817 Y35.55
X98.753 Y34.666
X98.701 Y33.781
X98.657 Y32.896
X98.622 Y32.011
X98.592 Y31.125
X98.568 Y30.239
X98.549 Y29.353
X98.533 Y28.467
X98.52 Y27.581
X98.51 Y26.695
X98.502 Y25.809
X98.493 Y24.702
X98.395 Y24.27
X98.169 Y23.888
X97.576 Y23.23
X96.825 Y22.76
X96.006 Y22.422
X95.154 Y22.178
X94.286 Y22.001
X93.409 Y21.873
X92.528 Y21.78
X91.644 Y21.713
X90.76 Y21.663
X89.874 Y21.627
X88.989 Y21.601
X88.103 Y21.582
X87.217 Y21.568
X86.331 Y21.558
X85.444 Y21.55
X82.786 Y21.532
X81.9 Y21.524
X81.014 Y21.512
X80.128 Y21.493
X79.242 Y21.464
X78.357 Y21.423
X77.473 Y21.364
X76.591 Y21.285
X75.711 Y21.178
X74.836 Y21.039
X73.971 Y20.846
X73.551 Y20.705
X73.414 Y20.65
X73.245 Y20.549
X73.113 Y20.404
X73.029 Y20.227
X73. Y20.033
Y16.613
G3 X74.2 Y16.64 R0.6
X74.199 Y16.655 R0.6
G1 X74.196 Y16.749 Z-0.488
X74.193 Y16.84 Z-0.466
X74.19 Y16.927 Z-0.43
X74.187 Y17.007 Z-0.38
X74.184 Y17.079 Z-0.319
X74.182 Y17.14 Z-0.248
X74.181 Y17.189 Z-0.167
X74.179 Y17.225 Z-0.08
Y17.247 Z0.011
X74.178 Y17.255 Z0.105
G0 Z5.
X107.596 Y47.162
Z0.705
G1 Z0.105 F200.
X107.59 Y47.166 Z0.011
X107.571 Y47.177 Z-0.08
X107.54 Y47.196 Z-0.167
X107.497 Y47.221 Z-0.248
X107.445 Y47.252 Z-0.319
X107.383 Y47.289 Z-0.38
X107.314 Y47.33 Z-0.43
X107.24 Y47.374 Z-0.466
X107.161 Y47.421 Z-0.488
X107.08 Y47.469 Z-0.495
G3 X105.272 Y48. R3.798
G1 X102.05 F500.
X101.675 Y47.981
X101.28 Y47.914
X100.861 Y47.79
X100.393 Y47.589
X99.892 Y47.299
X99.343 Y46.887
X98.779 Y46.348
X98.215 Y45.664
X97.73 Y44.923
X97.314 Y44.14
X96.958 Y43.329
X96.652 Y42.497
X96.391 Y41.651
X96.167 Y40.793
X95.977 Y39.928
X95.815 Y39.057
X95.677 Y38.181
X95.56 Y37.303
X95.461 Y36.422
X95.378 Y35.54
X95.307 Y34.657
X95.248 Y33.773
X95.199 Y32.888
X95.157 Y32.003
X95.123 Y31.117
X95.095 Y30.232
X95.071 Y29.346
X95.052 Y28.46
X95.048 Y28.238
X94.96 Y27.804
X94.74 Y27.42
X94.155 Y26.755
X93.407 Y26.278
X92.59 Y25.936
X91.739 Y25.689
X90.871 Y25.509
X89.995 Y25.379
X89.114 Y25.285
X88.23 Y25.216
X87.345 Y25.166
X86.46 Y25.129
X85.574 Y25.102
X84.689 Y25.08
X83.803 Y25.063
X82.917 Y25.047
X82.031 Y25.029
X81.145 Y25.009
X80.259 Y24.982
X79.374 Y24.945
X78.489 Y24.897
X77.605 Y24.832
X76.723 Y24.749
X75.843 Y24.641
X74.968 Y24.502
X74.102 Y24.314
X73.68 Y24.18
X73.426 Y24.082
X73.253 Y23.983
X73.117 Y23.837
X73.03 Y23.657
X73. Y23.46
Y20.033
G3 X74.2 Y20.06 R0.6
X74.199 Y20.075 R0.6
G1 X74.196 Y20.168 Z-0.488
X74.193 Y20.26 Z-0.466
X74.19 Y20.347 Z-0.43
X74.187 Y20.427 Z-0.38
X74.184 Y20.499 Z-0.319
X74.182 Y20.56 Z-0.248
X74.181 Y20.609 Z-0.167
X74.179 Y20.645 Z-0.08
Y20.667 Z0.011
X74.178 Y20.674 Z0.105
G0 Z5.
X104.374 Y47.162
Z0.705
G1 Z0.105 F200.
X104.368 Y47.166 Z0.011
X104.349 Y47.177 Z-0.08
X104.318 Y47.196 Z-0.167
X104.276 Y47.221 Z-0.248
X104.223 Y47.252 Z-0.319
X104.162 Y47.289 Z-0.38
X104.093 Y47.33 Z-0.43
X104.018 Y47.374 Z-0.466
X103.939 Y47.421 Z-0.488
X103.859 Y47.469 Z-0.495
G3 X102.05 Y48. R3.798
G1 X98.627 F500.
X98.333 Y47.985
X97.937 Y47.918
X97.512 Y47.792
X97.042 Y47.59
X96.534 Y47.296
X95.979 Y46.879
X95.406 Y46.332
X94.842 Y45.649
X94.356 Y44.908
X93.937 Y44.127
X93.576 Y43.318
X93.266 Y42.488
X92.999 Y41.643
X92.769 Y40.787
X92.572 Y39.923
X92.403 Y39.053
X92.258 Y38.179
X92.134 Y37.301
X92.028 Y36.422
X91.938 Y35.54
X91.861 Y34.657
X91.796 Y33.774
X91.741 Y32.889
X91.695 Y32.004
X91.675 Y31.562
X91.516 Y31.148
X91.004 Y30.425
X90.288 Y29.903
X89.485 Y29.528
X88.641 Y29.257
X87.777 Y29.06
X86.903 Y28.916
X86.023 Y28.811
X85.14 Y28.732
X84.256 Y28.673
X83.372 Y28.625
X82.486 Y28.584
X81.601 Y28.545
X80.716 Y28.505
X79.831 Y28.459
X78.946 Y28.405
X78.063 Y28.34
X77.18 Y28.258
X76.3 Y28.158
X75.423 Y28.032
X74.553 Y27.865
X73.696 Y27.637
X73.424 Y27.531
X73.252 Y27.431
X73.116 Y27.286
X73.03 Y27.106
X73. Y26.91
Y23.46
G3 X74.2 Y23.487 R0.6
X74.199 Y23.502 R0.6
G1 X74.196 Y23.596 Z-0.488
X74.193 Y23.687 Z-0.466
X74.19 Y23.774 Z-0.43
X74.187 Y23.854 Z-0.38
X74.184 Y23.926 Z-0.319
X74.182 Y23.987 Z-0.248
X74.181 Y24.036 Z-0.167
X74.179 Y24.072 Z-0.08
Y24.094 Z0.011
X74.178 Y24.102 Z0.105
G0 Z5.
X100.951 Y47.162
Z0.705
G1 Z0.105 F200.
X100.945 Y47.166 Z0.011
X100.926 Y47.177 Z-0.08
X100.895 Y47.196 Z-0.167
X100.853 Y47.221 Z-0.248
X100.8 Y47.252 Z-0.319
X100.739 Y47.289 Z-0.38
X100.67 Y47.33 Z-0.43
X100.595 Y47.374 Z-0.466
X100.516 Y47.421 Z-0.488
X100.436 Y47.469 Z-0.495
G3 X98.627 Y48. R3.798
G1 X95.406 F500.
X94.965 Y47.978
X94.568 Y47.91
X94.141 Y47.784
X93.667 Y47.58
X93.157 Y47.285
X92.596 Y46.864
X92.017 Y46.311
X91.453 Y45.628
X90.966 Y44.887
X90.545 Y44.108
X90.182 Y43.299
X89.867 Y42.471
X89.596 Y41.627
X89.361 Y40.773
X89.159 Y39.91
X88.984 Y39.042
X88.833 Y38.168
X88.703 Y37.292
X88.592 Y36.413
X88.496 Y35.532
X88.454 Y35.091
X88.294 Y34.678
X87.783 Y33.954
X87.07 Y33.427
X86.27 Y33.046
X85.429 Y32.768
X84.567 Y32.562
X83.694 Y32.408
X82.816 Y32.288
X81.936 Y32.191
X81.053 Y32.108
X79.288 Y31.955
X78.405 Y31.875
X77.524 Y31.784
X76.644 Y31.679
X75.767 Y31.554
X74.894 Y31.398
X74.032 Y31.196
X73.612 Y31.055
X73.416 Y30.975
X73.246 Y30.875
X73.114 Y30.73
X73.029 Y30.552
X73. Y30.358
Y26.91
G3 X74.2 Y26.937 R0.6
X74.199 Y26.952 R0.6
G1 X74.196 Y27.045 Z-0.488
X74.193 Y27.137 Z-0.466
X74.19 Y27.224 Z-0.43
X74.187 Y27.304 Z-0.38
X74.184 Y27.376 Z-0.319
X74.182 Y27.437 Z-0.248
X74.181 Y27.486 Z-0.167
X74.179 Y27.522 Z-0.08
Y27.544 Z0.011
X74.178 Y27.551 Z0.105
G0 Z5.
X97.73 Y47.162
Z0.705
G1 Z0.105 F200.
X97.724 Y47.166 Z0.011
X97.705 Y47.177 Z-0.08
X97.674 Y47.196 Z-0.167
X97.631 Y47.221 Z-0.248
X97.579 Y47.252 Z-0.319
X97.517 Y47.289 Z-0.38
X97.448 Y47.33 Z-0.43
X97.374 Y47.374 Z-0.466
X97.295 Y47.421 Z-0.488
X97.214 Y47.469 Z-0.495
G3 X95.406 Y48. R3.798
G1 X91.983 F500.
X91.591 Y47.98
X91.193 Y47.913
X90.762 Y47.785
X90.286 Y47.58
X89.771 Y47.282
X89.207 Y46.859
X88.621 Y46.3
X88.058 Y45.616
X87.569 Y44.877
X87.147 Y44.098
X86.78 Y43.291
X86.463 Y42.464
X86.187 Y41.622
X85.948 Y40.768
X85.741 Y39.907
X85.561 Y39.039
X85.483 Y38.603
X85.303 Y38.198
X84.785 Y37.479
X84.076 Y36.947
X83.283 Y36.551
X82.449 Y36.253
X81.593 Y36.024
X80.726 Y35.841
X79.853 Y35.688
X78.977 Y35.553
X77.223 Y35.299
X76.348 Y35.164
X75.475 Y35.01
X74.608 Y34.826
X73.754 Y34.591
X73.424 Y34.462
X73.252 Y34.363
X73.116 Y34.217
X73.03 Y34.038
X73. Y33.841
Y30.358
G3 X74.2 Y30.385 R0.6
X74.199 Y30.399 R0.6
G1 X74.196 Y30.493 Z-0.488
X74.193 Y30.585 Z-0.466
X74.19 Y30.672 Z-0.43
X74.187 Y30.752 Z-0.38
X74.184 Y30.823 Z-0.319
X74.182 Y30.885 Z-0.248
X74.181 Y30.934 Z-0.167
X74.179 Y30.97 Z-0.08
Y30.992 Z0.011
X74.178 Y30.999 Z0.105
G0 Z5.
X94.307 Y47.162
Z0.705
G1 Z0.105 F200.
X94.301 Y47.166 Z0.011
X94.282 Y47.177 Z-0.08
X94.251 Y47.196 Z-0.167
X94.208 Y47.221 Z-0.248
X94.156 Y47.252 Z-0.319
X94.094 Y47.289 Z-0.38
X94.025 Y47.33 Z-0.43
X93.951 Y47.374 Z-0.466
X93.872 Y47.421 Z-0.488
X93.791 Y47.469 Z-0.495
G3 X91.983 Y48. R3.798
G1 X88.56 F500.
X88.203 Y47.982
X87.804 Y47.914
X87.371 Y47.786
X86.893 Y47.58
X86.375 Y47.281
X85.807 Y46.854
X85.217 Y46.29
X84.653 Y45.607
X84.164 Y44.868
X83.74 Y44.09
X83.371 Y43.284
X83.051 Y42.458
X82.743 Y41.627
X82.176 Y40.946
X81.466 Y40.416
X80.68 Y40.006
X79.855 Y39.682
X79.01 Y39.418
X78.152 Y39.195
X77.289 Y38.995
X76.423 Y38.805
X75.558 Y38.612
X74.697 Y38.405
X73.846 Y38.158
X73.433 Y37.997
X73.387 Y37.975
X73.228 Y37.873
X73.105 Y37.729
X73.027 Y37.557
X73. Y37.37
Y33.841
G3 X74.2 Y33.868 R0.6
X74.199 Y33.883 R0.6
G1 X74.196 Y33.977 Z-0.488
X74.193 Y34.068 Z-0.466
X74.19 Y34.155 Z-0.43
X74.187 Y34.235 Z-0.38
X74.184 Y34.307 Z-0.319
X74.182 Y34.368 Z-0.248
X74.181 Y34.417 Z-0.167
X74.179 Y34.453 Z-0.08
Y34.475 Z0.011
X74.178 Y34.483 Z0.105
G0 Z5.
X90.884 Y47.162
Z0.705
G1 Z0.105 F200.
X90.878 Y47.166 Z0.011
X90.859 Y47.177 Z-0.08
X90.828 Y47.196 Z-0.167
X90.786 Y47.221 Z-0.248
X90.733 Y47.252 Z-0.319
X90.671 Y47.289 Z-0.38
X90.602 Y47.33 Z-0.43
X90.528 Y47.374 Z-0.466
X90.449 Y47.421 Z-0.488
X90.368 Y47.469 Z-0.495
G3 X88.56 Y48. R3.798
G1 X85.137 F500.
X84.805 Y47.983
X84.406 Y47.915
X83.97 Y47.787
X83.491 Y47.58
X82.971 Y47.279
X82.399 Y46.85
X81.804 Y46.282
X81.241 Y45.599
X80.701 Y44.896
X80.051 Y44.294
X79.316 Y43.798
X78.53 Y43.389
X77.713 Y43.046
X76.879 Y42.748
X76.034 Y42.479
X75.187 Y42.221
X74.341 Y41.956
X73.508 Y41.653
X73.381 Y41.593
X73.225 Y41.49
X73.103 Y41.347
X73.026 Y41.176
X73. Y40.991
Y37.37
G3 X73.993 Y36.938 R0.6
G1 X74.396 Y37.289
X85.17 Y46.652
X85.51 Y46.948 F200.
G3 X85.137 Y48. R0.6
G1 X81.714 F500.
X81.36 Y47.982
X80.738 Y47.876
X79.888 Y47.625
X79.058 Y47.316
X78.23 Y46.999
X77.4 Y46.69
X76.564 Y46.395
X75.725 Y46.109
X74.886 Y45.826
X74.049 Y45.534
X73.413 Y45.273
X73.245 Y45.172
X73.113 Y45.027
X73.029 Y44.85
X73. Y44.656
G3 X73.791 Y44.109 R0.6
G1 X74.52 Y44.354
X81.68 Y46.763
X81.884 Y46.832 F200.
G3 X81.714 Y48. R0.6
G1 X75.271 F500.
X75.069 Y47.98
X74.868 Y47.957
X74.566 Y47.917
X74.465 Y47.894
X74.264 Y47.814
X74.102 Y47.747
X74.063 Y47.729
X73.962 Y47.67
X73.66 Y47.439
X73.613 Y47.396
X73.565 Y47.344
X73.333 Y47.042
X73.299 Y46.992
X73.273 Y46.941
X73.257 Y46.907
X73.188 Y46.74
X73.107 Y46.539
X73.084 Y46.438
X73.07 Y46.337
X73.056 Y46.202
X73.014 Y45.733
X73. Y45.532
Y40.991
G3 X73.941 Y40.518 R0.6
G1 X73.993 Y40.571 Z-0.49
X74.045 Y40.622 Z-0.477
X74.094 Y40.672 Z-0.454
X74.127 Y40.745 Z-0.416
X74.156 Y40.811 Z-0.366
X74.183 Y40.87 Z-0.307
X74.188 Y40.917 Z-0.25
X74.193 Y40.957 Z-0.188
X74.197 Y40.988 Z-0.122
X74.2 Y41.012 Z-0.052
Y41.018 Z-0.028
X74.199 Y41.029 Z0.038
Y41.033 Z0.105
G0 Z5.
X125.314 Y47.162
Z0.2
G1 Z-0.4 F200.
X125.308 Y47.166 Z-0.494
X125.289 Y47.177 Z-0.585
X125.258 Y47.196 Z-0.672
X125.216 Y47.221 Z-0.753
X125.163 Y47.252 Z-0.824
X125.102 Y47.289 Z-0.885
X125.033 Y47.33 Z-0.935
X124.958 Y47.374 Z-0.971
X124.879 Y47.421 Z-0.993
X124.799 Y47.469 Z-1.
G3 X122.99 Y48. R3.798
G1 X122.386 F500.
X122.236 Y47.993
X121.988 Y47.841
X121.71 Y47.623
X121.409 Y47.322
X121.087 Y46.914
X120.749 Y46.362
X120.4 Y45.602
X120.129 Y44.758
X119.935 Y43.894
X119.798 Y43.018
X119.7 Y42.137
X119.632 Y41.254
X119.584 Y40.369
X119.55 Y39.484
X119.526 Y38.598
X119.509 Y37.712
X119.497 Y36.826
X119.489 Y35.94
X119.483 Y35.054
X119.479 Y34.168
X119.475 Y32.395
X119.472 Y29.737
X119.47 Y22.648
Y2.932
X119.397 Y2.722
X119.333 Y2.633
X119.051 Y2.29
X118.366 Y1.729
X117.562 Y1.356
X116.713 Y1.102
X115.844 Y0.928
X114.966 Y0.807
X114.084 Y0.724
X113.2 Y0.665
X112.315 Y0.625
X111.429 Y0.596
X110.543 Y0.576
X109.657 Y0.562
X108.771 Y0.553
X107.885 Y0.546
X106.999 Y0.541
X105.226 Y0.535
X102.568 Y0.532
X96.365 Y0.53
X73.667
X73.461 Y0.497
X73.275 Y0.403
X73.127 Y0.255
X73.033 Y0.069
X73. Y-0.137
G3 X74.2 Y-0.11 R0.6
X74.199 Y-0.095 R0.6
G1 X74.196 Y-0.001 Z-0.993
X74.193 Y0.091 Z-0.971
X74.19 Y0.177 Z-0.935
X74.187 Y0.258 Z-0.885
X74.184 Y0.329 Z-0.824
X74.182 Y0.39 Z-0.753
X74.181 Y0.439 Z-0.672
X74.179 Y0.475 Z-0.585
Y0.497 Z-0.494
X74.178 Y0.505 Z-0.4
G0 Z5.
X124.71 Y47.162
Z0.2
G1 Z-0.4 F200.
X124.704 Y47.166 Z-0.494
X124.685 Y47.177 Z-0.585
X124.654 Y47.196 Z-0.672
X124.612 Y47.221 Z-0.753
X124.559 Y47.252 Z-0.824
X124.498 Y47.289 Z-0.885
X124.429 Y47.33 Z-0.935
X124.354 Y47.374 Z-0.971
X124.275 Y47.421 Z-0.993
X124.195 Y47.469 Z-1.
G3 X122.386 Y48. R3.798
G1 X120.775 F500.
X120.674 Y47.995
X120.384 Y47.959
X120.085 Y47.884
X119.751 Y47.758
X119.377 Y47.563
X119.003 Y47.307
X118.591 Y46.947
X118.18 Y46.491
X117.751 Y45.885
X117.329 Y45.106
X117. Y44.283
X116.746 Y43.434
X116.551 Y42.57
X116.403 Y41.696
X116.292 Y40.817
X116.208 Y39.935
X116.146 Y39.051
X116.1 Y38.166
X116.065 Y37.28
X116.04 Y36.395
X116.021 Y35.509
X116.007 Y34.623
X115.997 Y33.737
X115.99 Y32.85
X115.984 Y31.964
X115.98 Y31.078
X115.975 Y29.306
X115.972 Y26.648
X115.97 Y20.445
Y6.931
X115.85 Y6.505
X115.599 Y6.14
X114.965 Y5.52
X114.192 Y5.088
X113.359 Y4.784
X112.5 Y4.568
X111.627 Y4.415
X110.748 Y4.305
X109.865 Y4.227
X108.981 Y4.171
X108.096 Y4.131
X107.21 Y4.102
X106.324 Y4.082
X105.438 Y4.067
X104.552 Y4.056
X103.666 Y4.049
X102.78 Y4.043
X101.894 Y4.04
X100.122 Y4.035
X97.463 Y4.032
X91.26 Y4.03
X76.196
X75.31 Y4.021
X74.426 Y3.955
X73.739 Y3.822
X73.464 Y3.734
X73.277 Y3.64
X73.128 Y3.492
X73.033 Y3.306
X73. Y3.099
Y-0.137
G3 X74.2 Y-0.11 R0.6
X74.199 Y-0.095 R0.6
G1 X74.196 Y-0.001 Z-0.993
X74.193 Y0.091 Z-0.971
X74.19 Y0.177 Z-0.935
X74.187 Y0.258 Z-0.885
X74.184 Y0.329 Z-0.824
X74.182 Y0.39 Z-0.753
X74.181 Y0.439 Z-0.672
X74.179 Y0.475 Z-0.585
Y0.497 Z-0.494
X74.178 Y0.505 Z-0.4
G0 Z5.
X123.1 Y47.162
Z0.2
G1 Z-0.4 F200.
X123.093 Y47.166 Z-0.494
X123.074 Y47.177 Z-0.585
X123.043 Y47.196 Z-0.672
X123.001 Y47.221 Z-0.753
X122.949 Y47.252 Z-0.824
X122.887 Y47.289 Z-0.885
X122.818 Y47.33 Z-0.935
X122.743 Y47.374 Z-0.971
X122.665 Y47.421 Z-0.993
X122.584 Y47.469 Z-1.
G3 X120.775 Y48. R3.798
G1 X118.158 F500.
X117.771 Y47.981
X117.424 Y47.921
X117.049 Y47.811
X116.656 Y47.642
X116.213 Y47.385
X115.772 Y47.054
X115.294 Y46.598
X114.807 Y46.007
X114.328 Y45.262
X113.939 Y44.466
X113.624 Y43.637
X113.373 Y42.787
X113.172 Y41.924
X113.014 Y41.052
X112.889 Y40.175
X112.792 Y39.294
X112.716 Y38.411
X112.657 Y37.527
X112.612 Y36.642
X112.578 Y35.757
X112.551 Y34.871
X112.531 Y33.985
X112.516 Y33.099
X112.504 Y32.213
X112.496 Y31.327
X112.489 Y30.441
X112.484 Y29.555
X112.478 Y27.783
X112.473 Y25.124
X112.471 Y20.694
X112.47 Y10.503
X112.33 Y10.083
X111.826 Y9.354
X111.105 Y8.838
X110.299 Y8.471
X109.452 Y8.209
X108.587 Y8.02
X107.711 Y7.884
X106.83 Y7.786
X105.947 Y7.715
X105.062 Y7.664
X104.177 Y7.627
X103.291 Y7.6
X102.405 Y7.581
X101.519 Y7.567
X100.633 Y7.556
X99.747 Y7.549
X98.861 Y7.544
X97.975 Y7.54
X96.203 Y7.535
X93.544 Y7.532
X87.342 Y7.53
X78.48
X77.594 Y7.528
X76.708 Y7.514
X75.823 Y7.475
X74.94 Y7.395
X74.067 Y7.247
X73.641 Y7.125
X73.438 Y7.051
X73.26 Y6.953
X73.12 Y6.807
X73.031 Y6.625
X73. Y6.425
Y3.099
G3 X74.2 Y3.126 R0.6
X74.199 Y3.141 R0.6
G1 X74.196 Y3.235 Z-0.993
X74.193 Y3.326 Z-0.971
X74.19 Y3.413 Z-0.935
X74.187 Y3.494 Z-0.885
X74.184 Y3.565 Z-0.824
X74.182 Y3.626 Z-0.753
X74.181 Y3.675 Z-0.672
X74.179 Y3.711 Z-0.585
Y3.733 Z-0.494
X74.178 Y3.741 Z-0.4
G0 Z5.
X120.482 Y47.162
Z0.2
G1 Z-0.4 F200.
X120.476 Y47.166 Z-0.494
X120.457 Y47.177 Z-0.585
X120.426 Y47.196 Z-0.672
X120.384 Y47.221 Z-0.753
X120.331 Y47.252 Z-0.824
X120.27 Y47.289 Z-0.885
X120.201 Y47.33 Z-0.935
X120.126 Y47.374 Z-0.971
X120.047 Y47.421 Z-0.993
X119.966 Y47.469 Z-1.
G3 X118.158 Y48. R3.798
G1 X115.138 F500.
X114.704 Y47.978
X114.337 Y47.916
X113.955 Y47.803
X113.512 Y47.613
X113.067 Y47.355
X112.569 Y46.981
X112.072 Y46.506
X111.546 Y45.868
X111.067 Y45.123
X110.668 Y44.331
X110.339 Y43.509
X110.068 Y42.665
X109.848 Y41.807
X109.668 Y40.939
X109.524 Y40.065
X109.407 Y39.186
X109.314 Y38.305
X109.239 Y37.422
X109.18 Y36.538
X109.133 Y35.653
X109.097 Y34.768
X109.068 Y33.882
X109.045 Y32.996
X109.028 Y32.11
X109.014 Y31.224
X109.004 Y30.338
X108.996 Y29.452
X108.99 Y28.566
X108.985 Y27.68
X108.978 Y25.907
X108.974 Y23.249
X108.971 Y18.819
X108.97 Y14.166
X108.881 Y13.732
X108.655 Y13.351
X108.059 Y12.696
X107.305 Y12.23
X106.484 Y11.896
X105.631 Y11.657
X104.762 Y11.484
X103.885 Y11.36
X103.003 Y11.269
X102.119 Y11.204
X101.235 Y11.156
X100.349 Y11.122
X99.463 Y11.097
X98.577 Y11.078
X97.691 Y11.065
X96.805 Y11.056
X95.919 Y11.049
X95.033 Y11.043
X94.147 Y11.04
X92.375 Y11.035
X89.716 Y11.032
X83.514 Y11.03
X79.969
X79.083 Y11.026
X78.197 Y11.016
X77.311 Y10.992
X76.426 Y10.947
X75.543 Y10.872
X74.666 Y10.749
X73.8 Y10.557
X73.446 Y10.434
X73.266 Y10.337
X73.123 Y10.19
X73.031 Y10.007
X73. Y9.804
Y6.425
G3 X74.2 Y6.451 R0.6
X74.199 Y6.466 R0.6
G1 X74.196 Y6.56 Z-0.993
X74.193 Y6.652 Z-0.971
X74.19 Y6.739 Z-0.935
X74.187 Y6.819 Z-0.885
X74.184 Y6.89 Z-0.824
X74.182 Y6.952 Z-0.753
X74.181 Y7.001 Z-0.672
X74.179 Y7.037 Z-0.585
Y7.059 Z-0.494
X74.178 Y7.066 Z-0.4
G0 Z5.
X117.462 Y47.162
Z0.2
G1 Z-0.4 F200.
X117.456 Y47.166 Z-0.494
X117.437 Y47.177 Z-0.585
X117.406 Y47.196 Z-0.672
X117.363 Y47.221 Z-0.753
X117.311 Y47.252 Z-0.824
X117.249 Y47.289 Z-0.885
X117.18 Y47.33 Z-0.935
X117.106 Y47.374 Z-0.971
X117.027 Y47.421 Z-0.993
X116.946 Y47.469 Z-1.
G3 X115.138 Y48. R3.798
G1 X111.916 F500.
X111.533 Y47.981
X111.149 Y47.915
X110.756 Y47.799
X110.302 Y47.604
X109.834 Y47.333
X109.316 Y46.944
X108.793 Y46.445
X108.238 Y45.772
X107.759 Y45.027
X107.356 Y44.238
X107.018 Y43.419
X106.736 Y42.579
X106.501 Y41.724
X106.307 Y40.86
X106.147 Y39.988
X106.016 Y39.112
X105.909 Y38.232
X105.821 Y37.35
X105.75 Y36.467
X105.692 Y35.583
X105.646 Y34.698
X105.609 Y33.813
X105.579 Y32.927
X105.556 Y32.041
X105.537 Y31.155
X105.522 Y30.269
X105.51 Y29.383
X105.501 Y28.497
X105.494 Y27.611
X105.489 Y26.725
X105.481 Y24.953
X105.476 Y23.181
X105.473 Y20.522
X105.471 Y17.864
X105.465 Y17.642
X105.354 Y17.213
X105.12 Y16.837
X104.516 Y16.189
X103.759 Y15.728
X102.937 Y15.397
X102.084 Y15.158
X101.215 Y14.986
X100.337 Y14.862
X99.456 Y14.771
X98.572 Y14.706
X97.687 Y14.658
X96.802 Y14.623
X95.916 Y14.598
X95.03 Y14.579
X94.144 Y14.566
X93.258 Y14.556
X92.372 Y14.549
X91.486 Y14.544
X90.6 Y14.54
X88.827 Y14.535
X86.169 Y14.532
X81.739 Y14.53
X80.852 Y14.528
X79.966 Y14.522
X79.08 Y14.51
X78.194 Y14.487
X77.309 Y14.448
X76.425 Y14.385
X75.544 Y14.291
X74.668 Y14.157
X73.805 Y13.958
X73.444 Y13.83
X73.264 Y13.733
X73.122 Y13.586
X73.031 Y13.404
X73. Y13.202
Y9.804
G3 X74.2 Y9.831 R0.6
X74.199 Y9.846 R0.6
G1 X74.196 Y9.94 Z-0.993
X74.193 Y10.031 Z-0.971
X74.19 Y10.118 Z-0.935
X74.187 Y10.199 Z-0.885
X74.184 Y10.27 Z-0.824
X74.182 Y10.331 Z-0.753
X74.181 Y10.38 Z-0.672
X74.179 Y10.416 Z-0.585
Y10.438 Z-0.494
X74.178 Y10.446 Z-0.4
G0 Z5.
X114.24 Y47.162
Z0.2
G1 Z-0.4 F200.
X114.234 Y47.166 Z-0.494
X114.215 Y47.177 Z-0.585
X114.184 Y47.196 Z-0.672
X114.142 Y47.221 Z-0.753
X114.089 Y47.252 Z-0.824
X114.028 Y47.289 Z-0.885
X113.959 Y47.33 Z-0.935
X113.884 Y47.374 Z-0.971
X113.805 Y47.421 Z-0.993
X113.725 Y47.469 Z-1.
G3 X111.916 Y48. R3.798
G1 X108.695 F500.
X108.287 Y47.98
X107.897 Y47.913
X107.492 Y47.793
X107.034 Y47.596
X106.549 Y47.316
X106.019 Y46.918
X105.478 Y46.401
X104.914 Y45.718
X104.434 Y44.973
X104.025 Y44.187
X103.68 Y43.371
X103.388 Y42.534
X103.142 Y41.683
X102.937 Y40.821
X102.765 Y39.952
X102.621 Y39.077
X102.502 Y38.199
X102.403 Y37.319
X102.321 Y36.436
X102.254 Y35.553
X102.199 Y34.668
X102.153 Y33.783
X102.117 Y32.898
X102.087 Y32.012
X102.063 Y31.127
X102.044 Y30.241
X102.028 Y29.355
X102.016 Y28.469
X102.006 Y27.583
X101.998 Y26.696
X101.992 Y25.81
X101.987 Y24.924
X101.98 Y23.152
X101.976 Y21.38
X101.969 Y21.158
X101.858 Y20.729
X101.626 Y20.352
X101.024 Y19.702
X100.269 Y19.238
X99.448 Y18.905
X98.595 Y18.665
X97.726 Y18.492
X96.848 Y18.366
X95.967 Y18.275
X95.083 Y18.209
X94.199 Y18.16
X93.313 Y18.125
X92.427 Y18.099
X91.541 Y18.081
X90.655 Y18.067
X89.769 Y18.057
X88.883 Y18.05
X87.997 Y18.044
X87.111 Y18.04
X85.339 Y18.036
X82.68 Y18.031
X81.794 Y18.027
X80.908 Y18.02
X80.022 Y18.008
X79.136 Y17.987
X78.251 Y17.954
X77.366 Y17.903
X76.483 Y17.83
X75.603 Y17.727
X74.728 Y17.588
X73.864 Y17.389
X73.446 Y17.244
X73.405 Y17.226
X73.24 Y17.125
X73.111 Y16.981
X73.028 Y16.805
X73. Y16.613
Y13.202
G3 X74.2 Y13.229 R0.6
X74.199 Y13.244 R0.6
G1 X74.196 Y13.338 Z-0.993
X74.193 Y13.429 Z-0.971
X74.19 Y13.516 Z-0.935
X74.187 Y13.596 Z-0.885
X74.184 Y13.668 Z-0.824
X74.182 Y13.729 Z-0.753
X74.181 Y13.778 Z-0.672
X74.179 Y13.814 Z-0.585
Y13.836 Z-0.494
X74.178 Y13.843 Z-0.4
G0 Z5.
X111.019 Y47.162
Z0.2
G1 Z-0.4 F200.
X111.012 Y47.166 Z-0.494
X110.994 Y47.177 Z-0.585
X110.963 Y47.196 Z-0.672
X110.92 Y47.221 Z-0.753
X110.868 Y47.252 Z-0.824
X110.806 Y47.289 Z-0.885
X110.737 Y47.33 Z-0.935
X110.662 Y47.374 Z-0.971
X110.584 Y47.421 Z-0.993
X110.503 Y47.469 Z-1.
G3 X108.695 Y48. R3.798
G1 X105.272 F500.
X105.001 Y47.986
X104.609 Y47.92
X104.194 Y47.797
X103.731 Y47.598
X103.235 Y47.311
X102.694 Y46.905
X102.14 Y46.376
X101.576 Y45.692
X101.093 Y44.949
X100.68 Y44.165
X100.328 Y43.352
X100.028 Y42.518
X99.774 Y41.669
X99.558 Y40.81
X99.376 Y39.943
X99.222 Y39.07
X99.093 Y38.193
X98.984 Y37.314
X98.893 Y36.433
X98.817 Y35.55
X98.753 Y34.666
X98.701 Y33.781
X98.657 Y32.896
X98.622 Y32.011
X98.592 Y31.125
X98.568 Y30.239
X98.549 Y29.353
X98.533 Y28.467
X98.52 Y27.581
X98.51 Y26.695
X98.502 Y25.809
X98.493 Y24.702
X98.395 Y24.27
X98.169 Y23.888
X97.576 Y23.23
X96.825 Y22.76
X96.006 Y22.422
X95.154 Y22.178
X94.286 Y22.001
X93.409 Y21.873
X92.528 Y21.78
X91.644 Y21.713
X90.76 Y21.663
X89.874 Y21.627
X88.989 Y21.601
X88.103 Y21.582
X87.217 Y21.568
X86.331 Y21.558
X85.444 Y21.55
X82.786 Y21.532
X81.9 Y21.524
X81.014 Y21.512
X80.128 Y21.493
X79.242 Y21.464
X78.357 Y21.423
X77.473 Y21.364
X76.591 Y21.285
X75.711 Y21.178
X74.836 Y21.039
X73.971 Y20.846
X73.551 Y20.705
X73.414 Y20.65
X73.245 Y20.549
X73.113 Y20.404
X73.029 Y20.227
X73. Y20.033
Y16.613
G3 X74.2 Y16.64 R0.6
X74.199 Y16.655 R0.6
G1 X74.196 Y16.749 Z-0.993
X74.193 Y16.84 Z-0.971
X74.19 Y16.927 Z-0.935
X74.187 Y17.007 Z-0.885
X74.184 Y17.079 Z-0.824
X74.182 Y17.14 Z-0.753
X74.181 Y17.189 Z-0.672
X74.179 Y17.225 Z-0.585
Y17.247 Z-0.494
X74.178 Y17.255 Z-0.4
G0 Z5.
X107.596 Y47.162
Z0.2
G1 Z-0.4 F200.
X107.59 Y47.166 Z-0.494
X107.571 Y47.177 Z-0.585
X107.54 Y47.196 Z-0.672
X107.497 Y47.221 Z-0.753
X107.445 Y47.252 Z-0.824
X107.383 Y47.289 Z-0.885
X107.314 Y47.33 Z-0.935
X107.24 Y47.374 Z-0.971
X107.161 Y47.421 Z-0.993
X107.08 Y47.469 Z-1.
G3 X105.272 Y48. R3.798
G1 X102.05 F500.
X101.675 Y47.981
X101.28 Y47.914
X100.861 Y47.79
X100.393 Y47.589
X99.892 Y47.299
X99.343 Y46.887
X98.779 Y46.348
X98.215 Y45.664
X97.73 Y44.923
X97.314 Y44.14
X96.958 Y43.329
X96.652 Y42.497
X96.391 Y41.651
X96.167 Y40.793
X95.977 Y39.928
X95.815 Y39.057
X95.677 Y38.181
X95.56 Y37.303
X95.461 Y36.422
X95.378 Y35.54
X95.307 Y34.657
X95.248 Y33.773
X95.199 Y32.888
X95.157 Y32.003
X95.123 Y31.117
X95.095 Y30.232
X95.071 Y29.346
X95.052 Y28.46
X95.048 Y28.238
X94.96 Y27.804
X94.74 Y27.42
X94.155 Y26.755
X93.407 Y26.278
X92.59 Y25.936
X91.739 Y25.689
X90.871 Y25.509
X89.995 Y25.379
X89.114 Y25.285
X88.23 Y25.216
X87.345 Y25.166
X86.46 Y25.129
X85.574 Y25.102
X84.689 Y25.08
X83.803 Y25.063
X82.917 Y25.047
X82.031 Y25.029
X81.145 Y25.009
X80.259 Y24.982
X79.374 Y24.945
X78.489 Y24.897
X77.605 Y24.832
X76.723 Y24.749
X75.843 Y24.641
X74.968 Y24.502
X74.102 Y24.314
X73.68 Y24.18
X73.426 Y24.082
X73.253 Y23.983
X73.117 Y23.837
X73.03 Y23.657
X73. Y23.46
Y20.033
G3 X74.2 Y20.06 R0.6
X74.199 Y20.075 R0.6
G1 X74.196 Y20.168 Z-0.993
X74.193 Y20.26 Z-0.971
X74.19 Y20.347 Z-0.935
X74.187 Y20.427 Z-0.885
X74.184 Y20.499 Z-0.824
X74.182 Y20.56 Z-0.753
X74.181 Y20.609 Z-0.672
X74.179 Y20.645 Z-0.585
Y20.667 Z-0.494
X74.178 Y20.674 Z-0.4
G0 Z5.
X104.374 Y47.162
Z0.2
G1 Z-0.4 F200.
X104.368 Y47.166 Z-0.494
X104.349 Y47.177 Z-0.585
X104.318 Y47.196 Z-0.672
X104.276 Y47.221 Z-0.753
X104.223 Y47.252 Z-0.824
X104.162 Y47.289 Z-0.885
X104.093 Y47.33 Z-0.935
X104.018 Y47.374 Z-0.971
X103.939 Y47.421 Z-0.993
X103.859 Y47.469 Z-1.
G3 X102.05 Y48. R3.798
G1 X98.627 F500.
X98.333 Y47.985
X97.937 Y47.918
X97.512 Y47.792
X97.042 Y47.59
X96.534 Y47.296
X95.979 Y46.879
X95.406 Y46.332
X94.842 Y45.649
X94.356 Y44.908
X93.937 Y44.127
X93.576 Y43.318
X93.266 Y42.488
X92.999 Y41.643
X92.769 Y40.787
X92.572 Y39.923
X92.403 Y39.053
X92.258 Y38.179
X92.134 Y37.301
X92.028 Y36.422
X91.938 Y35.54
X91.861 Y34.657
X91.796 Y33.774
X91.741 Y32.889
X91.695 Y32.004
X91.675 Y31.562
X91.516 Y31.148
X91.004 Y30.425
X90.288 Y29.903
X89.485 Y29.528
X88.641 Y29.257
X87.777 Y29.06
X86.903 Y28.916
X86.023 Y28.811
X85.14 Y28.732
X84.256 Y28.673
X83.372 Y28.625
X82.486 Y28.584
X81.601 Y28.545
X80.716 Y28.505
X79.831 Y28.459
X78.946 Y28.405
X78.063 Y28.34
X77.18 Y28.258
X76.3 Y28.158
X75.423 Y28.032
X74.553 Y27.865
X73.696 Y27.637
X73.424 Y27.531
X73.252 Y27.431
X73.116 Y27.286
X73.03 Y27.106
X73. Y26.91
Y23.46
G3 X74.2 Y23.487 R0.6
X74.199 Y23.502 R0.6
G1 X74.196 Y23.596 Z-0.993
X74.193 Y23.687 Z-0.971
X74.19 Y23.774 Z-0.935
X74.187 Y23.854 Z-0.885
X74.184 Y23.926 Z-0.824
X74.182 Y23.987 Z-0.753
X74.181 Y24.036 Z-0.672
X74.179 Y24.072 Z-0.585
Y24.094 Z-0.494
X74.178 Y24.102 Z-0.4
G0 Z5.
X100.951 Y47.162
Z0.2
G1 Z-0.4 F200.
X100.945 Y47.166 Z-0.494
X100.926 Y47.177 Z-0.585
X100.895 Y47.196 Z-0.672
X100.853 Y47.221 Z-0.753
X100.8 Y47.252 Z-0.824
X100.739 Y47.289 Z-0.885
X100.67 Y47.33 Z-0.935
X100.595 Y47.374 Z-0.971
X100.516 Y47.421 Z-0.993
X100.436 Y47.469 Z-1.
G3 X98.627 Y48. R3.798
G1 X95.406 F500.
X94.965 Y47.978
X94.568 Y47.91
X94.141 Y47.784
X93.667 Y47.58
X93.157 Y47.285
X92.596 Y46.864
X92.017 Y46.311
X91.453 Y45.628
X90.966 Y44.887
X90.545 Y44.108
X90.182 Y43.299
X89.867 Y42.471
X89.596 Y41.627
X89.361 Y40.773
X89.159 Y39.91
X88.984 Y39.042
X88.833 Y38.168
X88.703 Y37.292
X88.592 Y36.413
X88.496 Y35.532
X88.454 Y35.091
X88.294 Y34.678
X87.783 Y33.954
X87.07 Y33.427
X86.27 Y33.046
X85.429 Y32.768
X84.567 Y32.562
X83.694 Y32.408
X82.816 Y32.288
X81.936 Y32.191
X81.053 Y32.108
X79.288 Y31.955
X78.405 Y31.875
X77.524 Y31.784
X76.644 Y31.679
X75.767 Y31.554
X74.894 Y31.398
X74.032 Y31.196
X73.612 Y31.055
X73.416 Y30.975
X73.246 Y30.875
X73.114 Y30.73
X73.029 Y30.552
X73. Y30.358
Y26.91
G3 X74.2 Y26.937 R0.6
X74.199 Y26.952 R0.6
G1 X74.196 Y27.045 Z-0.993
X74.193 Y27.137 Z-0.971
X74.19 Y27.224 Z-0.935
X74.187 Y27.304 Z-0.885
X74.184 Y27.376 Z-0.824
X74.182 Y27.437 Z-0.753
X74.181 Y27.486 Z-0.672
X74.179 Y27.522 Z-0.585
Y27.544 Z-0.494
X74.178 Y27.551 Z-0.4
G0 Z5.
X97.73 Y47.162
Z0.2
G1 Z-0.4 F200.
X97.724 Y47.166 Z-0.494
X97.705 Y47.177 Z-0.585
X97.674 Y47.196 Z-0.672
X97.631 Y47.221 Z-0.753
X97.579 Y47.252 Z-0.824
X97.517 Y47.289 Z-0.885
X97.448 Y47.33 Z-0.935
X97.374 Y47.374 Z-0.971
X97.295 Y47.421 Z-0.993
X97.214 Y47.469 Z-1.
G3 X95.406 Y48. R3.798
G1 X91.983 F500.
X91.591 Y47.98
X91.193 Y47.913
X90.762 Y47.785
X90.286 Y47.58
X89.771 Y47.282
X89.207 Y46.859
X88.621 Y46.3
X88.058 Y45.616
X87.569 Y44.877
X87.147 Y44.098
X86.78 Y43.291
X86.463 Y42.464
X86.187 Y41.622
X85.948 Y40.768
X85.741 Y39.907
X85.561 Y39.039
X85.483 Y38.603
X85.303 Y38.198
X84.785 Y37.479
X84.076 Y36.947
X83.283 Y36.551
X82.449 Y36.253
X81.593 Y36.024
X80.726 Y35.841
X79.853 Y35.688
X78.977 Y35.553
X77.223 Y35.299
X76.348 Y35.164
X75.475 Y35.01
X74.608 Y34.826
X73.754 Y34.591
X73.424 Y34.462
X73.252 Y34.363
X73.116 Y34.217
X73.03 Y34.038
X73. Y33.841
Y30.358
G3 X74.2 Y30.385 R0.6
X74.199 Y30.399 R0.6
G1 X74.196 Y30.493 Z-0.993
X74.193 Y30.585 Z-0.971
X74.19 Y30.672 Z-0.935
X74.187 Y30.752 Z-0.885
X74.184 Y30.823 Z-0.824
X74.182 Y30.885 Z-0.753
X74.181 Y30.934 Z-0.672
X74.179 Y30.97 Z-0.585
Y30.992 Z-0.494
X74.178 Y30.999 Z-0.4
G0 Z5.
X94.307 Y47.162
Z0.2
G1 Z-0.4 F200.
X94.301 Y47.166 Z-0.494
X94.282 Y47.177 Z-0.585
X94.251 Y47.196 Z-0.672
X94.208 Y47.221 Z-0.753
X94.156 Y47.252 Z-0.824
X94.094 Y47.289 Z-0.885
X94.025 Y47.33 Z-0.935
X93.951 Y47.374 Z-0.971
X93.872 Y47.421 Z-0.993
X93.791 Y47.469 Z-1.
G3 X91.983 Y48. R3.798
G1 X88.56 F500.
X88.203 Y47.982
X87.804 Y47.914
X87.371 Y47.786
X86.893 Y47.58
X86.375 Y47.281
X85.807 Y46.854
X85.217 Y46.29
X84.653 Y45.607
X84.164 Y44.868
X83.74 Y44.09
X83.371 Y43.284
X83.051 Y42.458
X82.743 Y41.627
X82.176 Y40.946
X81.466 Y40.416
X80.68 Y40.006
X79.855 Y39.682
X79.01 Y39.418
X78.152 Y39.195
X77.289 Y38.995
X76.423 Y38.805
X75.558 Y38.612
X74.697 Y38.405
X73.846 Y38.158
X73.433 Y37.997
X73.387 Y37.975
X73.228 Y37.873
X73.105 Y37.729
X73.027 Y37.557
X73. Y37.37
Y33.841
G3 X74.2 Y33.868 R0.6
X74.199 Y33.883 R0.6
G1 X74.196 Y33.977 Z-0.993
X74.193 Y34.068 Z-0.971
X74.19 Y34.155 Z-0.935
X74.187 Y34.235 Z-0.885
X74.184 Y34.307 Z-0.824
X74.182 Y34.368 Z-0.753
X74.181 Y34.417 Z-0.672
X74.179 Y34.453 Z-0.585
Y34.475 Z-0.494
X74.178 Y34.483 Z-0.4
G0 Z5.
X90.884 Y47.162
Z0.2
G1 Z-0.4 F200.
X90.878 Y47.166 Z-0.494
X90.859 Y47.177 Z-0.585
X90.828 Y47.196 Z-0.672
X90.786 Y47.221 Z-0.753
X90.733 Y47.252 Z-0.824
X90.671 Y47.289 Z-0.885
X90.602 Y47.33 Z-0.935
X90.528 Y47.374 Z-0.971
X90.449 Y47.421 Z-0.993
X90.368 Y47.469 Z-1.
G3 X88.56 Y48. R3.798
G1 X85.137 F500.
X84.805 Y47.983
X84.406 Y47.915
X83.97 Y47.787
X83.491 Y47.58
X82.971 Y47.279
X82.399 Y46.85
X81.804 Y46.282
X81.241 Y45.599
X80.701 Y44.896
X80.051 Y44.294
X79.316 Y43.798
X78.53 Y43.389
X77.713 Y43.046
X76.879 Y42.748
X76.034 Y42.479
X75.187 Y42.221
X74.341 Y41.956
X73.508 Y41.653
X73.381 Y41.593
X73.225 Y41.49
X73.103 Y41.347
X73.026 Y41.176
X73. Y40.991
Y37.37
G3 X73.993 Y36.938 R0.6
G1 X74.396 Y37.289
X85.17 Y46.652
X85.51 Y46.948 F200.
G3 X85.137 Y48. R0.6
G1 X81.714 F500.
X81.36 Y47.982
X80.738 Y47.876
X79.888 Y47.625
X79.058 Y47.316
X78.23 Y46.999
X77.4 Y46.69
X76.564 Y46.395
X75.725 Y46.109
X74.886 Y45.826
X74.049 Y45.534
X73.413 Y45.273
X73.245 Y45.172
X73.113 Y45.027
X73.029 Y44.85
X73. Y44.656
G3 X73.791 Y44.109 R0.6
G1 X74.52 Y44.354
X81.68 Y46.763
X81.884 Y46.832 F200.
G3 X81.714 Y48. R0.6
G1 X75.271 F500.
X75.069 Y47.98
X74.868 Y47.957
X74.566 Y47.917
X74.465 Y47.894
X74.264 Y47.814
X74.102 Y47.747
X74.063 Y47.729
X73.962 Y47.67
X73.66 Y47.439
X73.613 Y47.396
X73.565 Y47.344
X73.333 Y47.042
X73.299 Y46.992
X73.273 Y46.941
X73.257 Y46.907
X73.188 Y46.74
X73.107 Y46.539
X73.084 Y46.438
X73.07 Y46.337
X73.056 Y46.202
X73.014 Y45.733
X73. Y45.532
Y40.991
G3 X74.2 Y41.018 R0.6
X74.199 Y41.033 R0.6
G1 X74.196 Y41.126 Z-0.993
X74.193 Y41.218 Z-0.971
X74.19 Y41.305 Z-0.935
X74.187 Y41.385 Z-0.885
X74.184 Y41.457 Z-0.824
X74.182 Y41.518 Z-0.753
X74.181 Y41.567 Z-0.672
X74.179 Y41.603 Z-0.585
Y41.625 Z-0.494
X74.178 Y41.632 Z-0.4
G0 Z15.

(2D ADAPTIVE5 4)
M7
G0 X46.162 Y-5.317
Z15.
Z5.
Z0.705
G1 Z0.105 F200.
X46.166 Y-5.311 Z0.011
X46.177 Y-5.292 Z-0.08
X46.196 Y-5.261 Z-0.167
X46.221 Y-5.218 Z-0.248
X46.252 Y-5.166 Z-0.319
X46.289 Y-5.104 Z-0.38
X46.33 Y-5.035 Z-0.43
X46.374 Y-4.961 Z-0.466
X46.421 Y-4.882 Z-0.488
X46.469 Y-4.801 Z-0.495
G3 X47. Y-2.993 R3.798
G1 Y-2.389 F500.
X46.993 Y-2.239
X46.842 Y-1.99
X46.625 Y-1.713
X46.324 Y-1.412
X45.917 Y-1.09
X45.367 Y-0.753
X44.61 Y-0.404
X43.767 Y-0.132
X42.902 Y0.063
X42.027 Y0.201
X41.146 Y0.299
X40.263 Y0.368
X39.378 Y0.416
X38.492 Y0.45
X37.606 Y0.474
X36.721 Y0.491
X35.834 Y0.502
X34.948 Y0.511
X34.062 Y0.516
X33.176 Y0.521
X31.404 Y0.525
X28.746 Y0.528
X21.657 Y0.53
X2.826
X2.617 Y0.603
X2.53 Y0.671
X1.884 Y1.277
X1.46 Y2.055
X1.173 Y2.894
X0.977 Y3.758
X0.841 Y4.634
X0.747 Y5.515
X0.682 Y6.398
X0.636 Y7.283
X0.604 Y8.169
X0.582 Y9.055
X0.566 Y9.941
X0.555 Y10.827
X0.548 Y11.713
X0.542 Y12.599
X0.539 Y13.485
X0.534 Y15.257
X0.531 Y17.916
X0.53 Y25.891
Y47.333
X0.497 Y47.539
X0.403 Y47.725
X0.255 Y47.873
X0.069 Y47.967
X-0.137 Y48.
G3 X-0.11 Y46.8 R0.6
X-0.095 Y46.801 R0.6
G1 X-0.001 Y46.804 Z-0.488
X0.091 Y46.807 Z-0.466
X0.177 Y46.81 Z-0.43
X0.258 Y46.813 Z-0.38
X0.329 Y46.816 Z-0.319
X0.39 Y46.818 Z-0.248
X0.439 Y46.819 Z-0.167
X0.475 Y46.821 Z-0.08
X0.497 Z0.011
X0.505 Y46.822 Z0.105
G0 Z5.
X46.162 Y-4.713
Z0.705
G1 Z0.105 F200.
X46.166 Y-4.706 Z0.011
X46.177 Y-4.688 Z-0.08
X46.196 Y-4.657 Z-0.167
X46.221 Y-4.614 Z-0.248
X46.252 Y-4.562 Z-0.319
X46.289 Y-4.5 Z-0.38
X46.33 Y-4.431 Z-0.43
X46.374 Y-4.356 Z-0.466
X46.421 Y-4.278 Z-0.488
X46.469 Y-4.197 Z-0.495
G3 X47. Y-2.389 R3.798
G1 Y-0.778 F500.
X46.995 Y-0.676
X46.959 Y-0.385
X46.885 Y-0.087
X46.758 Y0.247
X46.564 Y0.621
X46.308 Y0.995
X45.948 Y1.408
X45.493 Y1.818
X44.887 Y2.247
X44.108 Y2.669
X43.285 Y2.999
X42.437 Y3.253
X41.572 Y3.448
X40.698 Y3.596
X39.819 Y3.708
X38.937 Y3.791
X38.053 Y3.854
X37.168 Y3.9
X36.283 Y3.935
X35.397 Y3.96
X34.511 Y3.979
X33.625 Y3.993
X32.739 Y4.003
X31.853 Y4.01
X30.967 Y4.016
X30.081 Y4.02
X28.309 Y4.025
X25.65 Y4.028
X19.447 Y4.03
X7.042
X6.821 Y4.047
X6.407 Y4.204
X5.703 Y4.743
X5.216 Y5.483
X4.873 Y6.3
X4.631 Y7.152
X4.459 Y8.022
X4.337 Y8.899
X4.249 Y9.781
X4.187 Y10.665
X4.142 Y11.55
X4.11 Y12.436
X4.087 Y13.321
X4.071 Y14.207
X4.059 Y15.093
X4.051 Y15.979
X4.045 Y16.866
X4.041 Y17.752
X4.035 Y19.524
X4.032 Y22.182
X4.03 Y28.385
Y45.222
X4.001 Y46.107
X3.898 Y46.913
X3.737 Y47.557
X3.732 Y47.571
X3.633 Y47.745
X3.487 Y47.882
X3.307 Y47.97
X3.109 Y48.
X-0.137
G3 X-0.11 Y46.8 R0.6
X-0.095 Y46.801 R0.6
G1 X-0.001 Y46.804 Z-0.488
X0.091 Y46.807 Z-0.466
X0.177 Y46.81 Z-0.43
X0.258 Y46.813 Z-0.38
X0.329 Y46.816 Z-0.319
X0.39 Y46.818 Z-0.248
X0.439 Y46.819 Z-0.167
X0.475 Y46.821 Z-0.08
X0.497 Z0.011
X0.505 Y46.822 Z0.105
G0 Z5.
X46.162 Y-3.102
Z0.705
G1 Z0.105 F200.
X46.166 Y-3.096 Z0.011
X46.177 Y-3.077 Z-0.08
X46.196 Y-3.046 Z-0.167
X46.221 Y-3.004 Z-0.248
X46.252 Y-2.951 Z-0.319
X46.289 Y-2.889 Z-0.38
X46.33 Y-2.82 Z-0.43
X46.374 Y-2.746 Z-0.466
X46.421 Y-2.667 Z-0.488
X46.469 Y-2.586 Z-0.495
G3 X47. Y-0.778 R3.798
G1 Y1.84 F500.
X46.981 Y2.229
X46.921 Y2.576
X46.811 Y2.951
X46.641 Y3.344
X46.385 Y3.787
X46.054 Y4.228
X45.598 Y4.706
X45.007 Y5.193
X44.261 Y5.672
X43.465 Y6.061
X42.637 Y6.376
X41.787 Y6.627
X40.924 Y6.828
X40.052 Y6.986
X39.175 Y7.111
X38.294 Y7.208
X37.411 Y7.284
X36.527 Y7.342
X35.642 Y7.388
X34.756 Y7.422
X33.871 Y7.449
X32.985 Y7.469
X32.099 Y7.484
X31.213 Y7.496
X30.327 Y7.504
X29.441 Y7.511
X28.554 Y7.516
X26.782 Y7.522
X24.124 Y7.527
X19.693 Y7.529
X10.611 Y7.53
X10.177 Y7.619
X9.798 Y7.849
X9.149 Y8.453
X8.691 Y9.211
X8.364 Y10.035
X8.131 Y10.89
X7.963 Y11.76
X7.843 Y12.638
X7.756 Y13.52
X7.693 Y14.404
X7.648 Y15.289
X7.615 Y16.174
X7.592 Y17.06
X7.575 Y17.946
X7.562 Y18.832
X7.553 Y19.718
X7.547 Y20.604
X7.542 Y21.49
X7.536 Y23.263
X7.532 Y25.921
X7.53 Y31.238
Y42.757
X7.526 Y43.643
X7.507 Y44.529
X7.459 Y45.414
X7.364 Y46.295
X7.202 Y47.13
X7.072 Y47.537
X6.978 Y47.723
X6.83 Y47.872
X6.644 Y47.967
X6.437 Y48.
X3.109
G3 X3.136 Y46.8 R0.6
X3.15 Y46.801 R0.6
G1 X3.244 Y46.804 Z-0.488
X3.336 Y46.807 Z-0.466
X3.423 Y46.81 Z-0.43
X3.503 Y46.813 Z-0.38
X3.574 Y46.816 Z-0.319
X3.636 Y46.818 Z-0.248
X3.685 Y46.819 Z-0.167
X3.721 Y46.821 Z-0.08
X3.743 Z0.011
X3.75 Y46.822 Z0.105
G0 Z5.
X46.162 Y-0.485
Z0.705
G1 Z0.105 F200.
X46.166 Y-0.478 Z0.011
X46.177 Y-0.459 Z-0.08
X46.196 Y-0.428 Z-0.167
X46.221 Y-0.386 Z-0.248
X46.252 Y-0.334 Z-0.319
X46.289 Y-0.272 Z-0.38
X46.33 Y-0.203 Z-0.43
X46.374 Y-0.128 Z-0.466
X46.421 Y-0.05 Z-0.488
X46.469 Y0.031 Z-0.495
G3 X47. Y1.84 R3.798
G1 Y4.86 F500.
X46.978 Y5.296
X46.916 Y5.663
X46.803 Y6.045
X46.612 Y6.487
X46.354 Y6.933
X45.981 Y7.431
X45.506 Y7.928
X44.868 Y8.454
X44.123 Y8.933
X43.331 Y9.332
X42.508 Y9.661
X41.665 Y9.932
X40.806 Y10.152
X39.939 Y10.332
X39.064 Y10.476
X38.186 Y10.593
X37.305 Y10.686
X36.422 Y10.761
X35.538 Y10.82
X34.653 Y10.867
X33.767 Y10.903
X32.882 Y10.932
X31.996 Y10.955
X31.11 Y10.972
X30.224 Y10.986
X29.338 Y10.996
X28.452 Y11.004
X27.566 Y11.01
X26.68 Y11.015
X24.907 Y11.022
X22.249 Y11.026
X17.818 Y11.029
X14.274 Y11.03
X14.053 Y11.051
X13.631 Y11.185
X12.897 Y11.681
X12.373 Y12.396
X12. Y13.2
X11.732 Y14.044
X11.539 Y14.909
X11.399 Y15.784
X11.298 Y16.664
X11.225 Y17.547
X11.171 Y18.432
X11.133 Y19.317
X11.105 Y20.203
X11.084 Y21.089
X11.069 Y21.975
X11.059 Y22.861
X11.051 Y23.747
X11.045 Y24.633
X11.041 Y25.519
X11.036 Y27.291
X11.032 Y29.95
X11.03 Y35.267
Y40.583
X11.029 Y41.469
X11.023 Y42.356
X11.007 Y43.241
X10.973 Y44.127
X10.913 Y45.011
X10.819 Y45.892
X10.67 Y46.766
X10.468 Y47.501
X10.434 Y47.585
X10.334 Y47.754
X10.188 Y47.886
X10.011 Y47.971
X9.816 Y48.
X6.437
G3 X6.464 Y46.8 R0.6
X6.479 Y46.801 R0.6
G1 X6.573 Y46.804 Z-0.488
X6.664 Y46.807 Z-0.466
X6.751 Y46.81 Z-0.43
X6.831 Y46.813 Z-0.38
X6.903 Y46.816 Z-0.319
X6.964 Y46.818 Z-0.248
X7.013 Y46.819 Z-0.167
X7.049 Y46.821 Z-0.08
X7.071 Z0.011
X7.078 Y46.822 Z0.105
G0 Z5.
X46.162 Y2.536
Z0.705
G1 Z0.105 F200.
X46.166 Y2.542 Z0.011
X46.177 Y2.561 Z-0.08
X46.196 Y2.592 Z-0.167
X46.221 Y2.634 Z-0.248
X46.252 Y2.687 Z-0.319
X46.289 Y2.748 Z-0.38
X46.33 Y2.817 Z-0.43
X46.374 Y2.892 Z-0.466
X46.421 Y2.971 Z-0.488
X46.469 Y3.051 Z-0.495
G3 X47. Y4.86 R3.798
G1 Y8.081 F500.
X46.981 Y8.466
X46.915 Y8.851
X46.799 Y9.244
X46.604 Y9.697
X46.333 Y10.166
X45.944 Y10.684
X45.444 Y11.207
X44.772 Y11.762
X44.027 Y12.241
X43.238 Y12.644
X42.419 Y12.982
X41.579 Y13.264
X40.724 Y13.499
X39.86 Y13.693
X38.988 Y13.853
X38.112 Y13.984
X37.232 Y14.091
X36.35 Y14.179
X35.467 Y14.25
X34.583 Y14.308
X33.698 Y14.354
X32.813 Y14.391
X31.927 Y14.421
X31.041 Y14.444
X30.155 Y14.463
X29.269 Y14.478
X28.383 Y14.49
X27.497 Y14.499
X26.611 Y14.506
X25.725 Y14.511
X23.953 Y14.519
X22.18 Y14.524
X19.522 Y14.527
X17.75 Y14.528
X17.53 Y14.559
X17.113 Y14.707
X16.387 Y15.216
X15.869 Y15.935
X15.499 Y16.74
X15.232 Y17.585
X15.04 Y18.45
X14.9 Y19.325
X14.8 Y20.206
X14.726 Y21.089
X14.673 Y21.973
X14.634 Y22.858
X14.606 Y23.744
X14.585 Y24.63
X14.57 Y25.516
X14.559 Y26.402
X14.551 Y27.288
X14.546 Y28.174
X14.541 Y29.06
X14.536 Y30.833
X14.534 Y31.719
X14.531 Y35.263
X14.53 Y38.808
X14.529 Y39.694
X14.526 Y40.58
X14.518 Y41.466
X14.5 Y42.352
X14.47 Y43.238
X14.421 Y44.122
X14.345 Y45.005
X14.233 Y45.884
X14.076 Y46.756
X13.866 Y47.504
X13.831 Y47.588
X13.73 Y47.756
X13.586 Y47.888
X13.409 Y47.971
X13.215 Y48.
X9.816
G3 X9.843 Y46.8 R0.6
X9.858 Y46.801 R0.6
G1 X9.952 Y46.804 Z-0.488
X10.044 Y46.807 Z-0.466
X10.13 Y46.81 Z-0.43
X10.211 Y46.813 Z-0.38
X10.282 Y46.816 Z-0.319
X10.343 Y46.818 Z-0.248
X10.393 Y46.819 Z-0.167
X10.429 Y46.821 Z-0.08
X10.45 Z0.011
X10.458 Y46.822 Z0.105
G0 Z5.
X46.162 Y5.757
Z0.705
G1 Z0.105 F200.
X46.166 Y5.764 Z0.011
X46.177 Y5.782 Z-0.08
X46.196 Y5.813 Z-0.167
X46.221 Y5.856 Z-0.248
X46.252 Y5.908 Z-0.319
X46.289 Y5.97 Z-0.38
X46.33 Y6.039 Z-0.43
X46.374 Y6.114 Z-0.466
X46.421 Y6.192 Z-0.488
X46.469 Y6.273 Z-0.495
G3 X47. Y8.081 R3.798
G1 Y11.303 F500.
X46.979 Y11.713
X46.913 Y12.103
X46.793 Y12.508
X46.596 Y12.966
X46.316 Y13.451
X45.918 Y13.981
X45.401 Y14.522
X44.718 Y15.086
X43.973 Y15.566
X43.187 Y15.975
X42.371 Y16.32
X41.534 Y16.612
X40.683 Y16.858
X39.821 Y17.063
X38.952 Y17.235
X38.077 Y17.379
X37.199 Y17.498
X36.318 Y17.597
X35.436 Y17.679
X34.553 Y17.746
X33.668 Y17.801
X32.783 Y17.847
X31.898 Y17.883
X31.012 Y17.913
X30.126 Y17.937
X29.24 Y17.956
X28.355 Y17.972
X27.468 Y17.984
X26.582 Y17.994
X25.696 Y18.002
X24.81 Y18.008
X23.924 Y18.013
X22.152 Y18.02
X21.266 Y18.022
X21.046 Y18.053
X20.628 Y18.199
X19.901 Y18.705
X19.381 Y19.422
X19.008 Y20.226
X18.74 Y21.071
X18.546 Y21.935
X18.405 Y22.81
X18.303 Y23.691
X18.229 Y24.574
X18.175 Y25.458
X18.136 Y26.343
X18.107 Y27.229
X18.086 Y28.115
X18.071 Y29.001
X18.06 Y29.887
X18.052 Y30.773
X18.046 Y31.659
X18.042 Y32.545
X18.036 Y34.317
X18.031 Y37.862
X18.029 Y38.748
X18.024 Y39.634
X18.015 Y40.52
X17.999 Y41.406
X17.973 Y42.292
X17.932 Y43.177
X17.872 Y44.061
X17.786 Y44.943
X17.668 Y45.821
X17.508 Y46.693
X17.292 Y47.469
X17.244 Y47.587
X17.144 Y47.755
X16.998 Y47.887
X16.821 Y47.971
X16.627 Y48.
X13.215
G3 X13.242 Y46.8 R0.6
X13.257 Y46.801 R0.6
G1 X13.351 Y46.804 Z-0.488
X13.442 Y46.807 Z-0.466
X13.529 Y46.81 Z-0.43
X13.609 Y46.813 Z-0.38
X13.681 Y46.816 Z-0.319
X13.742 Y46.818 Z-0.248
X13.791 Y46.819 Z-0.167
X13.827 Y46.821 Z-0.08
X13.849 Z0.011
X13.857 Y46.822 Z0.105
G0 Z5.
X46.162 Y8.979
Z0.705
G1 Z0.105 F200.
X46.166 Y8.985 Z0.011
X46.177 Y9.004 Z-0.08
X46.196 Y9.035 Z-0.167
X46.221 Y9.077 Z-0.248
X46.252 Y9.13 Z-0.319
X46.289 Y9.191 Z-0.38
X46.33 Y9.26 Z-0.43
X46.374 Y9.335 Z-0.466
X46.421 Y9.414 Z-0.488
X46.469 Y9.494 Z-0.495
G3 X47. Y11.303 R3.798
G1 Y14.726 F500.
X46.986 Y14.999
X46.919 Y15.391
X46.797 Y15.806
X46.598 Y16.269
X46.311 Y16.765
X45.905 Y17.305
X45.376 Y17.86
X44.692 Y18.424
X43.949 Y18.907
X43.165 Y19.32
X42.352 Y19.672
X41.518 Y19.972
X40.669 Y20.226
X39.81 Y20.442
X38.943 Y20.624
X38.07 Y20.778
X37.193 Y20.907
X36.314 Y21.016
X35.432 Y21.107
X34.55 Y21.183
X33.666 Y21.247
X32.781 Y21.299
X31.896 Y21.343
X31.011 Y21.378
X30.125 Y21.408
X29.239 Y21.432
X28.353 Y21.451
X27.467 Y21.467
X26.581 Y21.48
X25.695 Y21.49
X24.809 Y21.498
X24.589 Y21.521
X24.167 Y21.655
X23.431 Y22.149
X22.903 Y22.861
X22.525 Y23.662
X22.253 Y24.506
X22.056 Y25.369
X21.913 Y26.244
X21.809 Y27.124
X21.734 Y28.007
X21.679 Y28.891
X21.638 Y29.777
X21.609 Y30.662
X21.588 Y31.548
X21.572 Y32.434
X21.561 Y33.32
X21.553 Y34.206
X21.546 Y35.092
X21.533 Y37.751
X21.527 Y38.637
X21.517 Y39.523
X21.503 Y40.409
X21.48 Y41.295
X21.446 Y42.18
X21.397 Y43.065
X21.33 Y43.948
X21.24 Y44.83
X21.12 Y45.708
X20.961 Y46.58
X20.74 Y47.402
X20.669 Y47.581
X20.569 Y47.752
X20.423 Y47.885
X20.245 Y47.971
X20.05 Y48.
X16.627
G3 X16.049 Y47.379 R0.6
X16.669 Y46.801 R0.6
G1 X16.763 Y46.804 Z-0.488
X16.854 Y46.807 Z-0.466
X16.941 Y46.81 Z-0.43
X17.022 Y46.813 Z-0.38
X17.093 Y46.816 Z-0.319
X17.154 Y46.818 Z-0.248
X17.203 Y46.819 Z-0.167
X17.239 Y46.821 Z-0.08
X17.261 Z0.011
X17.269 Y46.822 Z0.105
G0 Z5.
X46.162 Y12.402
Z0.705
G1 Z0.105 F200.
X46.166 Y12.408 Z0.011
X46.177 Y12.427 Z-0.08
X46.196 Y12.458 Z-0.167
X46.221 Y12.5 Z-0.248
X46.252 Y12.553 Z-0.319
X46.289 Y12.614 Z-0.38
X46.33 Y12.683 Z-0.43
X46.374 Y12.758 Z-0.466
X46.421 Y12.837 Z-0.488
X46.469 Y12.917 Z-0.495
G3 X47. Y14.726 R3.798
G1 Y17.947 F500.
X46.981 Y18.325
X46.914 Y18.72
X46.79 Y19.139
X46.589 Y19.607
X46.299 Y20.108
X45.887 Y20.657
X45.348 Y21.221
X44.664 Y21.785
X43.923 Y22.27
X43.14 Y22.686
X42.329 Y23.042
X41.497 Y23.348
X40.651 Y23.609
X39.793 Y23.833
X38.928 Y24.023
X38.056 Y24.185
X37.181 Y24.323
X36.303 Y24.439
X35.422 Y24.539
X34.54 Y24.622
X33.657 Y24.693
X32.773 Y24.752
X31.888 Y24.801
X31.003 Y24.843
X30.117 Y24.877
X29.232 Y24.905
X28.346 Y24.929
X28.125 Y24.948
X27.7 Y25.074
X26.958 Y25.558
X26.424 Y26.265
X26.041 Y27.064
X25.765 Y27.906
X25.565 Y28.77
X25.42 Y29.644
X25.314 Y30.524
X25.238 Y31.406
X25.182 Y32.291
X25.141 Y33.176
X25.111 Y34.062
X25.089 Y34.947
X25.072 Y35.833
X25.058 Y36.719
X25.032 Y38.491
X25.015 Y39.377
X24.993 Y40.263
X24.964 Y41.149
X24.923 Y42.034
X24.869 Y42.918
X24.797 Y43.802
X24.704 Y44.683
X24.584 Y45.561
X24.429 Y46.433
X24.21 Y47.292
X24.103 Y47.571
X24.004 Y47.745
X23.858 Y47.882
X23.678 Y47.97
X23.48 Y48.
X20.05
G3 X19.471 Y47.379 R0.6
X20.092 Y46.801 R0.6
G1 X20.185 Y46.804 Z-0.488
X20.277 Y46.807 Z-0.466
X20.364 Y46.81 Z-0.43
X20.444 Y46.813 Z-0.38
X20.516 Y46.816 Z-0.319
X20.577 Y46.818 Z-0.248
X20.626 Y46.819 Z-0.167
X20.662 Y46.821 Z-0.08
X20.684 Z0.011
X20.691 Y46.822 Z0.105
G0 Z5.
X46.162 Y15.623
Z0.705
G1 Z0.105 F200.
X46.166 Y15.629 Z0.011
X46.177 Y15.648 Z-0.08
X46.196 Y15.679 Z-0.167
X46.221 Y15.722 Z-0.248
X46.252 Y15.774 Z-0.319
X46.289 Y15.836 Z-0.38
X46.33 Y15.905 Z-0.43
X46.374 Y15.979 Z-0.466
X46.421 Y16.058 Z-0.488
X46.469 Y16.139 Z-0.495
G3 X47. Y17.947 R3.798
G1 Y21.37 F500.
X46.985 Y21.667
X46.918 Y22.063
X46.792 Y22.487
X46.59 Y22.958
X46.296 Y23.466
X45.879 Y24.021
X45.332 Y24.594
X44.649 Y25.158
X43.908 Y25.644
X43.127 Y26.063
X42.317 Y26.423
X41.488 Y26.734
X40.643 Y27.001
X39.787 Y27.231
X38.923 Y27.428
X38.053 Y27.597
X37.179 Y27.742
X36.301 Y27.866
X35.422 Y27.972
X34.54 Y28.062
X33.657 Y28.139
X32.774 Y28.204
X31.889 Y28.259
X31.448 Y28.302
X31.048 Y28.493
X30.352 Y29.04
X29.851 Y29.771
X29.49 Y30.58
X29.229 Y31.427
X29.039 Y32.293
X28.902 Y33.168
X28.801 Y34.049
X28.727 Y34.932
X28.671 Y35.816
X28.628 Y36.701
X28.592 Y37.586
X28.529 Y39.358
X28.494 Y40.243
X28.453 Y41.128
X28.403 Y42.013
X28.34 Y42.897
X28.262 Y43.779
X28.163 Y44.66
X28.037 Y45.537
X27.878 Y46.409
X27.657 Y47.267
X27.542 Y47.57
X27.443 Y47.745
X27.297 Y47.882
X27.117 Y47.97
X26.919 Y48.
X23.48
G3 X22.901 Y47.379 R0.6
X23.522 Y46.801 R0.6
G1 X23.616 Y46.804 Z-0.488
X23.707 Y46.807 Z-0.466
X23.794 Y46.81 Z-0.43
X23.874 Y46.813 Z-0.38
X23.946 Y46.816 Z-0.319
X24.007 Y46.818 Z-0.248
X24.056 Y46.819 Z-0.167
X24.092 Y46.821 Z-0.08
X24.114 Z0.011
X24.122 Y46.822 Z0.105
G0 Z5.
X46.162 Y19.046
Z0.705
G1 Z0.105 F200.
X46.166 Y19.052 Z0.011
X46.177 Y19.071 Z-0.08
X46.196 Y19.102 Z-0.167
X46.221 Y19.145 Z-0.248
X46.252 Y19.197 Z-0.319
X46.289 Y19.259 Z-0.38
X46.33 Y19.328 Z-0.43
X46.374 Y19.402 Z-0.466
X46.421 Y19.481 Z-0.488
X46.469 Y19.562 Z-0.495
G3 X47. Y21.37 R3.798
G1 Y24.592 F500.
X46.978 Y25.035
X46.91 Y25.432
X46.784 Y25.859
X46.58 Y26.333
X46.285 Y26.843
X45.864 Y27.404
X45.311 Y27.983
X44.627 Y28.547
X43.887 Y29.034
X43.107 Y29.455
X42.299 Y29.818
X41.471 Y30.133
X40.627 Y30.404
X39.773 Y30.639
X38.91 Y30.841
X38.041 Y31.016
X37.168 Y31.167
X36.292 Y31.297
X35.413 Y31.408
X34.975 Y31.48
X34.578 Y31.675
X33.882 Y32.225
X33.377 Y32.952
X33.011 Y33.76
X32.745 Y34.605
X32.549 Y35.469
X32.403 Y36.343
X32.292 Y37.222
X32.204 Y38.104
X32.131 Y38.987
X32.065 Y39.871
X32.002 Y40.754
X31.936 Y41.638
X31.863 Y42.521
X31.779 Y43.403
X31.68 Y44.284
X31.56 Y45.162
X31.411 Y46.035
X31.216 Y46.9
X31.01 Y47.538
X30.915 Y47.724
X30.768 Y47.872
X30.582 Y47.967
X30.376 Y48.
X26.919
G3 X26.34 Y47.379 R0.6
X26.961 Y46.801 R0.6
G1 X27.055 Y46.804 Z-0.488
X27.146 Y46.807 Z-0.466
X27.233 Y46.81 Z-0.43
X27.313 Y46.813 Z-0.38
X27.385 Y46.816 Z-0.319
X27.446 Y46.818 Z-0.248
X27.495 Y46.819 Z-0.167
X27.531 Y46.821 Z-0.08
X27.553 Z0.011
X27.56 Y46.822 Z0.105
G0 Z5.
X46.162 Y22.268
Z0.705
G1 Z0.105 F200.
X46.166 Y22.274 Z0.011
X46.177 Y22.293 Z-0.08
X46.196 Y22.324 Z-0.167
X46.221 Y22.366 Z-0.248
X46.252 Y22.419 Z-0.319
X46.289 Y22.48 Z-0.38
X46.33 Y22.549 Z-0.43
X46.374 Y22.624 Z-0.466
X46.421 Y22.703 Z-0.488
X46.469 Y22.783 Z-0.495
G3 X47. Y24.592 R3.798
G1 Y28.015 F500.
X46.98 Y28.409
X46.912 Y28.807
X46.785 Y29.238
X46.58 Y29.714
X46.282 Y30.229
X45.859 Y30.793
X45.3 Y31.379
X44.616 Y31.942
X43.877 Y32.431
X43.098 Y32.853
X42.291 Y33.22
X41.464 Y33.537
X40.621 Y33.813
X39.768 Y34.052
X38.907 Y34.259
X38.481 Y34.382
X38.093 Y34.595
X37.407 Y35.157
X36.901 Y35.884
X36.525 Y36.686
X36.244 Y37.527
X36.03 Y38.387
X35.862 Y39.257
X35.724 Y40.132
X35.605 Y41.01
X35.496 Y41.89
X35.389 Y42.769
X35.278 Y43.648
X35.155 Y44.526
X35.013 Y45.401
X34.84 Y46.27
X34.622 Y47.128
X34.464 Y47.561
X34.367 Y47.739
X34.22 Y47.879
X34.038 Y47.969
X33.838 Y48.
X30.376
G3 X29.797 Y47.379 R0.6
X30.417 Y46.801 R0.6
G1 X30.511 Y46.804 Z-0.488
X30.603 Y46.807 Z-0.466
X30.69 Y46.81 Z-0.43
X30.77 Y46.813 Z-0.38
X30.841 Y46.816 Z-0.319
X30.903 Y46.818 Z-0.248
X30.952 Y46.819 Z-0.167
X30.988 Y46.821 Z-0.08
X31.01 Z0.011
X31.017 Y46.822 Z0.105
G0 Z5.
X46.162 Y25.69
Z0.705
G1 Z0.105 F200.
X46.166 Y25.697 Z0.011
X46.177 Y25.716 Z-0.08
X46.196 Y25.747 Z-0.167
X46.221 Y25.789 Z-0.248
X46.252 Y25.841 Z-0.319
X46.289 Y25.903 Z-0.38
X46.33 Y25.972 Z-0.43
X46.374 Y26.047 Z-0.466
X46.421 Y26.125 Z-0.488
X46.469 Y26.206 Z-0.495
G3 X47. Y28.015 R3.798
G1 Y31.438 F500.
X46.982 Y31.797
X46.914 Y32.196
X46.786 Y32.629
X46.58 Y33.107
X46.281 Y33.625
X45.854 Y34.193
X45.29 Y34.783
X44.607 Y35.347
X43.868 Y35.836
X43.09 Y36.26
X42.284 Y36.629
X41.499 Y37.039
X40.864 Y37.658
X40.373 Y38.395
X39.993 Y39.196
X39.695 Y40.031
X39.456 Y40.884
X39.256 Y41.747
X39.081 Y42.616
X38.918 Y43.487
X38.758 Y44.358
X38.59 Y45.228
X38.406 Y46.095
X38.184 Y46.953
X37.974 Y47.553
X37.878 Y47.734
X37.731 Y47.877
X37.547 Y47.969
X37.345 Y48.
X33.838
G3 X33.865 Y46.8 R0.6
X33.88 Y46.801 R0.6
G1 X33.973 Y46.804 Z-0.488
X34.065 Y46.807 Z-0.466
X34.152 Y46.81 Z-0.43
X34.232 Y46.813 Z-0.38
X34.304 Y46.816 Z-0.319
X34.365 Y46.818 Z-0.248
X34.414 Y46.819 Z-0.167
X34.45 Y46.821 Z-0.08
X34.472 Z0.011
X34.479 Y46.822 Z0.105
G0 Z5.
X46.162 Y29.113
Z0.705
G1 Z0.105 F200.
X46.166 Y29.12 Z0.011
X46.177 Y29.139 Z-0.08
X46.196 Y29.17 Z-0.167
X46.221 Y29.212 Z-0.248
X46.252 Y29.264 Z-0.319
X46.289 Y29.326 Z-0.38
X46.33 Y29.395 Z-0.43
X46.374 Y29.47 Z-0.466
X46.421 Y29.548 Z-0.488
X46.469 Y29.629 Z-0.495
G3 X47. Y31.438 R3.798
G1 Y34.86 F500.
X46.983 Y35.195
X46.915 Y35.594
X46.786 Y36.03
X46.58 Y36.509
X46.279 Y37.029
X45.836 Y37.62
X45.224 Y38.261
X44.631 Y38.92
X44.122 Y39.645
X43.7 Y40.425
X43.351 Y41.239
X43.057 Y42.075
X42.804 Y42.924
X42.577 Y43.781
X42.152 Y45.501
X41.926 Y46.358
X41.666 Y47.205
X41.513 Y47.584
X41.413 Y47.753
X41.267 Y47.886
X41.09 Y47.971
X40.895 Y48.
X37.345
G3 X36.879 Y47.049 R0.6
G1 X37.224 Y46.572
X45.682 Y34.851
X45.914 Y34.53 F200.
G3 X47. Y34.86 R0.6
G1 Y38.686 F500.
X46.956 Y39.571
X46.85 Y40.451
X46.692 Y41.323
X46.509 Y42.19
X46.315 Y43.055
X46.116 Y43.918
X45.91 Y44.78
X45.695 Y45.639
X45.462 Y46.494
X45.187 Y47.337
X45.075 Y47.598
X44.973 Y47.762
X44.829 Y47.89
X44.654 Y47.972
X44.463 Y48.
G3 X43.898 Y47.271 R0.6
G1 X44.077 Y46.458
X45.782 Y38.725
X45.814 Y38.578 F200.
G3 X47. Y38.686 R0.6
G1 Y45.532 F500.
X46.986 Y45.733
X46.944 Y46.202
X46.93 Y46.337
X46.916 Y46.438
X46.893 Y46.539
X46.812 Y46.74
X46.743 Y46.907
X46.727 Y46.941
X46.701 Y46.992
X46.667 Y47.042
X46.435 Y47.344
X46.388 Y47.396
X46.34 Y47.439
X46.038 Y47.67
X45.937 Y47.729
X45.898 Y47.747
X45.736 Y47.814
X45.535 Y47.894
X45.434 Y47.917
X45.132 Y47.957
X44.931 Y47.98
X44.729 Y48.
X40.895
G3 X40.423 Y47.059 R0.6
G1 X40.475 Y47.007 Z-0.49
X40.527 Y46.955 Z-0.477
X40.576 Y46.906 Z-0.454
X40.649 Y46.873 Z-0.416
X40.715 Y46.844 Z-0.366
X40.775 Y46.817 Z-0.307
X40.821 Y46.812 Z-0.25
X40.861 Y46.807 Z-0.188
X40.893 Y46.803 Z-0.122
X40.916 Y46.8 Z-0.052
X40.922 Z-0.028
X40.933 Y46.801 Z0.038
X40.937 Z0.105
G0 Z5.
X46.162 Y-5.317
Z0.2
G1 Z-0.4 F200.
X46.166 Y-5.311 Z-0.494
X46.177 Y-5.292 Z-0.585
X46.196 Y-5.261 Z-0.672
X46.221 Y-5.218 Z-0.753
X46.252 Y-5.166 Z-0.824
X46.289 Y-5.104 Z-0.885
X46.33 Y-5.035 Z-0.935
X46.374 Y-4.961 Z-0.971
X46.421 Y-4.882 Z-0.993
X46.469 Y-4.801 Z-1.
G3 X47. Y-2.993 R3.798
G1 Y-2.389 F500.
X46.993 Y-2.239
X46.842 Y-1.99
X46.625 Y-1.713
X46.324 Y-1.412
X45.917 Y-1.09
X45.367 Y-0.753
X44.61 Y-0.404
X43.767 Y-0.132
X42.902 Y0.063
X42.027 Y0.201
X41.146 Y0.299
X40.263 Y0.368
X39.378 Y0.416
X38.492 Y0.45
X37.606 Y0.474
X36.721 Y0.491
X35.834 Y0.502
X34.948 Y0.511
X34.062 Y0.516
X33.176 Y0.521
X31.404 Y0.525
X28.746 Y0.528
X21.657 Y0.53
X2.826
X2.617 Y0.603
X2.53 Y0.671
X1.884 Y1.277
X1.46 Y2.055
X1.173 Y2.894
X0.977 Y3.758
X0.841 Y4.634
X0.747 Y5.515
X0.682 Y6.398
X0.636 Y7.283
X0.604 Y8.169
X0.582 Y9.055
X0.566 Y9.941
X0.555 Y10.827
X0.548 Y11.713
X0.542 Y12.599
X0.539 Y13.485
X0.534 Y15.257
X0.531 Y17.916
X0.53 Y25.891
Y47.333
X0.497 Y47.539
X0.403 Y47.725
X0.255 Y47.873
X0.069 Y47.967
X-0.137 Y48.
G3 X-0.11 Y46.8 R0.6
X-0.095 Y46.801 R0.6
G1 X-0.001 Y46.804 Z-0.993
X0.091 Y46.807 Z-0.971
X0.177 Y46.81 Z-0.935
X0.258 Y46.813 Z-0.885
X0.329 Y46.816 Z-0.824
X0.39 Y46.818 Z-0.753
X0.439 Y46.819 Z-0.672
X0.475 Y46.821 Z-0.585
X0.497 Z-0.494
X0.505 Y46.822 Z-0.4
G0 Z5.
X46.162 Y-4.713
Z0.2
G1 Z-0.4 F200.
X46.166 Y-4.706 Z-0.494
X46.177 Y-4.688 Z-0.585
X46.196 Y-4.657 Z-0.672
X46.221 Y-4.614 Z-0.753
X46.252 Y-4.562 Z-0.824
X46.289 Y-4.5 Z-0.885
X46.33 Y-4.431 Z-0.935
X46.374 Y-4.356 Z-0.971
X46.421 Y-4.278 Z-0.993
X46.469 Y-4.197 Z-1.
G3 X47. Y-2.389 R3.798
G1 Y-0.778 F500.
X46.995 Y-0.676
X46.959 Y-0.385
X46.885 Y-0.087
X46.758 Y0.247
X46.564 Y0.621
X46.308 Y0.995
X45.948 Y1.408
X45.493 Y1.818
X44.887 Y2.247
X44.108 Y2.669
X43.285 Y2.999
X42.437 Y3.253
X41.572 Y3.448
X40.698 Y3.596
X39.819 Y3.708
X38.937 Y3.791
X38.053 Y3.854
X37.168 Y3.9
X36.283 Y3.935
X35.397 Y3.96
X34.511 Y3.979
X33.625 Y3.993
X32.739 Y4.003
X31.853 Y4.01
X30.967 Y4.016
X30.081 Y4.02
X28.309 Y4.025
X25.65 Y4.028
X19.447 Y4.03
X7.042
X6.821 Y4.047
X6.407 Y4.204
X5.703 Y4.743
X5.216 Y5.483
X4.873 Y6.3
X4.631 Y7.152
X4.459 Y8.022
X4.337 Y8.899
X4.249 Y9.781
X4.187 Y10.665
X4.142 Y11.55
X4.11 Y12.436
X4.087 Y13.321
X4.071 Y14.207
X4.059 Y15.093
X4.051 Y15.979
X4.045 Y16.866
X4.041 Y17.752
X4.035 Y19.524
X4.032 Y22.182
X4.03 Y28.385
Y45.222
X4.001 Y46.107
X3.898 Y46.913
X3.737 Y47.557
X3.732 Y47.571
X3.633 Y47.745
X3.487 Y47.882
X3.307 Y47.97
X3.109 Y48.
X-0.137
G3 X-0.11 Y46.8 R0.6
X-0.095 Y46.801 R0.6
G1 X-0.001 Y46.804 Z-0.993
X0.091 Y46.807 Z-0.971
X0.177 Y46.81 Z-0.935
X0.258 Y46.813 Z-0.885
X0.329 Y46.816 Z-0.824
X0.39 Y46.818 Z-0.753
X0.439 Y46.819 Z-0.672
X0.475 Y46.821 Z-0.585
X0.497 Z-0.494
X0.505 Y46.822 Z-0.4
G0 Z5.
X46.162 Y-3.102
Z0.2
G1 Z-0.4 F200.
X46.166 Y-3.096 Z-0.494
X46.177 Y-3.077 Z-0.585
X46.196 Y-3.046 Z-0.672
X46.221 Y-3.004 Z-0.753
X46.252 Y-2.951 Z-0.824
X46.289 Y-2.889 Z-0.885
X46.33 Y-2.82 Z-0.935
X46.374 Y-2.746 Z-0.971
X46.421 Y-2.667 Z-0.993
X46.469 Y-2.586 Z-1.
G3 X47. Y-0.778 R3.798
G1 Y1.84 F500.
X46.981 Y2.229
X46.921 Y2.576
X46.811 Y2.951
X46.641 Y3.344
X46.385 Y3.787
X46.054 Y4.228
X45.598 Y4.706
X45.007 Y5.193
X44.261 Y5.672
X43.465 Y6.061
X42.637 Y6.376
X41.787 Y6.627
X40.924 Y6.828
X40.052 Y6.986
X39.175 Y7.111
X38.294 Y7.208
X37.411 Y7.284
X36.527 Y7.342
X35.642 Y7.388
X34.756 Y7.422
X33.871 Y7.449
X32.985 Y7.469
X32.099 Y7.484
X31.213 Y7.496
X30.327 Y7.504
X29.441 Y7.511
X28.554 Y7.516
X26.782 Y7.522
X24.124 Y7.527
X19.693 Y7.529
X10.611 Y7.53
X10.177 Y7.619
X9.798 Y7.849
X9.149 Y8.453
X8.691 Y9.211
X8.364 Y10.035
X8.131 Y10.89
X7.963 Y11.76
X7.843 Y12.638
X7.756 Y13.52
X7.693 Y14.404
X7.648 Y15.289
X7.615 Y16.174
X7.592 Y17.06
X7.575 Y17.946
X7.562 Y18.832
X7.553 Y19.718
X7.547 Y20.604
X7.542 Y21.49
X7.536 Y23.263
X7.532 Y25.921
X7.53 Y31.238
Y42.757
X7.526 Y43.643
X7.507 Y44.529
X7.459 Y45.414
X7.364 Y46.295
X7.202 Y47.13
X7.072 Y47.537
X6.978 Y47.723
X6.83 Y47.872
X6.644 Y47.967
X6.437 Y48.
X3.109
G3 X3.136 Y46.8 R0.6
X3.15 Y46.801 R0.6
G1 X3.244 Y46.804 Z-0.993
X3.336 Y46.807 Z-0.971
X3.423 Y46.81 Z-0.935
X3.503 Y46.813 Z-0.885
X3.574 Y46.816 Z-0.824
X3.636 Y46.818 Z-0.753
X3.685 Y46.819 Z-0.672
X3.721 Y46.821 Z-0.585
X3.743 Z-0.494
X3.75 Y46.822 Z-0.4
G0 Z5.
X46.162 Y-0.485
Z0.2
G1 Z-0.4 F200.
X46.166 Y-0.478 Z-0.494
X46.177 Y-0.459 Z-0.585
X46.196 Y-0.428 Z-0.672
X46.221 Y-0.386 Z-0.753
X46.252 Y-0.334 Z-0.824
X46.289 Y-0.272 Z-0.885
X46.33 Y-0.203 Z-0.935
X46.374 Y-0.128 Z-0.971
X46.421 Y-0.05 Z-0.993
X46.469 Y0.031 Z-1.
G3 X47. Y1.84 R3.798
G1 Y4.86 F500.
X46.978 Y5.296
X46.916 Y5.663
X46.803 Y6.045
X46.612 Y6.487
X46.354 Y6.933
X45.981 Y7.431
X45.506 Y7.928
X44.868 Y8.454
X44.123 Y8.933
X43.331 Y9.332
X42.508 Y9.661
X41.665 Y9.932
X40.806 Y10.152
X39.939 Y10.332
X39.064 Y10.476
X38.186 Y10.593
X37.305 Y10.686
X36.422 Y10.761
X35.538 Y10.82
X34.653 Y10.867
X33.767 Y10.903
X32.882 Y10.932
X31.996 Y10.955
X31.11 Y10.972
X30.224 Y10.986
X29.338 Y10.996
X28.452 Y11.004
X27.566 Y11.01
X26.68 Y11.015
X24.907 Y11.022
X22.249 Y11.026
X17.818 Y11.029
X14.274 Y11.03
X14.053 Y11.051
X13.631 Y11.185
X12.897 Y11.681
X12.373 Y12.396
X12. Y13.2
X11.732 Y14.044
X11.539 Y14.909
X11.399 Y15.784
X11.298 Y16.664
X11.225 Y17.547
X11.171 Y18.432
X11.133 Y19.317
X11.105 Y20.203
X11.084 Y21.089
X11.069 Y21.975
X11.059 Y22.861
X11.051 Y23.747
X11.045 Y24.633
X11.041 Y25.519
X11.036 Y27.291
X11.032 Y29.95
X11.03 Y35.267
Y40.583
X11.029 Y41.469
X11.023 Y42.356
X11.007 Y43.241
X10.973 Y44.127
X10.913 Y45.011
X10.819 Y45.892
X10.67 Y46.766
X10.468 Y47.501
X10.434 Y47.585
X10.334 Y47.754
X10.188 Y47.886
X10.011 Y47.971
X9.816 Y48.
X6.437
G3 X6.464 Y46.8 R0.6
X6.479 Y46.801 R0.6
G1 X6.573 Y46.804 Z-0.993
X6.664 Y46.807 Z-0.971
X6.751 Y46.81 Z-0.935
X6.831 Y46.813 Z-0.885
X6.903 Y46.816 Z-0.824
X6.964 Y46.818 Z-0.753
X7.013 Y46.819 Z-0.672
X7.049 Y46.821 Z-0.585
X7.071 Z-0.494
X7.078 Y46.822 Z-0.4
G0 Z5.
X46.162 Y2.536
Z0.2
G1 Z-0.4 F200.
X46.166 Y2.542 Z-0.494
X46.177 Y2.561 Z-0.585
X46.196 Y2.592 Z-0.672
X46.221 Y2.634 Z-0.753
X46.252 Y2.687 Z-0.824
X46.289 Y2.748 Z-0.885
X46.33 Y2.817 Z-0.935
X46.374 Y2.892 Z-0.971
X46.421 Y2.971 Z-0.993
X46.469 Y3.051 Z-1.
G3 X47. Y4.86 R3.798
G1 Y8.081 F500.
X46.981 Y8.466
X46.915 Y8.851
X46.799 Y9.244
X46.604 Y9.697
X46.333 Y10.166
X45.944 Y10.684
X45.444 Y11.207
X44.772 Y11.762
X44.027 Y12.241
X43.238 Y12.644
X42.419 Y12.982
X41.579 Y13.264
X40.724 Y13.499
X39.86 Y13.693
X38.988 Y13.853
X38.112 Y13.984
X37.232 Y14.091
X36.35 Y14.179
X35.467 Y14.25
X34.583 Y14.308
X33.698 Y14.354
X32.813 Y14.391
X31.927 Y14.421
X31.041 Y14.444
X30.155 Y14.463
X29.269 Y14.478
X28.383 Y14.49
X27.497 Y14.499
X26.611 Y14.506
X25.725 Y14.511
X23.953 Y14.519
X22.18 Y14.524
X19.522 Y14.527
X17.75 Y14.528
X17.53 Y14.559
X17.113 Y14.707
X16.387 Y15.216
X15.869 Y15.935
X15.499 Y16.74
X15.232 Y17.585
X15.04 Y18.45
X14.9 Y19.325
X14.8 Y20.206
X14.726 Y21.089
X14.673 Y21.973
X14.634 Y22.858
X14.606 Y23.744
X14.585 Y24.63
X14.57 Y25.516
X14.559 Y26.402
X14.551 Y27.288
X14.546 Y28.174
X14.541 Y29.06
X14.536 Y30.833
X14.534 Y31.719
X14.531 Y35.263
X14.53 Y38.808
X14.529 Y39.694
X14.526 Y40.58
X14.518 Y41.466
X14.5 Y42.352
X14.47 Y43.238
X14.421 Y44.122
X14.345 Y45.005
X14.233 Y45.884
X14.076 Y46.756
X13.866 Y47.504
X13.831 Y47.588
X13.73 Y47.756
X13.586 Y47.888
X13.409 Y47.971
X13.215 Y48.
X9.816
G3 X9.843 Y46.8 R0.6
X9.858 Y46.801 R0.6
G1 X9.952 Y46.804 Z-0.993
X10.044 Y46.807 Z-0.971
X10.13 Y46.81 Z-0.935
X10.211 Y46.813 Z-0.885
X10.282 Y46.816 Z-0.824
X10.343 Y46.818 Z-0.753
X10.393 Y46.819 Z-0.672
X10.429 Y46.821 Z-0.585
X10.45 Z-0.494
X10.458 Y46.822 Z-0.4
G0 Z5.
X46.162 Y5.757
Z0.2
G1 Z-0.4 F200.
X46.166 Y5.764 Z-0.494
X46.177 Y5.782 Z-0.585
X46.196 Y5.813 Z-0.672
X46.221 Y5.856 Z-0.753
X46.252 Y5.908 Z-0.824
X46.289 Y5.97 Z-0.885
X46.33 Y6.039 Z-0.935
X46.374 Y6.114 Z-0.971
X46.421 Y6.192 Z-0.993
X46.469 Y6.273 Z-1.
G3 X47. Y8.081 R3.798
G1 Y11.303 F500.
X46.979 Y11.713
X46.913 Y12.103
X46.793 Y12.508
X46.596 Y12.966
X46.316 Y13.451
X45.918 Y13.981
X45.401 Y14.522
X44.718 Y15.086
X43.973 Y15.566
X43.187 Y15.975
X42.371 Y16.32
X41.534 Y16.612
X40.683 Y16.858
X39.821 Y17.063
X38.952 Y17.235
X38.077 Y17.379
X37.199 Y17.498
X36.318 Y17.597
X35.436 Y17.679
X34.553 Y17.746
X33.668 Y17.801
X32.783 Y17.847
X31.898 Y17.883
X31.012 Y17.913
X30.126 Y17.937
X29.24 Y17.956
X28.355 Y17.972
X27.468 Y17.984
X26.582 Y17.994
X25.696 Y18.002
X24.81 Y18.008
X23.924 Y18.013
X22.152 Y18.02
X21.266 Y18.022
X21.046 Y18.053
X20.628 Y18.199
X19.901 Y18.705
X19.381 Y19.422
X19.008 Y20.226
X18.74 Y21.071
X18.546 Y21.935
X18.405 Y22.81
X18.303 Y23.691
X18.229 Y24.574
X18.175 Y25.458
X18.136 Y26.343
X18.107 Y27.229
X18.086 Y28.115
X18.071 Y29.001
X18.06 Y29.887
X18.052 Y30.773
X18.046 Y31.659
X18.042 Y32.545
X18.036 Y34.317
X18.031 Y37.862
X18.029 Y38.748
X18.024 Y39.634
X18.015 Y40.52
X17.999 Y41.406
X17.973 Y42.292
X17.932 Y43.177
X17.872 Y44.061
X17.786 Y44.943
X17.668 Y45.821
X17.508 Y46.693
X17.292 Y47.469
X17.244 Y47.587
X17.144 Y47.755
X16.998 Y47.887
X16.821 Y47.971
X16.627 Y48.
X13.215
G3 X13.242 Y46.8 R0.6
X13.257 Y46.801 R0.6
G1 X13.351 Y46.804 Z-0.993
X13.442 Y46.807 Z-0.971
X13.529 Y46.81 Z-0.935
X13.609 Y46.813 Z-0.885
X13.681 Y46.816 Z-0.824
X13.742 Y46.818 Z-0.753
X13.791 Y46.819 Z-0.672
X13.827 Y46.821 Z-0.585
X13.849 Z-0.494
X13.857 Y46.822 Z-0.4
G0 Z5.
X46.162 Y8.979
Z0.2
G1 Z-0.4 F200.
X46.166 Y8.985 Z-0.494
X46.177 Y9.004 Z-0.585
X46.196 Y9.035 Z-0.672
X46.221 Y9.077 Z-0.753
X46.252 Y9.13 Z-0.824
X46.289 Y9.191 Z-0.885
X46.33 Y9.26 Z-0.935
X46.374 Y9.335 Z-0.971
X46.421 Y9.414 Z-0.993
X46.469 Y9.494 Z-1.
G3 X47. Y11.303 R3.798
G1 Y14.726 F500.
X46.986 Y14.999
X46.919 Y15.391
X46.797 Y15.806
X46.598 Y16.269
X46.311 Y16.765
X45.905 Y17.305
X45.376 Y17.86
X44.692 Y18.424
X43.949 Y18.907
X43.165 Y19.32
X42.352 Y19.672
X41.518 Y19.972
X40.669 Y20.226
X39.81 Y20.442
X38.943 Y20.624
X38.07 Y20.778
X37.193 Y20.907
X36.314 Y21.016
X35.432 Y21.107
X34.55 Y21.183
X33.666 Y21.247
X32.781 Y21.299
X31.896 Y21.343
X31.011 Y21.378
X30.125 Y21.408
X29.239 Y21.432
X28.353 Y21.451
X27.467 Y21.467
X26.581 Y21.48
X25.695 Y21.49
X24.809 Y21.498
X24.589 Y21.521
X24.167 Y21.655
X23.431 Y22.149
X22.903 Y22.861
X22.525 Y23.662
X22.253 Y24.506
X22.056 Y25.369
X21.913 Y26.244
X21.809 Y27.124
X21.734 Y28.007
X21.679 Y28.891
X21.638 Y29.777
X21.609 Y30.662
X21.588 Y31.548
X21.572 Y32.434
X21.561 Y33.32
X21.553 Y34.206
X21.546 Y35.092
X21.533 Y37.751
X21.527 Y38.637
X21.517 Y39.523
X21.503 Y40.409
X21.48 Y41.295
X21.446 Y42.18
X21.397 Y43.065
X21.33 Y43.948
X21.24 Y44.83
X21.12 Y45.708
X20.961 Y46.58
X20.74 Y47.402
X20.669 Y47.581
X20.569 Y47.752
X20.423 Y47.885
X20.245 Y47.971
X20.05 Y48.
X16.627
G3 X16.049 Y47.379 R0.6
X16.669 Y46.801 R0.6
G1 X16.763 Y46.804 Z-0.993
X16.854 Y46.807 Z-0.971
X16.941 Y46.81 Z-0.935
X17.022 Y46.813 Z-0.885
X17.093 Y46.816 Z-0.824
X17.154 Y46.818 Z-0.753
X17.203 Y46.819 Z-0.672
X17.239 Y46.821 Z-0.585
X17.261 Z-0.494
X17.269 Y46.822 Z-0.4
G0 Z5.
X46.162 Y12.402
Z0.2
G1 Z-0.4 F200.
X46.166 Y12.408 Z-0.494
X46.177 Y12.427 Z-0.585
X46.196 Y12.458 Z-0.672
X46.221 Y12.5 Z-0.753
X46.252 Y12.553 Z-0.824
X46.289 Y12.614 Z-0.885
X46.33 Y12.683 Z-0.935
X46.374 Y12.758 Z-0.971
X46.421 Y12.837 Z-0.993
X46.469 Y12.917 Z-1.
G3 X47. Y14.726 R3.798
G1 Y17.947 F500.
X46.981 Y18.325
X46.914 Y18.72
X46.79 Y19.139
X46.589 Y19.607
X46.299 Y20.108
X45.887 Y20.657
X45.348 Y21.221
X44.664 Y21.785
X43.923 Y22.27
X43.14 Y22.686
X42.329 Y23.042
X41.497 Y23.348
X40.651 Y23.609
X39.793 Y23.833
X38.928 Y24.023
X38.056 Y24.185
X37.181 Y24.323
X36.303 Y24.439
X35.422 Y24.539
X34.54 Y24.622
X33.657 Y24.693
X32.773 Y24.752
X31.888 Y24.801
X31.003 Y24.843
X30.117 Y24.877
X29.232 Y24.905
X28.346 Y24.929
X28.125 Y24.948
X27.7 Y25.074
X26.958 Y25.558
X26.424 Y26.265
X26.041 Y27.064
X25.765 Y27.906
X25.565 Y28.77
X25.42 Y29.644
X25.314 Y30.524
X25.238 Y31.406
X25.182 Y32.291
X25.141 Y33.176
X25.111 Y34.062
X25.089 Y34.947
X25.072 Y35.833
X25.058 Y36.719
X25.032 Y38.491
X25.015 Y39.377
X24.993 Y40.263
X24.964 Y41.149
X24.923 Y42.034
X24.869 Y42.918
X24.797 Y43.802
X24.704 Y44.683
X24.584 Y45.561
X24.429 Y46.433
X24.21 Y47.292
X24.103 Y47.571
X24.004 Y47.745
X23.858 Y47.882
X23.678 Y47.97
X23.48 Y48.
X20.05
G3 X19.471 Y47.379 R0.6
X20.092 Y46.801 R0.6
G1 X20.185 Y46.804 Z-0.993
X20.277 Y46.807 Z-0.971
X20.364 Y46.81 Z-0.935
X20.444 Y46.813 Z-0.885
X20.516 Y46.816 Z-0.824
X20.577 Y46.818 Z-0.753
X20.626 Y46.819 Z-0.672
X20.662 Y46.821 Z-0.585
X20.684 Z-0.494
X20.691 Y46.822 Z-0.4
G0 Z5.
X46.162 Y15.623
Z0.2
G1 Z-0.4 F200.
X46.166 Y15.629 Z-0.494
X46.177 Y15.648 Z-0.585
X46.196 Y15.679 Z-0.672
X46.221 Y15.722 Z-0.753
X46.252 Y15.774 Z-0.824
X46.289 Y15.836 Z-0.885
X46.33 Y15.905 Z-0.935
X46.374 Y15.979 Z-0.971
X46.421 Y16.058 Z-0.993
X46.469 Y16.139 Z-1.
G3 X47. Y17.947 R3.798
G1 Y21.37 F500.
X46.985 Y21.667
X46.918 Y22.063
X46.792 Y22.487
X46.59 Y22.958
X46.296 Y23.466
X45.879 Y24.021
X45.332 Y24.594
X44.649 Y25.158
X43.908 Y25.644
X43.127 Y26.063
X42.317 Y26.423
X41.488 Y26.734
X40.643 Y27.001
X39.787 Y27.231
X38.923 Y27.428
X38.053 Y27.597
X37.179 Y27.742
X36.301 Y27.866
X35.422 Y27.972
X34.54 Y28.062
X33.657 Y28.139
X32.774 Y28.204
X31.889 Y28.259
X31.448 Y28.302
X31.048 Y28.493
X30.352 Y29.04
X29.851 Y29.771
X29.49 Y30.58
X29.229 Y31.427
X29.039 Y32.293
X28.902 Y33.168
X28.801 Y34.049
X28.727 Y34.932
X28.671 Y35.816
X28.628 Y36.701
X28.592 Y37.586
X28.529 Y39.358
X28.494 Y40.243
X28.453 Y41.128
X28.403 Y42.013
X28.34 Y42.897
X28.262 Y43.779
X28.163 Y44.66
X28.037 Y45.537
X27.878 Y46.409
X27.657 Y47.267
X27.542 Y47.57
X27.443 Y47.745
X27.297 Y47.882
X27.117 Y47.97
X26.919 Y48.
X23.48
G3 X22.901 Y47.379 R0.6
X23.522 Y46.801 R0.6
G1 X23.616 Y46.804 Z-0.993
X23.707 Y46.807 Z-0.971
X23.794 Y46.81 Z-0.935
X23.874 Y46.813 Z-0.885
X23.946 Y46.816 Z-0.824
X24.007 Y46.818 Z-0.753
X24.056 Y46.819 Z-0.672
X24.092 Y46.821 Z-0.585
X24.114 Z-0.494
X24.122 Y46.822 Z-0.4
G0 Z5.
X46.162 Y19.046
Z0.2
G1 Z-0.4 F200.
X46.166 Y19.052 Z-0.494
X46.177 Y19.071 Z-0.585
X46.196 Y19.102 Z-0.672
X46.221 Y19.145 Z-0.753
X46.252 Y19.197 Z-0.824
X46.289 Y19.259 Z-0.885
X46.33 Y19.328 Z-0.935
X46.374 Y19.402 Z-0.971
X46.421 Y19.481 Z-0.993
X46.469 Y19.562 Z-1.
G3 X47. Y21.37 R3.798
G1 Y24.592 F500.
X46.978 Y25.035
X46.91 Y25.432
X46.784 Y25.859
X46.58 Y26.333
X46.285 Y26.843
X45.864 Y27.404
X45.311 Y27.983
X44.627 Y28.547
X43.887 Y29.034
X43.107 Y29.455
X42.299 Y29.818
X41.471 Y30.133
X40.627 Y30.404
X39.773 Y30.639
X38.91 Y30.841
X38.041 Y31.016
X37.168 Y31.167
X36.292 Y31.297
X35.413 Y31.408
X34.975 Y31.48
X34.578 Y31.675
X33.882 Y32.225
X33.377 Y32.952
X33.011 Y33.76
X32.745 Y34.605
X32.549 Y35.469
X32.403 Y36.343
X32.292 Y37.222
X32.204 Y38.104
X32.131 Y38.987
X32.065 Y39.871
X32.002 Y40.754
X31.936 Y41.638
X31.863 Y42.521
X31.779 Y43.403
X31.68 Y44.284
X31.56 Y45.162
X31.411 Y46.035
X31.216 Y46.9
X31.01 Y47.538
X30.915 Y47.724
X30.768 Y47.872
X30.582 Y47.967
X30.376 Y48.
X26.919
G3 X26.34 Y47.379 R0.6
X26.961 Y46.801 R0.6
G1 X27.055 Y46.804 Z-0.993
X27.146 Y46.807 Z-0.971
X27.233 Y46.81 Z-0.935
X27.313 Y46.813 Z-0.885
X27.385 Y46.816 Z-0.824
X27.446 Y46.818 Z-0.753
X27.495 Y46.819 Z-0.672
X27.531 Y46.821 Z-0.585
X27.553 Z-0.494
X27.56 Y46.822 Z-0.4
G0 Z5.
X46.162 Y22.268
Z0.2
G1 Z-0.4 F200.
X46.166 Y22.274 Z-0.494
X46.177 Y22.293 Z-0.585
X46.196 Y22.324 Z-0.672
X46.221 Y22.366 Z-0.753
X46.252 Y22.419 Z-0.824
X46.289 Y22.48 Z-0.885
X46.33 Y22.549 Z-0.935
X46.374 Y22.624 Z-0.971
X46.421 Y22.703 Z-0.993
X46.469 Y22.783 Z-1.
G3 X47. Y24.592 R3.798
G1 Y28.015 F500.
X46.98 Y28.409
X46.912 Y28.807
X46.785 Y29.238
X46.58 Y29.714
X46.282 Y30.229
X45.859 Y30.793
X45.3 Y31.379
X44.616 Y31.942
X43.877 Y32.431
X43.098 Y32.853
X42.291 Y33.22
X41.464 Y33.537
X40.621 Y33.813
X39.768 Y34.052
X38.907 Y34.259
X38.481 Y34.382
X38.093 Y34.595
X37.407 Y35.157
X36.901 Y35.884
X36.525 Y36.686
X36.244 Y37.527
X36.03 Y38.387
X35.862 Y39.257
X35.724 Y40.132
X35.605 Y41.01
X35.496 Y41.89
X35.389 Y42.769
X35.278 Y43.648
X35.155 Y44.526
X35.013 Y45.401
X34.84 Y46.27
X34.622 Y47.128
X34.464 Y47.561
X34.367 Y47.739
X34.22 Y47.879
X34.038 Y47.969
X33.838 Y48.
X30.376
G3 X29.797 Y47.379 R0.6
X30.417 Y46.801 R0.6
G1 X30.511 Y46.804 Z-0.993
X30.603 Y46.807 Z-0.971
X30.69 Y46.81 Z-0.935
X30.77 Y46.813 Z-0.885
X30.841 Y46.816 Z-0.824
X30.903 Y46.818 Z-0.753
X30.952 Y46.819 Z-0.672
X30.988 Y46.821 Z-0.585
X31.01 Z-0.494
X31.017 Y46.822 Z-0.4
G0 Z5.
X46.162 Y25.69
Z0.2
G1 Z-0.4 F200.
X46.166 Y25.697 Z-0.494
X46.177 Y25.716 Z-0.585
X46.196 Y25.747 Z-0.672
X46.221 Y25.789 Z-0.753
X46.252 Y25.841 Z-0.824
X46.289 Y25.903 Z-0.885
X46.33 Y25.972 Z-0.935
X46.374 Y26.047 Z-0.971
X46.421 Y26.125 Z-0.993
X46.469 Y26.206 Z-1.
G3 X47. Y28.015 R3.798
G1 Y31.438 F500.
X46.982 Y31.797
X46.914 Y32.196
X46.786 Y32.629
X46.58 Y33.107
X46.281 Y33.625
X45.854 Y34.193
X45.29 Y34.783
X44.607 Y35.347
X43.868 Y35.836
X43.09 Y36.26
X42.284 Y36.629
X41.499 Y37.039
X40.864 Y37.658
X40.373 Y38.395
X39.993 Y39.196
X39.695 Y40.031
X39.456 Y40.884
X39.256 Y41.747
X39.081 Y42.616
X38.918 Y43.487
X38.758 Y44.358
X38.59 Y45.228
X38.406 Y46.095
X38.184 Y46.953
X37.974 Y47.553
X37.878 Y47.734
X37.731 Y47.877
X37.547 Y47.969
X37.345 Y48.
X33.838
G3 X33.865 Y46.8 R0.6
X33.88 Y46.801 R0.6
G1 X33.973 Y46.804 Z-0.993
X34.065 Y46.807 Z-0.971
X34.152 Y46.81 Z-0.935
X34.232 Y46.813 Z-0.885
X34.304 Y46.816 Z-0.824
X34.365 Y46.818 Z-0.753
X34.414 Y46.819 Z-0.672
X34.45 Y46.821 Z-0.585
X34.472 Z-0.494
X34.479 Y46.822 Z-0.4
G0 Z5.
X46.162 Y29.113
Z0.2
G1 Z-0.4 F200.
X46.166 Y29.12 Z-0.494
X46.177 Y29.139 Z-0.585
X46.196 Y29.17 Z-0.672
X46.221 Y29.212 Z-0.753
X46.252 Y29.264 Z-0.824
X46.289 Y29.326 Z-0.885
X46.33 Y29.395 Z-0.935
X46.374 Y29.47 Z-0.971
X46.421 Y29.548 Z-0.993
X46.469 Y29.629 Z-1.
G3 X47. Y31.438 R3.798
G1 Y34.86 F500.
X46.983 Y35.195
X46.915 Y35.594
X46.786 Y36.03
X46.58 Y36.509
X46.279 Y37.029
X45.836 Y37.62
X45.224 Y38.261
X44.631 Y38.92
X44.122 Y39.645
X43.7 Y40.425
X43.351 Y41.239
X43.057 Y42.075
X42.804 Y42.924
X42.577 Y43.781
X42.152 Y45.501
X41.926 Y46.358
X41.666 Y47.205
X41.513 Y47.584
X41.413 Y47.753
X41.267 Y47.886
X41.09 Y47.971
X40.895 Y48.
X37.345
G3 X36.879 Y47.049 R0.6
G1 X37.224 Y46.572
X45.682 Y34.851
X45.914 Y34.53 F200.
G3 X47. Y34.86 R0.6
G1 Y38.686 F500.
X46.956 Y39.571
X46.85 Y40.451
X46.692 Y41.323
X46.509 Y42.19
X46.315 Y43.055
X46.116 Y43.918
X45.91 Y44.78
X45.695 Y45.639
X45.462 Y46.494
X45.187 Y47.337
X45.075 Y47.598
X44.973 Y47.762
X44.829 Y47.89
X44.654 Y47.972
X44.463 Y48.
G3 X43.898 Y47.271 R0.6
G1 X44.077 Y46.458
X45.782 Y38.725
X45.814 Y38.578 F200.
G3 X47. Y38.686 R0.6
G1 Y45.532 F500.
X46.986 Y45.733
X46.944 Y46.202
X46.93 Y46.337
X46.916 Y46.438
X46.893 Y46.539
X46.812 Y46.74
X46.743 Y46.907
X46.727 Y46.941
X46.701 Y46.992
X46.667 Y47.042
X46.435 Y47.344
X46.388 Y47.396
X46.34 Y47.439
X46.038 Y47.67
X45.937 Y47.729
X45.898 Y47.747
X45.736 Y47.814
X45.535 Y47.894
X45.434 Y47.917
X45.132 Y47.957
X44.931 Y47.98
X44.729 Y48.
X40.895
G3 X40.922 Y46.8 R0.6
X40.937 Y46.801 R0.6
G1 X41.031 Y46.804 Z-0.993
X41.122 Y46.807 Z-0.971
X41.209 Y46.81 Z-0.935
X41.289 Y46.813 Z-0.885
X41.361 Y46.816 Z-0.824
X41.422 Y46.818 Z-0.753
X41.471 Y46.819 Z-0.672
X41.507 Y46.821 Z-0.585
X41.529 Z-0.494
X41.537 Y46.822 Z-0.4
G0 Z15.

(2D POCKET1 2)
M7
G0 X63.501 Y95.515
Z15.
Z5.
G1 Z3.1 F200.
G3 X63.488 Y95.49 Z2.918 R2.85 F300.
X63.45 Y95.418 Z2.754 R2.85
X63.396 Y95.303 Z2.622 R2.85
X63.334 Y95.153 Z2.534 R2.85
X63.276 Y94.983 Z2.5 R2.85
X68.724 Y93.307 Z2.187 R2.85
X63.276 Y94.983 Z1.875 R2.85
X68.724 Y93.307 Z1.562 R2.85
X63.276 Y94.983 Z1.249 R2.85
X68.724 Y93.307 Z0.937 R2.85
X63.276 Y94.983 Z0.624 R2.85
X68.724 Y93.307 Z0.311 R2.85
X63.276 Y94.983 Z-0.001 R2.85
X68.724 Y93.307 Z-0.314 R2.85
X66. Y96.995 Z-0.5 R2.85
G1 X64.324 F500.
G3 X64.005 Y96.676 R0.319
G1 Y93.324
G3 X64.324 Y93.005 R0.319
G1 X69.676
G3 X69.995 Y93.324 R0.319
G1 Y96.676
G3 X69.676 Y96.995 R0.319
G1 X66.
G2 X63.511 Y98.616 R2.721
G3 X60.605 Y98.003 R1.518
G1 Y89.924
G3 X60.924 Y89.605 R0.319
G1 X73.076
G3 X73.395 Y89.924 R0.319
G1 Y100.076
G3 X73.076 Y100.395 R0.319
G1 X60.924
G3 X60.605 Y100.076 R0.319
G1 Y98.003
G2 X58.905 Y95.453 R2.763
G3 X57.205 Y92.903 R2.762
G1 Y86.524
G3 X57.524 Y86.205 R0.319
G1 X76.476
G3 X76.795 Y86.524 R0.319
G1 Y103.476
G3 X76.476 Y103.795 R0.319
G1 X57.524
G3 X57.205 Y103.476 R0.319
G1 Y92.903
G2 X55.505 Y90.353 R2.762
G3 X53.805 Y87.803 R2.763
G1 Y83.124
G3 X54.124 Y82.805 R0.319
G1 X79.876
G3 X80.195 Y83.124 R0.319
G1 Y106.876
G3 X79.876 Y107.195 R0.319
G1 X54.124
G3 X53.805 Y106.876 R0.319
G1 Y87.803
G2 X52.105 Y85.253 R2.762
G3 X50.405 Y82.703 R2.763
G1 Y79.724
G3 X50.724 Y79.405 R0.319
G1 X83.276
G3 X83.595 Y79.724 R0.319
G1 Y110.276
G3 X83.276 Y110.595 R0.319
G1 X50.724
G3 X50.405 Y110.276 R0.319
G1 Y82.703
G2 X48.705 Y80.153 R2.763
G3 X47.005 Y77.603 R2.763
G1 Y76.324
G3 X47.324 Y76.005 R0.319
G1 X86.676
G3 X86.995 Y76.324 R0.319
G1 Y113.676
G3 X86.676 Y113.995 R0.319
G1 X47.324
G3 X47.005 Y113.676 R0.319
G1 Y77.603
G2 X45.664 Y75.23 R2.77
G3 X46.394 Y72.605 R1.414
G1 X90.076
G3 X90.395 Y72.924 R0.319
G1 Y117.076
G3 X90.076 Y117.395 R0.319
G1 X43.924
G3 X43.605 Y117.076 R0.319
G1 Y72.924
G3 X43.924 Y72.605 R0.319
G1 X46.394
G2 X48.948 Y70.902 R2.767
G3 X51.502 Y69.2 R2.767
G1 X92.
G3 X93.8 Y71. R1.8
G1 Y119.
G3 X92. Y120.8 R1.8
G1 X42.
G3 X40.2 Y119. R1.8
G1 Y71.
G3 X42. Y69.2 R1.8
G1 X51.502
G2 X51.652 Y69.1 R0.163
G3 X51.802 Y69. R0.162
G1 X92.
G3 X94. Y71. R2.
G1 Y119.
G3 X92. Y121. R2.
G1 X42.
G3 X40. Y119. R2.
G1 Y71.
G3 X42. Y69. R2.
G1 X51.802
G3 X54.206 Y70.319 Z-0.532 R2.85 F300.
G1 X68.404 Y92.614 Z-0.831
G3 X66. Y96.995 Z-0.9 R2.85
G1 X64.324 F500.
G3 X64.005 Y96.676 R0.319
G1 Y93.324
G3 X64.324 Y93.005 R0.319
G1 X69.676
G3 X69.995 Y93.324 R0.319
G1 Y96.676
G3 X69.676 Y96.995 R0.319
G1 X66.
G2 X63.511 Y98.616 R2.721
G3 X60.605 Y98.003 R1.518
G1 Y89.924
G3 X60.924 Y89.605 R0.319
G1 X73.076
G3 X73.395 Y89.924 R0.319
G1 Y100.076
G3 X73.076 Y100.395 R0.319
G1 X60.924
G3 X60.605 Y100.076 R0.319
G1 Y98.003
G2 X58.905 Y95.453 R2.763
G3 X57.205 Y92.903 R2.762
G1 Y86.524
G3 X57.524 Y86.205 R0.319
G1 X76.476
G3 X76.795 Y86.524 R0.319
G1 Y103.476
G3 X76.476 Y103.795 R0.319
G1 X57.524
G3 X57.205 Y103.476 R0.319
G1 Y92.903
G2 X55.505 Y90.353 R2.762
G3 X53.805 Y87.803 R2.763
G1 Y83.124
G3 X54.124 Y82.805 R0.319
G1 X79.876
G3 X80.195 Y83.124 R0.319
G1 Y106.876
G3 X79.876 Y107.195 R0.319
G1 X54.124
G3 X53.805 Y106.876 R0.319
G1 Y87.803
G2 X52.105 Y85.253 R2.762
G3 X50.405 Y82.703 R2.763
G1 Y79.724
G3 X50.724 Y79.405 R0.319
G1 X83.276
G3 X83.595 Y79.724 R0.319
G1 Y110.276
G3 X83.276 Y110.595 R0.319
G1 X50.724
G3 X50.405 Y110.276 R0.319
G1 Y82.703
G2 X48.705 Y80.153 R2.763
G3 X47.005 Y77.603 R2.763
G1 Y76.324
G3 X47.324 Y76.005 R0.319
G1 X86.676
G3 X86.995 Y76.324 R0.319
G1 Y113.676
G3 X86.676 Y113.995 R0.319
G1 X47.324
G3 X47.005 Y113.676 R0.319
G1 Y77.603
G2 X45.664 Y75.23 R2.77
G3 X46.394 Y72.605 R1.414
G1 X90.076
G3 X90.395 Y72.924 R0.319
G1 Y117.076
G3 X90.076 Y117.395 R0.319
G1 X43.924
G3 X43.605 Y117.076 R0.319
G1 Y72.924
G3 X43.924 Y72.605 R0.319
G1 X46.394
G2 X48.948 Y70.902 R2.767
G3 X51.502 Y69.2 R2.767
G1 X92.
G3 X93.8 Y71. R1.8
G1 Y119.
G3 X92. Y120.8 R1.8
G1 X42.
G3 X40.2 Y119. R1.8
G1 Y71.
G3 X42. Y69.2 R1.8
G1 X51.502
G2 X51.652 Y69.1 R0.163
G3 X51.802 Y69. R0.162
G1 X92.
G3 X94. Y71. R2.
G1 Y119.
G3 X92. Y121. R2.
G1 X42.
G3 X40. Y119. R2.
G1 Y71.
G3 X42. Y69. R2.
G1 X51.802
G3 X54.206 Y70.319 Z-0.908 R2.85 F300.
G1 X68.404 Y92.614 Z-0.983
G3 X66. Y96.995 Z-1. R2.85
G1 X64.324 F500.
G3 X64.005 Y96.676 R0.319
G1 Y93.324
G3 X64.324 Y93.005 R0.319
G1 X69.676
G3 X69.995 Y93.324 R0.319
G1 Y96.676
G3 X69.676 Y96.995 R0.319
G1 X66.
G2 X63.511 Y98.616 R2.721
G3 X60.605 Y98.003 R1.518
G1 Y89.924
G3 X60.924 Y89.605 R0.319
G1 X73.076
G3 X73.395 Y89.924 R0.319
G1 Y100.076
G3 X73.076 Y100.395 R0.319
G1 X60.924
G3 X60.605 Y100.076 R0.319
G1 Y98.003
G2 X58.905 Y95.453 R2.763
G3 X57.205 Y92.903 R2.762
G1 Y86.524
G3 X57.524 Y86.205 R0.319
G1 X76.476
G3 X76.795 Y86.524 R0.319
G1 Y103.476
G3 X76.476 Y103.795 R0.319
G1 X57.524
G3 X57.205 Y103.476 R0.319
G1 Y92.903
G2 X55.505 Y90.353 R2.762
G3 X53.805 Y87.803 R2.763
G1 Y83.124
G3 X54.124 Y82.805 R0.319
G1 X79.876
G3 X80.195 Y83.124 R0.319
G1 Y106.876
G3 X79.876 Y107.195 R0.319
G1 X54.124
G3 X53.805 Y106.876 R0.319
G1 Y87.803
G2 X52.105 Y85.253 R2.762
G3 X50.405 Y82.703 R2.763
G1 Y79.724
G3 X50.724 Y79.405 R0.319
G1 X83.276
G3 X83.595 Y79.724 R0.319
G1 Y110.276
G3 X83.276 Y110.595 R0.319
G1 X50.724
G3 X50.405 Y110.276 R0.319
G1 Y82.703
G2 X48.705 Y80.153 R2.763
G3 X47.005 Y77.603 R2.763
G1 Y76.324
G3 X47.324 Y76.005 R0.319
G1 X86.676
G3 X86.995 Y76.324 R0.319
G1 Y113.676
G3 X86.676 Y113.995 R0.319
G1 X47.324
G3 X47.005 Y113.676 R0.319
G1 Y77.603
G2 X45.664 Y75.23 R2.77
G3 X46.394 Y72.605 R1.414
G1 X90.076
G3 X90.395 Y72.924 R0.319
G1 Y117.076
G3 X90.076 Y117.395 R0.319
G1 X43.924
G3 X43.605 Y117.076 R0.319
G1 Y72.924
G3 X43.924 Y72.605 R0.319
G1 X46.394
G2 X48.948 Y70.902 R2.767
G3 X51.502 Y69.2 R2.767
G1 X92.
G3 X93.8 Y71. R1.8
G1 Y119.
G3 X92. Y120.8 R1.8
G1 X42.
G3 X40.2 Y119. R1.8
G1 Y71.
G3 X42. Y69.2 R1.8
G1 X51.502
G2 X51.652 Y69.1 R0.163
G3 X51.802 Y69. R0.162
G1 X92.
G3 X94. Y71. R2.
G1 Y119.
G3 X92. Y121. R2.
G1 X42.
G3 X40. Y119. R2.
G1 Y71.
G3 X42. Y69. R2.
G1 X51.802
G3 X51.984 Y69.028 Z-0.971 R0.6
X52.134 Y69.101 Z-0.885 R0.6
X52.236 Y69.186 Z-0.753 R0.6
X52.29 Y69.252 Z-0.585 R0.6
X52.307 Y69.276 Z-0.4 R0.6
G0 Z15.

(2D ADAPTIVE5 6)
M7
G0 X-5.314 Y142.838
Z15.
Z5.
Z0.705
G1 Z0.105 F200.
X-5.308 Y142.834 Z0.011
X-5.289 Y142.823 Z-0.08
X-5.258 Y142.804 Z-0.167
X-5.216 Y142.779 Z-0.248
X-5.163 Y142.748 Z-0.319
X-5.102 Y142.711 Z-0.38
X-5.033 Y142.67 Z-0.43
X-4.958 Y142.626 Z-0.466
X-4.879 Y142.579 Z-0.488
X-4.799 Y142.531 Z-0.495
G3 X-2.99 Y142. R3.798
G1 X-2.386 F500.
X-2.236 Y142.008
X-1.988 Y142.159
X-1.71 Y142.377
X-1.409 Y142.678
X-1.087 Y143.086
X-0.749 Y143.638
X-0.4 Y144.398
X-0.129 Y145.242
X0.065 Y146.106
X0.202 Y146.982
X0.3 Y147.863
X0.368 Y148.746
X0.416 Y149.631
X0.45 Y150.516
X0.474 Y151.402
X0.491 Y152.288
X0.503 Y153.174
X0.511 Y154.06
X0.517 Y154.946
X0.521 Y155.832
X0.525 Y157.605
X0.528 Y160.263
X0.53 Y167.352
Y187.333
X0.497 Y187.539
X0.403 Y187.725
X0.255 Y187.873
X0.069 Y187.967
X-0.137 Y188.
G3 X-0.715 Y187.379 R0.6
X-0.095 Y186.801 R0.6
G1 X-0.001 Y186.804 Z-0.488
X0.091 Y186.807 Z-0.466
X0.177 Y186.81 Z-0.43
X0.258 Y186.813 Z-0.38
X0.329 Y186.816 Z-0.319
X0.39 Y186.818 Z-0.248
X0.439 Y186.819 Z-0.167
X0.475 Y186.821 Z-0.08
X0.497 Z0.011
X0.505 Y186.822 Z0.105
G0 Z5.
X-4.71 Y142.838
Z0.705
G1 Z0.105 F200.
X-4.704 Y142.834 Z0.011
X-4.685 Y142.823 Z-0.08
X-4.654 Y142.804 Z-0.167
X-4.612 Y142.779 Z-0.248
X-4.559 Y142.748 Z-0.319
X-4.498 Y142.711 Z-0.38
X-4.429 Y142.67 Z-0.43
X-4.354 Y142.626 Z-0.466
X-4.275 Y142.579 Z-0.488
X-4.195 Y142.531 Z-0.495
G3 X-2.386 Y142. R3.798
G1 X-0.775 F500.
X-0.674 Y142.005
X-0.384 Y142.041
X-0.085 Y142.116
X0.249 Y142.242
X0.623 Y142.437
X0.997 Y142.693
X1.409 Y143.053
X1.82 Y143.509
X2.249 Y144.115
X2.671 Y144.894
X3. Y145.717
X3.254 Y146.566
X3.449 Y147.43
X3.597 Y148.304
X3.708 Y149.183
X3.792 Y150.065
X3.854 Y150.949
X3.9 Y151.834
X3.935 Y152.72
X3.96 Y153.605
X3.979 Y154.491
X3.993 Y155.377
X4.003 Y156.263
X4.01 Y157.15
X4.016 Y158.036
X4.02 Y158.922
X4.025 Y160.694
X4.028 Y163.352
X4.03 Y169.555
Y184.619
X4.027 Y185.505
X3.977 Y186.39
X3.856 Y187.12
X3.74 Y187.52
X3.648 Y187.713
X3.5 Y187.867
X3.311 Y187.966
X3.1 Y188.
X-0.137
G3 X-0.715 Y187.379 R0.6
X-0.095 Y186.801 R0.6
G1 X-0.001 Y186.804 Z-0.488
X0.091 Y186.807 Z-0.466
X0.177 Y186.81 Z-0.43
X0.258 Y186.813 Z-0.38
X0.329 Y186.816 Z-0.319
X0.39 Y186.818 Z-0.248
X0.439 Y186.819 Z-0.167
X0.475 Y186.821 Z-0.08
X0.497 Z0.011
X0.505 Y186.822 Z0.105
G0 Z5.
X-3.1 Y142.838
Z0.705
G1 Z0.105 F200.
X-3.093 Y142.834 Z0.011
X-3.074 Y142.823 Z-0.08
X-3.043 Y142.804 Z-0.167
X-3.001 Y142.779 Z-0.248
X-2.949 Y142.748 Z-0.319
X-2.887 Y142.711 Z-0.38
X-2.818 Y142.67 Z-0.43
X-2.743 Y142.626 Z-0.466
X-2.665 Y142.579 Z-0.488
X-2.584 Y142.531 Z-0.495
G3 X-0.775 Y142. R3.798
G1 X1.842 F500.
X2.229 Y142.019
X2.576 Y142.079
X2.951 Y142.189
X3.344 Y142.358
X3.787 Y142.615
X4.228 Y142.946
X4.706 Y143.402
X5.193 Y143.993
X5.672 Y144.738
X6.061 Y145.534
X6.376 Y146.363
X6.627 Y147.213
X6.828 Y148.076
X6.986 Y148.948
X7.111 Y149.825
X7.208 Y150.706
X7.284 Y151.589
X7.343 Y152.473
X7.388 Y153.358
X7.422 Y154.243
X7.449 Y155.129
X7.469 Y156.015
X7.484 Y156.901
X7.496 Y157.787
X7.504 Y158.673
X7.511 Y159.559
X7.516 Y160.445
X7.522 Y162.217
X7.527 Y164.876
X7.529 Y169.306
X7.53 Y182.598
X7.529 Y183.484
X7.514 Y184.37
X7.47 Y185.255
X7.383 Y186.137
X7.228 Y187.01
X7.101 Y187.434
X7.049 Y187.569
X6.951 Y187.744
X6.805 Y187.882
X6.624 Y187.97
X6.426 Y188.
X3.1
G3 X2.521 Y187.379 R0.6
X3.142 Y186.801 R0.6
G1 X3.236 Y186.804 Z-0.488
X3.327 Y186.807 Z-0.466
X3.414 Y186.81 Z-0.43
X3.494 Y186.813 Z-0.38
X3.566 Y186.816 Z-0.319
X3.627 Y186.818 Z-0.248
X3.676 Y186.819 Z-0.167
X3.712 Y186.821 Z-0.08
X3.734 Z0.011
X3.741 Y186.822 Z0.105
G0 Z5.
X-0.482 Y142.838
Z0.705
G1 Z0.105 F200.
X-0.476 Y142.834 Z0.011
X-0.457 Y142.823 Z-0.08
X-0.426 Y142.804 Z-0.167
X-0.384 Y142.779 Z-0.248
X-0.331 Y142.748 Z-0.319
X-0.27 Y142.711 Z-0.38
X-0.201 Y142.67 Z-0.43
X-0.126 Y142.626 Z-0.466
X-0.047 Y142.579 Z-0.488
X0.034 Y142.531 Z-0.495
G3 X1.842 Y142. R3.798
G1 X4.862 F500.
X5.296 Y142.022
X5.663 Y142.084
X6.045 Y142.197
X6.488 Y142.387
X6.933 Y142.645
X7.431 Y143.019
X7.928 Y143.494
X8.454 Y144.132
X8.933 Y144.877
X9.332 Y145.669
X9.661 Y146.491
X9.932 Y147.335
X10.152 Y148.193
X10.332 Y149.061
X10.476 Y149.935
X10.593 Y150.814
X10.686 Y151.695
X10.761 Y152.578
X10.82 Y153.462
X10.867 Y154.347
X10.903 Y155.232
X10.932 Y156.118
X10.955 Y157.004
X10.972 Y157.89
X10.986 Y158.776
X10.996 Y159.662
X11.004 Y160.548
X11.01 Y161.434
X11.015 Y162.32
X11.022 Y164.092
X11.026 Y166.751
X11.029 Y171.181
X11.03 Y180.929
X11.028 Y181.815
X11.019 Y182.701
X10.997 Y183.587
X10.955 Y184.472
X10.881 Y185.355
X10.765 Y186.233
X10.584 Y187.101
X10.445 Y187.522
X10.418 Y187.586
X10.318 Y187.755
X10.173 Y187.887
X9.995 Y187.971
X9.801 Y188.
X6.426
G3 X5.847 Y187.379 R0.6
X6.468 Y186.801 R0.6
G1 X6.562 Y186.804 Z-0.488
X6.653 Y186.807 Z-0.466
X6.74 Y186.81 Z-0.43
X6.82 Y186.813 Z-0.38
X6.892 Y186.816 Z-0.319
X6.953 Y186.818 Z-0.248
X7.002 Y186.819 Z-0.167
X7.038 Y186.821 Z-0.08
X7.06 Z0.011
X7.068 Y186.822 Z0.105
G0 Z5.
X2.538 Y142.838
Z0.705
G1 Z0.105 F200.
X2.544 Y142.834 Z0.011
X2.563 Y142.823 Z-0.08
X2.594 Y142.804 Z-0.167
X2.637 Y142.779 Z-0.248
X2.689 Y142.748 Z-0.319
X2.751 Y142.711 Z-0.38
X2.82 Y142.67 Z-0.43
X2.894 Y142.626 Z-0.466
X2.973 Y142.579 Z-0.488
X3.054 Y142.531 Z-0.495
G3 X4.862 Y142. R3.798
G1 X8.084 F500.
X8.467 Y142.019
X8.851 Y142.085
X9.244 Y142.201
X9.698 Y142.396
X10.166 Y142.667
X10.684 Y143.056
X11.207 Y143.555
X11.762 Y144.228
X12.241 Y144.973
X12.644 Y145.762
X12.982 Y146.581
X13.264 Y147.421
X13.499 Y148.276
X13.693 Y149.14
X13.853 Y150.012
X13.984 Y150.888
X14.091 Y151.768
X14.179 Y152.65
X14.25 Y153.533
X14.308 Y154.417
X14.354 Y155.302
X14.391 Y156.187
X14.421 Y157.073
X14.444 Y157.959
X14.463 Y158.845
X14.478 Y159.731
X14.49 Y160.617
X14.499 Y161.503
X14.506 Y162.389
X14.511 Y163.275
X14.519 Y165.047
X14.524 Y166.819
X14.527 Y169.478
X14.529 Y174.795
X14.53 Y179.225
X14.528 Y180.111
X14.523 Y180.997
X14.511 Y181.883
X14.488 Y182.769
X14.45 Y183.655
X14.389 Y184.539
X14.295 Y185.42
X14.162 Y186.296
X13.968 Y187.16
X13.822 Y187.579
X13.815 Y187.596
X13.713 Y187.761
X13.569 Y187.89
X13.393 Y187.972
X13.202 Y188.
X9.801
G3 X9.223 Y187.379 R0.6
X9.843 Y186.801 R0.6
G1 X9.937 Y186.804 Z-0.488
X10.028 Y186.807 Z-0.466
X10.115 Y186.81 Z-0.43
X10.196 Y186.813 Z-0.38
X10.267 Y186.816 Z-0.319
X10.328 Y186.818 Z-0.248
X10.377 Y186.819 Z-0.167
X10.413 Y186.821 Z-0.08
X10.435 Z0.011
X10.443 Y186.822 Z0.105
G0 Z5.
X5.76 Y142.838
Z0.705
G1 Z0.105 F200.
X5.766 Y142.834 Z0.011
X5.785 Y142.823 Z-0.08
X5.816 Y142.804 Z-0.167
X5.858 Y142.779 Z-0.248
X5.911 Y142.748 Z-0.319
X5.972 Y142.711 Z-0.38
X6.041 Y142.67 Z-0.43
X6.116 Y142.626 Z-0.466
X6.195 Y142.579 Z-0.488
X6.275 Y142.531 Z-0.495
G3 X8.084 Y142. R3.798
G1 X11.305 F500.
X11.713 Y142.02
X12.103 Y142.087
X12.508 Y142.207
X12.966 Y142.404
X13.451 Y142.684
X13.981 Y143.082
X14.522 Y143.599
X15.086 Y144.282
X15.566 Y145.027
X15.975 Y145.813
X16.32 Y146.629
X16.612 Y147.466
X16.858 Y148.317
X17.063 Y149.179
X17.235 Y150.048
X17.379 Y150.923
X17.498 Y151.801
X17.597 Y152.681
X17.679 Y153.564
X17.746 Y154.447
X17.801 Y155.332
X17.847 Y156.217
X17.883 Y157.102
X17.913 Y157.988
X17.937 Y158.873
X17.956 Y159.759
X17.972 Y160.645
X17.984 Y161.531
X17.994 Y162.417
X18.002 Y163.304
X18.008 Y164.19
X18.013 Y165.076
X18.02 Y166.848
X18.025 Y169.506
X18.028 Y173.051
X18.029 Y177.481
X18.028 Y178.368
X18.025 Y179.254
X18.019 Y180.14
X18.006 Y181.026
X17.985 Y181.912
X17.951 Y182.797
X17.9 Y183.682
X17.825 Y184.565
X17.721 Y185.445
X17.579 Y186.319
X17.377 Y187.182
X17.231 Y187.591
X17.228 Y187.599
X17.126 Y187.763
X16.982 Y187.891
X16.807 Y187.972
X16.616 Y188.
X13.202
G3 X12.623 Y187.379 R0.6
X13.244 Y186.801 R0.6
G1 X13.338 Y186.804 Z-0.488
X13.429 Y186.807 Z-0.466
X13.516 Y186.81 Z-0.43
X13.596 Y186.813 Z-0.38
X13.668 Y186.816 Z-0.319
X13.729 Y186.818 Z-0.248
X13.778 Y186.819 Z-0.167
X13.814 Y186.821 Z-0.08
X13.836 Z0.011
X13.843 Y186.822 Z0.105
G0 Z5.
X8.981 Y142.838
Z0.705
G1 Z0.105 F200.
X8.988 Y142.834 Z0.011
X9.006 Y142.823 Z-0.08
X9.037 Y142.804 Z-0.167
X9.08 Y142.779 Z-0.248
X9.132 Y142.748 Z-0.319
X9.194 Y142.711 Z-0.38
X9.263 Y142.67 Z-0.43
X9.338 Y142.626 Z-0.466
X9.416 Y142.579 Z-0.488
X9.497 Y142.531 Z-0.495
G3 X11.305 Y142. R3.798
G1 X14.728 F500.
X14.999 Y142.014
X15.391 Y142.08
X15.806 Y142.203
X16.269 Y142.402
X16.765 Y142.689
X17.306 Y143.095
X17.86 Y143.624
X18.424 Y144.308
X18.907 Y145.051
X19.32 Y145.835
X19.672 Y146.648
X19.972 Y147.482
X20.226 Y148.331
X20.442 Y149.19
X20.624 Y150.057
X20.778 Y150.93
X20.907 Y151.807
X21.016 Y152.686
X21.107 Y153.567
X21.183 Y154.45
X21.247 Y155.334
X21.299 Y156.219
X21.343 Y157.104
X21.378 Y157.989
X21.408 Y158.875
X21.432 Y159.761
X21.451 Y160.647
X21.467 Y161.533
X21.48 Y162.419
X21.49 Y163.305
X21.498 Y164.191
X21.505 Y165.077
X21.51 Y165.963
X21.518 Y167.735
X21.522 Y169.507
X21.526 Y172.166
X21.528 Y175.71
Y176.596
X21.527 Y177.482
X21.523 Y178.369
X21.516 Y179.255
X21.504 Y180.141
X21.485 Y181.027
X21.455 Y181.912
X21.412 Y182.797
X21.351 Y183.681
X21.268 Y184.564
X21.156 Y185.443
X21.009 Y186.316
X20.804 Y187.178
X20.667 Y187.558
X20.57 Y187.737
X20.424 Y187.879
X20.241 Y187.969
X20.04 Y188.
X16.616
G3 X16.038 Y187.379 R0.6
X16.658 Y186.801 R0.6
G1 X16.752 Y186.804 Z-0.488
X16.843 Y186.807 Z-0.466
X16.93 Y186.81 Z-0.43
X17.011 Y186.813 Z-0.38
X17.082 Y186.816 Z-0.319
X17.143 Y186.818 Z-0.248
X17.192 Y186.819 Z-0.167
X17.228 Y186.821 Z-0.08
X17.25 Z0.011
X17.258 Y186.822 Z0.105
G0 Z5.
X12.404 Y142.838
Z0.705
G1 Z0.105 F200.
X12.41 Y142.834 Z0.011
X12.429 Y142.823 Z-0.08
X12.46 Y142.804 Z-0.167
X12.503 Y142.779 Z-0.248
X12.555 Y142.748 Z-0.319
X12.617 Y142.711 Z-0.38
X12.686 Y142.67 Z-0.43
X12.76 Y142.626 Z-0.466
X12.839 Y142.579 Z-0.488
X12.92 Y142.531 Z-0.495
G3 X14.728 Y142. R3.798
G1 X17.95 F500.
X18.325 Y142.019
X18.72 Y142.086
X19.139 Y142.21
X19.607 Y142.411
X20.108 Y142.701
X20.657 Y143.113
X21.221 Y143.652
X21.785 Y144.336
X22.27 Y145.077
X22.686 Y145.86
X23.042 Y146.671
X23.348 Y147.503
X23.609 Y148.349
X23.833 Y149.207
X24.023 Y150.072
X24.185 Y150.943
X24.323 Y151.819
X24.44 Y152.697
X24.539 Y153.578
X24.622 Y154.46
X24.693 Y155.343
X24.752 Y156.227
X24.801 Y157.112
X24.843 Y157.997
X24.877 Y158.883
X24.905 Y159.768
X24.929 Y160.654
X24.948 Y161.54
X24.964 Y162.426
X24.977 Y163.312
X24.987 Y164.198
X24.996 Y165.084
X25.002 Y165.97
X25.008 Y166.856
X25.016 Y168.629
X25.021 Y170.401
X25.026 Y173.059
X25.027 Y174.832
X25.026 Y175.718
X25.025 Y176.604
X25.021 Y177.49
X25.014 Y178.376
X25.003 Y179.262
X24.985 Y180.148
X24.959 Y181.034
X24.923 Y181.919
X24.872 Y182.804
X24.804 Y183.687
X24.714 Y184.569
X24.597 Y185.447
X24.445 Y186.32
X24.235 Y187.181
X24.097 Y187.561
X24. Y187.739
X23.853 Y187.879
X23.671 Y187.969
X23.47 Y188.
X20.04
G3 X19.461 Y187.379 R0.6
X20.082 Y186.801 R0.6
G1 X20.176 Y186.804 Z-0.488
X20.267 Y186.807 Z-0.466
X20.354 Y186.81 Z-0.43
X20.434 Y186.813 Z-0.38
X20.506 Y186.816 Z-0.319
X20.567 Y186.818 Z-0.248
X20.616 Y186.819 Z-0.167
X20.652 Y186.821 Z-0.08
X20.674 Z0.011
X20.681 Y186.822 Z0.105
G0 Z5.
X15.626 Y142.838
Z0.705
G1 Z0.105 F200.
X15.632 Y142.834 Z0.011
X15.651 Y142.823 Z-0.08
X15.682 Y142.804 Z-0.167
X15.724 Y142.779 Z-0.248
X15.777 Y142.748 Z-0.319
X15.838 Y142.711 Z-0.38
X15.907 Y142.67 Z-0.43
X15.982 Y142.626 Z-0.466
X16.061 Y142.579 Z-0.488
X16.141 Y142.531 Z-0.495
G3 X17.95 Y142. R3.798
G1 X21.373 F500.
X21.667 Y142.015
X22.063 Y142.082
X22.488 Y142.208
X22.958 Y142.41
X23.466 Y142.704
X24.021 Y143.121
X24.594 Y143.668
X25.158 Y144.351
X25.644 Y145.092
X26.063 Y145.873
X26.424 Y146.682
X26.734 Y147.512
X27.001 Y148.357
X27.231 Y149.213
X27.428 Y150.077
X27.597 Y150.947
X27.742 Y151.821
X27.866 Y152.699
X27.972 Y153.578
X28.062 Y154.46
X28.139 Y155.343
X28.204 Y156.226
X28.259 Y157.111
X28.305 Y157.996
X28.345 Y158.881
X28.377 Y159.766
X28.404 Y160.652
X28.427 Y161.538
X28.446 Y162.424
X28.462 Y163.31
X28.474 Y164.196
X28.485 Y165.082
X28.494 Y165.968
X28.501 Y166.854
X28.506 Y167.74
X28.515 Y169.512
X28.52 Y171.285
X28.524 Y173.057
Y174.829
X28.522 Y175.715
X28.519 Y176.601
X28.513 Y177.488
X28.502 Y178.374
X28.487 Y179.26
X28.464 Y180.145
X28.433 Y181.031
X28.39 Y181.916
X28.334 Y182.8
X28.26 Y183.683
X28.165 Y184.564
X28.043 Y185.442
X27.888 Y186.315
X27.675 Y187.175
X27.525 Y187.587
X27.519 Y187.602
X27.417 Y187.765
X27.273 Y187.892
X27.099 Y187.972
X26.909 Y188.
X23.47
G3 X22.892 Y187.379 R0.6
X23.512 Y186.801 R0.6
G1 X23.606 Y186.804 Z-0.488
X23.698 Y186.807 Z-0.466
X23.785 Y186.81 Z-0.43
X23.865 Y186.813 Z-0.38
X23.936 Y186.816 Z-0.319
X23.997 Y186.818 Z-0.248
X24.047 Y186.819 Z-0.167
X24.083 Y186.821 Z-0.08
X24.105 Z0.011
X24.112 Y186.822 Z0.105
G0 Z5.
X19.049 Y142.838
Z0.705
G1 Z0.105 F200.
X19.055 Y142.834 Z0.011
X19.074 Y142.823 Z-0.08
X19.105 Y142.804 Z-0.167
X19.147 Y142.779 Z-0.248
X19.2 Y142.748 Z-0.319
X19.261 Y142.711 Z-0.38
X19.33 Y142.67 Z-0.43
X19.405 Y142.626 Z-0.466
X19.484 Y142.579 Z-0.488
X19.564 Y142.531 Z-0.495
G3 X21.373 Y142. R3.798
G1 X24.594 F500.
X25.035 Y142.022
X25.432 Y142.09
X25.859 Y142.216
X26.333 Y142.42
X26.843 Y142.715
X27.404 Y143.136
X27.983 Y143.689
X28.547 Y144.372
X29.034 Y145.113
X29.455 Y145.892
X29.818 Y146.701
X30.133 Y147.529
X30.404 Y148.373
X30.639 Y149.227
X30.841 Y150.09
X31.016 Y150.958
X31.167 Y151.832
X31.297 Y152.708
X31.408 Y153.587
X31.504 Y154.468
X31.587 Y155.35
X31.657 Y156.234
X31.717 Y157.118
X31.768 Y158.002
X31.812 Y158.888
X31.849 Y159.773
X31.879 Y160.658
X31.906 Y161.544
X31.927 Y162.43
X31.946 Y163.316
X31.961 Y164.202
X31.973 Y165.088
X31.984 Y165.974
X31.992 Y166.86
X31.999 Y167.746
X32.005 Y168.632
X32.014 Y170.405
X32.019 Y172.177
X32.02 Y173.063
X32.021 Y173.949
X32.019 Y174.835
X32.016 Y175.721
X32.011 Y176.607
X32.001 Y177.494
X31.988 Y178.38
X31.968 Y179.265
X31.941 Y180.151
X31.905 Y181.037
X31.857 Y181.921
X31.796 Y182.805
X31.717 Y183.688
X31.618 Y184.569
X31.492 Y185.446
X31.334 Y186.318
X31.12 Y187.178
X30.97 Y187.589
X30.964 Y187.603
X30.862 Y187.766
X30.718 Y187.892
X30.544 Y187.972
X30.354 Y188.
X26.909
G3 X26.951 Y186.801 R0.6
G1 X27.044 Y186.804 Z-0.488
X27.136 Y186.807 Z-0.466
X27.223 Y186.81 Z-0.43
X27.303 Y186.813 Z-0.38
X27.375 Y186.816 Z-0.319
X27.436 Y186.818 Z-0.248
X27.485 Y186.819 Z-0.167
X27.521 Y186.821 Z-0.08
X27.543 Z0.011
X27.55 Y186.822 Z0.105
G0 Z5.
X22.27 Y142.838
Z0.705
G1 Z0.105 F200.
X22.276 Y142.834 Z0.011
X22.295 Y142.823 Z-0.08
X22.326 Y142.804 Z-0.167
X22.369 Y142.779 Z-0.248
X22.421 Y142.748 Z-0.319
X22.483 Y142.711 Z-0.38
X22.552 Y142.67 Z-0.43
X22.626 Y142.626 Z-0.466
X22.705 Y142.579 Z-0.488
X22.786 Y142.531 Z-0.495
G3 X24.594 Y142. R3.798
G1 X28.017 F500.
X28.409 Y142.02
X28.807 Y142.087
X29.238 Y142.215
X29.714 Y142.42
X30.229 Y142.718
X30.793 Y143.141
X31.379 Y143.7
X31.942 Y144.384
X32.431 Y145.123
X32.853 Y145.902
X33.22 Y146.709
X33.537 Y147.536
X33.813 Y148.378
X34.052 Y149.232
X34.259 Y150.093
X34.439 Y150.961
X34.595 Y151.833
X34.73 Y152.709
X34.847 Y153.587
X34.948 Y154.468
X35.035 Y155.349
X35.111 Y156.232
X35.175 Y157.116
X35.231 Y158.001
X35.278 Y158.885
X35.319 Y159.771
X35.353 Y160.656
X35.383 Y161.542
X35.407 Y162.427
X35.428 Y163.313
X35.446 Y164.199
X35.46 Y165.085
X35.473 Y165.971
X35.483 Y166.857
X35.491 Y167.743
X35.498 Y168.63
X35.504 Y169.516
X35.509 Y170.402
X35.512 Y171.288
X35.515 Y172.174
X35.516 Y173.06
X35.515 Y173.946
X35.513 Y174.832
X35.508 Y175.718
X35.5 Y176.605
X35.488 Y177.491
X35.471 Y178.377
X35.448 Y179.262
X35.417 Y180.148
X35.377 Y181.033
X35.325 Y181.918
X35.259 Y182.801
X35.177 Y183.684
X35.074 Y184.564
X34.946 Y185.441
X34.786 Y186.312
X34.571 Y187.172
X34.42 Y187.586
X34.412 Y187.604
X34.31 Y187.766
X34.166 Y187.892
X33.992 Y187.972
X33.803 Y188.
X30.354
