(GRUNDPLATTE_CNC002)
(T1  D=6. CR=0. - ZMIN=-5.7 - SCHAFTFRSER)
(T2  D=3.175 CR=0. KONIK=45GRAD - ZMIN=-2. - FASENFRSER)
G90 G94 G91.1 G40 G49 G17
G21
G28 G91 Z0.
G90

(2D ADAPTIVE5)
M5
M9
T1 M6
S10000 M3
G54
M7
G0 X-120.387 Y-5.461
G43 Z15. H1
Z5.
Z0.754
G1 Z0.154 F200.
X-120.385 Y-5.454 Z0.061
X-120.38 Y-5.433 Z-0.031
X-120.371 Y-5.398 Z-0.118
X-120.359 Y-5.35 Z-0.198
X-120.344 Y-5.291 Z-0.27
X-120.326 Y-5.222 Z-0.331
X-120.306 Y-5.144 Z-0.38
X-120.284 Y-5.06 Z-0.416
X-120.262 Y-4.971 Z-0.438
X-120.238 Y-4.88 Z-0.445
G3 X-119.97 Y-3.014 R8.75
G1 Y-2.864 F500.
X-120.118 Y-1.99
X-120.222 Y-1.11
X-120.296 Y-0.227
X-120.348 Y0.657
X-120.384 Y1.543
X-120.41 Y2.428
X-120.428 Y3.314
X-120.44 Y4.2
X-120.449 Y5.086
X-120.456 Y5.972
X-120.46 Y6.859
X-120.465 Y8.631
X-120.468 Y11.289
X-120.47 Y17.492
Y47.62
Y98.129
Y148.638
Y199.147
Y249.656
Y252.315
X-120.332 Y252.736
X-119.859 Y253.485
X-119.173 Y254.046
X-118.387 Y254.455
X-117.552 Y254.751
X-116.691 Y254.962
X-115.818 Y255.112
X-114.938 Y255.218
X-114.055 Y255.293
X-113.171 Y255.346
X-112.285 Y255.383
X-111.399 Y255.409
X-110.514 Y255.427
X-109.627 Y255.44
X-108.741 Y255.449
X-107.855 Y255.455
X-106.969 Y255.46
X-105.197 Y255.465
X-104.317 Y255.466
X-104.024 Y255.5
X-103.746 Y255.598
X-103.496 Y255.755
X-103.287 Y255.964
X-103.13 Y256.214
X-103.033 Y256.493
X-103. Y256.786
G3 X-104.2 Y256.759 R0.6
X-104.199 Y256.744 R0.6
G1 X-104.196 Y256.65 Z-0.438
X-104.193 Y256.559 Z-0.416
X-104.19 Y256.472 Z-0.38
X-104.187 Y256.392 Z-0.331
X-104.184 Y256.32 Z-0.27
X-104.182 Y256.259 Z-0.198
X-104.181 Y256.21 Z-0.118
X-104.179 Y256.174 Z-0.031
Y256.152 Z0.061
X-104.178 Y256.144 Z0.154
G0 Z5.
X-16.162 Y260.319
Z0.754
G1 Z0.154 F200.
X-16.166 Y260.312 Z0.061
X-16.177 Y260.293 Z-0.031
X-16.196 Y260.262 Z-0.118
X-16.221 Y260.22 Z-0.198
X-16.252 Y260.167 Z-0.27
X-16.289 Y260.106 Z-0.331
X-16.33 Y260.037 Z-0.38
X-16.374 Y259.962 Z-0.416
X-16.421 Y259.883 Z-0.438
X-16.469 Y259.803 Z-0.445
G3 X-17. Y257.994 R3.798
G1 Y257.682 F500.
X-16.998 Y257.645
X-16.908 Y257.522
X-16.785 Y257.382
X-16.622 Y257.226
X-16.41 Y257.053
X-16.138 Y256.867
X-15.786 Y256.667
X-15.329 Y256.455
X-14.722 Y256.233
X-13.879 Y256.003
X-13.008 Y255.84
X-12.129 Y255.728
X-11.246 Y255.65
X-10.362 Y255.596
X-9.476 Y255.558
X-8.591 Y255.532
X-7.705 Y255.513
X-6.819 Y255.5
X-5.933 Y255.491
X-5.047 Y255.485
X-4.16 Y255.48
X-2.831 Y255.476
X-2.397 Y255.389
X-2.007 Y255.179
X-1.32 Y254.619
X-0.811 Y253.893
X-0.441 Y253.088
X-0.175 Y252.243
X0.015 Y251.377
X0.149 Y250.502
X0.245 Y249.621
X0.312 Y248.737
X0.359 Y247.852
X0.392 Y246.967
X0.415 Y246.081
X0.432 Y245.195
X0.443 Y244.309
X0.451 Y243.423
X0.457 Y242.537
X0.461 Y241.651
X0.465 Y239.878
X0.468 Y237.22
X0.47 Y230.131
Y221.27
Y170.761
Y120.252
Y69.743
Y19.234
Y2.84
X0.386 Y2.405
X0.178 Y2.014
X-0.38 Y1.326
X-1.104 Y0.815
X-1.909 Y0.444
X-2.754 Y0.177
X-3.619 Y-0.013
X-4.495 Y-0.148
X-5.376 Y-0.244
X-6.259 Y-0.311
X-7.144 Y-0.359
X-8.03 Y-0.392
X-8.915 Y-0.415
X-9.801 Y-0.432
X-10.687 Y-0.443
X-11.574 Y-0.451
X-12.46 Y-0.457
X-13.346 Y-0.461
X-15.118 Y-0.465
X-17.776 Y-0.468
X-24.865 Y-0.47
X-31.954
X-82.463
X-114.364
X-114.585 Y-0.465
X-115.02 Y-0.382
X-115.799 Y0.042
X-116.393 Y0.699
X-116.834 Y1.468
X-117.156 Y2.294
X-117.389 Y3.149
X-117.556 Y4.019
X-117.676 Y4.897
X-117.761 Y5.779
X-117.822 Y6.663
X-117.865 Y7.548
X-117.896 Y8.434
X-117.917 Y9.319
X-117.933 Y10.205
X-117.944 Y11.091
X-117.951 Y11.977
X-117.957 Y12.864
X-117.961 Y13.75
X-117.965 Y15.522
X-117.967 Y16.408
X-117.969 Y19.953
X-117.97 Y39.447
Y66.917
Y117.426
Y167.935
Y218.444
Y249.015
X-117.879 Y249.449
X-117.534 Y250.265
X-116.95 Y250.932
X-116.233 Y251.453
X-115.441 Y251.849
X-114.606 Y252.147
X-113.748 Y252.368
X-112.877 Y252.531
X-111.999 Y252.651
X-111.117 Y252.739
X-110.234 Y252.803
X-109.349 Y252.849
X-108.463 Y252.883
X-107.577 Y252.907
X-106.691 Y252.925
X-105.806 Y252.952
X-105.144 Y253.017
X-104.613 Y253.115
X-104.189 Y253.23
X-103.786 Y253.377
X-103.775 Y253.382
X-103.516 Y253.539
X-103.299 Y253.751
X-103.136 Y254.006
X-103.034 Y254.291
X-103. Y254.592
Y254.883
G3 X-104.2 Y254.856 R0.6
X-104.199 Y254.841 R0.6
G1 X-104.196 Y254.747 Z-0.438
X-104.193 Y254.656 Z-0.416
X-104.19 Y254.569 Z-0.38
X-104.187 Y254.489 Z-0.331
X-104.184 Y254.417 Z-0.27
X-104.182 Y254.356 Z-0.198
X-104.181 Y254.307 Z-0.118
X-104.179 Y254.271 Z-0.031
Y254.249 Z0.061
X-104.178 Y254.241 Z0.154
G0 Z5.
X-16.162 Y260.006
Z0.754
G1 Z0.154 F200.
X-16.166 Y260. Z0.061
X-16.177 Y259.981 Z-0.031
X-16.196 Y259.95 Z-0.118
X-16.221 Y259.908 Z-0.198
X-16.252 Y259.855 Z-0.27
X-16.289 Y259.794 Z-0.331
X-16.33 Y259.725 Z-0.38
X-16.374 Y259.65 Z-0.416
X-16.421 Y259.571 Z-0.438
X-16.469 Y259.491 Z-0.445
G3 X-17. Y257.682 R3.798
G1 Y256.786 F500.
X-16.993 Y256.636
X-16.933 Y256.469
X-16.846 Y256.276
X-16.73 Y256.069
X-16.588 Y255.857
X-16.395 Y255.615
X-16.165 Y255.372
X-15.884 Y255.121
X-15.53 Y254.854
X-15.107 Y254.587
X-14.578 Y254.312
X-13.908 Y254.032
X-13.065 Y253.759
X-12.203 Y253.555
X-11.33 Y253.402
X-10.451 Y253.289
X-9.569 Y253.205
X-8.685 Y253.143
X-7.8 Y253.097
X-6.914 Y253.063
X-6.029 Y253.038
X-5.595 Y252.949
X-4.776 Y252.611
X-4.103 Y252.034
X-3.576 Y251.322
X-3.173 Y250.532
X-2.871 Y249.699
X-2.645 Y248.842
X-2.479 Y247.972
X-2.357 Y247.094
X-2.267 Y246.213
X-2.202 Y245.329
X-2.154 Y244.444
X-2.12 Y243.559
X-2.095 Y242.673
X-2.077 Y241.787
X-2.064 Y240.901
X-2.054 Y240.015
X-2.047 Y239.129
X-2.042 Y238.243
X-2.036 Y236.471
X-2.032 Y233.812
X-2.03 Y228.496
Y216.09
Y165.581
Y115.072
Y64.563
Y14.054
Y6.079
X-2.103 Y5.642
X-2.419 Y4.814
X-2.985 Y4.132
X-3.691 Y3.597
X-4.478 Y3.189
X-5.309 Y2.882
X-6.165 Y2.653
X-7.035 Y2.484
X-7.912 Y2.36
X-8.794 Y2.27
X-9.678 Y2.204
X-10.562 Y2.156
X-11.448 Y2.121
X-12.334 Y2.095
X-13.219 Y2.077
X-14.106 Y2.064
X-14.992 Y2.054
X-15.878 Y2.048
X-16.764 Y2.043
X-18.536 Y2.036
X-21.194 Y2.032
X-26.511 Y2.03
X-42.461
X-92.97
X-111.579
X-112.007 Y2.143
X-112.809 Y2.521
X-113.461 Y3.121
X-113.97 Y3.846
X-114.359 Y4.642
X-114.652 Y5.479
X-114.87 Y6.338
X-115.031 Y7.209
X-115.15 Y8.087
X-115.237 Y8.969
X-115.301 Y9.853
X-115.347 Y10.738
X-115.381 Y11.623
X-115.406 Y12.509
X-115.423 Y13.395
X-115.436 Y14.281
X-115.446 Y15.167
X-115.453 Y16.053
X-115.457 Y16.939
X-115.463 Y18.711
X-115.468 Y21.37
X-115.47 Y26.686
Y32.003
Y82.512
Y133.021
Y183.53
Y234.039
Y246.445
X-115.213 Y247.293
X-114.706 Y248.02
X-114.042 Y248.606
X-113.284 Y249.065
X-112.471 Y249.418
X-111.626 Y249.686
X-110.764 Y249.888
X-109.891 Y250.04
X-109.012 Y250.152
X-108.13 Y250.239
X-107.247 Y250.318
X-106.366 Y250.411
X-105.489 Y250.539
X-104.79 Y250.689
X-104.274 Y250.845
X-103.814 Y251.028
X-103.74 Y251.064
X-103.492 Y251.224
X-103.285 Y251.435
X-103.129 Y251.686
X-103.033 Y251.965
X-103. Y252.258
Y254.592
G3 X-103.621 Y255.171 R0.6
X-104.199 Y254.551 R0.6
G1 X-104.196 Y254.457 Z-0.438
X-104.193 Y254.365 Z-0.416
X-104.19 Y254.278 Z-0.38
X-104.187 Y254.198 Z-0.331
X-104.184 Y254.127 Z-0.27
X-104.182 Y254.065 Z-0.198
X-104.181 Y254.016 Z-0.118
X-104.179 Y253.98 Z-0.031
Y253.958 Z0.061
X-104.178 Y253.951 Z0.154
G0 Z5.
X-16.162 Y259.11
Z0.754
G1 Z0.154 F200.
X-16.166 Y259.104 Z0.061
X-16.177 Y259.085 Z-0.031
X-16.196 Y259.054 Z-0.118
X-16.221 Y259.012 Z-0.198
X-16.252 Y258.959 Z-0.27
X-16.289 Y258.898 Z-0.331
X-16.33 Y258.829 Z-0.38
X-16.374 Y258.754 Z-0.416
X-16.421 Y258.675 Z-0.438
X-16.469 Y258.595 Z-0.445
G3 X-17. Y256.786 R3.798
G1 Y255.376 F500.
X-16.993 Y255.226
X-16.96 Y255.038
X-16.909 Y254.839
X-16.833 Y254.62
X-16.725 Y254.38
X-16.59 Y254.134
X-16.405 Y253.854
X-16.191 Y253.583
X-15.906 Y253.279
X-15.573 Y252.977
X-15.156 Y252.659
X-14.667 Y252.346
X-14.05 Y252.021
X-13.286 Y251.696
X-12.444 Y251.418
X-11.585 Y251.2
X-10.715 Y251.031
X-9.839 Y250.899
X-8.959 Y250.797
X-8.088 Y250.632
X-7.31 Y250.208
X-6.666 Y249.599
X-6.152 Y248.877
X-5.752 Y248.087
X-5.445 Y247.255
X-5.212 Y246.4
X-5.037 Y245.532
X-4.905 Y244.656
X-4.807 Y243.775
X-4.734 Y242.892
X-4.68 Y242.007
X-4.641 Y241.122
X-4.611 Y240.236
X-4.59 Y239.351
X-4.574 Y238.465
X-4.562 Y237.578
X-4.553 Y236.692
X-4.547 Y235.806
X-4.542 Y234.92
X-4.537 Y233.148
X-4.533 Y230.49
X-4.53 Y225.173
Y211.881
Y161.372
Y110.863
Y60.354
Y9.845
Y8.959
X-4.586 Y8.519
X-4.85 Y7.674
X-5.364 Y6.951
X-6.033 Y6.37
X-6.794 Y5.916
X-7.608 Y5.566
X-8.454 Y5.301
X-9.317 Y5.102
X-10.19 Y4.953
X-11.07 Y4.842
X-11.952 Y4.76
X-12.836 Y4.699
X-13.721 Y4.654
X-14.606 Y4.621
X-15.492 Y4.596
X-16.378 Y4.579
X-17.264 Y4.565
X-18.15 Y4.556
X-19.036 Y4.549
X-19.922 Y4.544
X-20.809 Y4.54
X-22.581 Y4.535
X-25.239 Y4.532
X-31.442 Y4.53
X-51.823
X-102.332
X-108.535
X-109.413 Y4.648
X-110.199 Y5.057
X-110.847 Y5.661
X-111.362 Y6.382
X-111.762 Y7.173
X-112.067 Y8.005
X-112.298 Y8.861
X-112.471 Y9.73
X-112.601 Y10.606
X-112.697 Y11.487
X-112.769 Y12.37
X-112.822 Y13.255
X-112.861 Y14.14
X-112.89 Y15.026
X-112.912 Y15.912
X-112.927 Y16.798
X-112.939 Y17.684
X-112.947 Y18.57
X-112.953 Y19.456
X-112.958 Y20.342
X-112.963 Y22.114
X-112.967 Y24.773
X-112.97 Y30.089
Y46.926
Y97.435
Y147.944
Y198.453
Y243.645
X-112.777 Y244.51
X-112.322 Y245.27
X-111.693 Y245.894
X-110.958 Y246.39
X-110.161 Y246.776
X-109.327 Y247.077
X-108.474 Y247.317
X-107.612 Y247.52
X-106.746 Y247.708
X-105.881 Y247.902
X-105.024 Y248.126
X-104.343 Y248.351
X-103.838 Y248.566
X-103.711 Y248.633
X-103.472 Y248.795
X-103.273 Y249.004
X-103.124 Y249.251
X-103.031 Y249.525
X-103. Y249.812
Y252.258
G3 X-104.2 Y252.232 R0.6
X-104.199 Y252.217 R0.6
G1 X-104.196 Y252.123 Z-0.438
X-104.193 Y252.031 Z-0.416
X-104.19 Y251.944 Z-0.38
X-104.187 Y251.864 Z-0.331
X-104.184 Y251.793 Z-0.27
X-104.182 Y251.731 Z-0.198
X-104.181 Y251.682 Z-0.118
X-104.179 Y251.646 Z-0.031
Y251.624 Z0.061
X-104.178 Y251.617 Z0.154
G0 Z5.
X-16.162 Y257.701
Z0.754
G1 Z0.154 F200.
X-16.166 Y257.694 Z0.061
X-16.177 Y257.675 Z-0.031
X-16.196 Y257.644 Z-0.118
X-16.221 Y257.602 Z-0.198
X-16.252 Y257.55 Z-0.27
X-16.289 Y257.488 Z-0.331
X-16.33 Y257.419 Z-0.38
X-16.374 Y257.344 Z-0.416
X-16.421 Y257.266 Z-0.438
X-16.469 Y257.185 Z-0.445
G3 X-17. Y255.376 R3.798
G1 Y253.564 F500.
X-16.99 Y253.361
X-16.962 Y253.156
X-16.916 Y252.944
X-16.839 Y252.697
X-16.739 Y252.449
X-16.597 Y252.166
X-16.42 Y251.877
X-16.192 Y251.566
X-15.905 Y251.237
X-15.562 Y250.903
X-15.138 Y250.554
X-14.617 Y250.194
X-14.006 Y249.843
X-13.236 Y249.482
X-12.406 Y249.174
X-11.555 Y248.925
X-10.711 Y248.656
X-9.952 Y248.198
X-9.311 Y247.586
X-8.79 Y246.87
X-8.377 Y246.086
X-8.054 Y245.261
X-7.805 Y244.41
X-7.614 Y243.545
X-7.469 Y242.671
X-7.359 Y241.791
X-7.276 Y240.909
X-7.214 Y240.025
X-7.167 Y239.14
X-7.132 Y238.255
X-7.106 Y237.369
X-7.086 Y236.483
X-7.072 Y235.597
X-7.061 Y234.711
X-7.053 Y233.825
X-7.047 Y232.939
X-7.042 Y232.053
X-7.037 Y230.281
X-7.033 Y227.622
X-7.03 Y222.306
Y208.128
Y157.619
Y107.11
Y56.601
Y11.408
X-7.211 Y10.541
X-7.656 Y9.775
X-8.277 Y9.142
X-9.007 Y8.639
X-9.801 Y8.247
X-10.635 Y7.946
X-11.491 Y7.716
X-12.359 Y7.543
X-13.236 Y7.412
X-14.117 Y7.314
X-15. Y7.241
X-15.884 Y7.186
X-16.769 Y7.146
X-17.655 Y7.116
X-18.541 Y7.093
X-19.427 Y7.077
X-20.313 Y7.064
X-21.199 Y7.055
X-22.085 Y7.049
X-22.971 Y7.044
X-24.743 Y7.037
X-27.402 Y7.033
X-31.832 Y7.031
X-61.074 Y7.03
X-106.267
X-107.119 Y7.271
X-107.859 Y7.759
X-108.465 Y8.405
X-108.944 Y9.151
X-109.316 Y9.955
X-109.602 Y10.794
X-109.819 Y11.653
X-109.984 Y12.524
X-110.107 Y13.401
X-110.2 Y14.282
X-110.269 Y15.166
X-110.321 Y16.05
X-110.36 Y16.936
X-110.388 Y17.821
X-110.41 Y18.707
X-110.425 Y19.593
X-110.437 Y20.479
X-110.446 Y21.365
X-110.452 Y22.251
X-110.457 Y23.137
X-110.463 Y24.91
X-110.467 Y27.568
X-110.469 Y31.999
X-110.47 Y61.241
Y111.75
Y162.259
Y212.768
Y241.124
X-110.256 Y241.984
X-109.796 Y242.741
X-109.174 Y243.372
X-108.455 Y243.89
X-107.68 Y244.319
X-106.873 Y244.686
X-106.051 Y245.016
X-105.224 Y245.335
X-104.403 Y245.669
X-103.803 Y245.961
X-103.653 Y246.05
X-103.432 Y246.215
X-103.249 Y246.421
X-103.113 Y246.661
X-103.028 Y246.923
X-103. Y247.197
Y249.812
G3 X-104.2 Y249.785 R0.6
X-104.199 Y249.77 R0.6
G1 X-104.196 Y249.676 Z-0.438
X-104.193 Y249.585 Z-0.416
X-104.19 Y249.498 Z-0.38
X-104.187 Y249.418 Z-0.331
X-104.184 Y249.346 Z-0.27
X-104.182 Y249.285 Z-0.198
X-104.181 Y249.236 Z-0.118
X-104.179 Y249.2 Z-0.031
Y249.178 Z0.061
X-104.178 Y249.171 Z0.154
G0 Z5.
X-16.162 Y255.888
Z0.754
G1 Z0.154 F200.
X-16.166 Y255.882 Z0.061
X-16.177 Y255.863 Z-0.031
X-16.196 Y255.832 Z-0.118
X-16.221 Y255.79 Z-0.198
X-16.252 Y255.737 Z-0.27
X-16.289 Y255.676 Z-0.331
X-16.33 Y255.607 Z-0.38
X-16.374 Y255.532 Z-0.416
X-16.421 Y255.453 Z-0.438
X-16.469 Y255.372 Z-0.445
G3 X-17. Y253.564 R3.798
G1 Y251.55 F500.
X-16.986 Y251.273
X-16.958 Y251.06
X-16.907 Y250.83
X-16.825 Y250.566
X-16.719 Y250.301
X-16.564 Y249.995
X-16.379 Y249.692
X-16.129 Y249.351
X-15.83 Y249.008
X-15.451 Y248.639
X-15.007 Y248.274
X-14.395 Y247.851
X-13.627 Y247.409
X-12.883 Y246.927
X-12.222 Y246.337
X-11.66 Y245.652
X-11.198 Y244.896
X-10.826 Y244.092
X-10.53 Y243.256
X-10.298 Y242.401
X-10.118 Y241.534
X-9.978 Y240.659
X-9.871 Y239.779
X-9.788 Y238.897
X-9.725 Y238.013
X-9.678 Y237.128
X-9.641 Y236.243
X-9.614 Y235.357
X-9.593 Y234.471
X-9.577 Y233.585
X-9.565 Y232.699
X-9.557 Y231.813
X-9.55 Y230.927
X-9.545 Y230.041
X-9.538 Y228.268
X-9.533 Y225.61
X-9.531 Y221.179
X-9.53 Y203.457
Y152.948
Y102.439
Y51.93
Y13.827
X-9.763 Y12.972
X-10.239 Y12.225
X-10.877 Y11.609
X-11.615 Y11.119
X-12.415 Y10.736
X-13.25 Y10.442
X-14.107 Y10.216
X-14.977 Y10.045
X-15.853 Y9.916
X-16.734 Y9.819
X-17.617 Y9.746
X-18.502 Y9.691
X-19.387 Y9.65
X-20.272 Y9.619
X-21.158 Y9.596
X-22.044 Y9.579
X-22.93 Y9.567
X-23.816 Y9.557
X-24.702 Y9.55
X-25.588 Y9.545
X-27.361 Y9.538
X-29.133 Y9.534
X-32.677 Y9.531
X-42.425 Y9.53
X-70.781
X-103.567
X-104.432 Y9.726
X-105.195 Y10.176
X-105.825 Y10.798
X-106.329 Y11.528
X-106.722 Y12.322
X-107.027 Y13.154
X-107.259 Y14.009
X-107.436 Y14.877
X-107.57 Y15.753
X-107.671 Y16.633
X-107.747 Y17.516
X-107.803 Y18.401
X-107.846 Y19.286
X-107.877 Y20.171
X-107.901 Y21.057
X-107.919 Y21.943
X-107.932 Y22.829
X-107.942 Y23.715
X-107.949 Y24.601
X-107.954 Y25.487
X-107.959 Y26.373
X-107.964 Y28.146
X-107.967 Y30.804
X-107.97 Y36.121
Y75.996
Y126.505
Y177.014
Y227.523
Y238.157
X-107.899 Y239.04
X-107.579 Y239.866
X-107.074 Y240.594
X-106.451 Y241.224
X-105.756 Y241.774
X-105.02 Y242.268
X-104.266 Y242.734
X-103.612 Y243.154
X-103.404 Y243.32
X-103.233 Y243.523
X-103.105 Y243.757
X-103.027 Y244.011
X-103. Y244.276
Y247.197
G3 X-104.2 Y247.17 R0.6
X-104.199 Y247.155 R0.6
G1 X-104.196 Y247.061 Z-0.438
X-104.193 Y246.97 Z-0.416
X-104.19 Y246.883 Z-0.38
X-104.187 Y246.803 Z-0.331
X-104.184 Y246.731 Z-0.27
X-104.182 Y246.67 Z-0.198
X-104.181 Y246.621 Z-0.118
X-104.179 Y246.585 Z-0.031
Y246.563 Z0.061
X-104.178 Y246.555 Z0.154
G0 Z5.
X-16.162 Y253.874
Z0.754
G1 Z0.154 F200.
X-16.166 Y253.868 Z0.061
X-16.177 Y253.849 Z-0.031
X-16.196 Y253.818 Z-0.118
X-16.221 Y253.776 Z-0.198
X-16.252 Y253.723 Z-0.27
X-16.289 Y253.662 Z-0.331
X-16.33 Y253.593 Z-0.38
X-16.374 Y253.518 Z-0.416
X-16.421 Y253.439 Z-0.438
X-16.469 Y253.359 Z-0.445
G3 X-17. Y251.55 R3.798
G1 Y249.335 F500.
X-16.988 Y249.102
X-16.958 Y248.873
X-16.906 Y248.64
X-16.823 Y248.369
X-16.705 Y248.078
X-16.55 Y247.77
X-16.314 Y247.385
X-15.79 Y246.67
X-15.217 Y245.994
X-14.672 Y245.296
X-14.184 Y244.556
X-13.764 Y243.776
X-13.412 Y242.962
X-13.123 Y242.125
X-12.889 Y241.27
X-12.702 Y240.404
X-12.552 Y239.53
X-12.435 Y238.652
X-12.343 Y237.771
X-12.271 Y236.888
X-12.215 Y236.003
X-12.172 Y235.118
X-12.138 Y234.233
X-12.113 Y233.347
X-12.093 Y232.461
X-12.078 Y231.575
X-12.066 Y230.689
X-12.058 Y229.803
X-12.051 Y228.917
X-12.046 Y228.031
X-12.039 Y226.258
X-12.034 Y223.6
X-12.031 Y220.056
X-12.03 Y208.536
Y199.675
Y149.166
Y98.657
Y48.148
Y17.133
X-12.036 Y16.247
X-12.307 Y15.403
X-12.807 Y14.672
X-13.459 Y14.072
X-14.204 Y13.593
X-15.008 Y13.219
X-15.846 Y12.931
X-16.704 Y12.71
X-17.574 Y12.542
X-18.451 Y12.415
X-19.332 Y12.319
X-20.215 Y12.247
X-21.1 Y12.192
X-21.683 Y12.165
X-21.742 Y12.161
X-21.801 Y12.154
X-21.859 Y12.145
X-21.943 Y12.13
X-22.346 Y12.066
X-22.547 Y12.04
X-22.95 Y12.011
X-23.151 Y12.
X-96.849
X-97.05 Y12.011
X-97.936 Y12.029
X-100.594 Y12.03
X-101.478 Y12.09
X-102.298 Y12.427
X-102.997 Y12.972
X-103.564 Y13.653
X-104.013 Y14.417
X-104.362 Y15.231
X-104.631 Y16.075
X-104.837 Y16.937
X-104.994 Y17.81
X-105.112 Y18.688
X-105.201 Y19.569
X-105.269 Y20.453
X-105.319 Y21.338
X-105.357 Y22.223
X-105.386 Y23.109
X-105.407 Y23.994
X-105.423 Y24.88
X-105.435 Y25.766
X-105.444 Y26.652
X-105.451 Y27.539
X-105.456 Y28.425
X-105.462 Y30.197
X-105.467 Y32.855
X-105.469 Y37.286
X-105.47 Y56.781
Y107.29
Y157.799
Y208.308
Y235.777
X-105.401 Y236.661
X-105.129 Y237.504
X-104.695 Y238.277
X-104.153 Y238.978
X-103.546 Y239.624
X-103.383 Y239.789
X-103.22 Y239.991
X-103.099 Y240.219
X-103.025 Y240.467
X-103. Y240.725
Y244.276
G3 X-103.941 Y244.748 R0.6
G1 X-103.993 Y244.696 Z-0.441
X-104.045 Y244.645 Z-0.427
X-104.094 Y244.595 Z-0.404
X-104.127 Y244.522 Z-0.366
X-104.156 Y244.456 Z-0.317
X-104.183 Y244.396 Z-0.257
X-104.188 Y244.35 Z-0.201
X-104.193 Y244.31 Z-0.139
X-104.197 Y244.278 Z-0.072
X-104.2 Y244.255 Z-0.003
Y244.249 Z0.021
X-104.199 Y244.238 Z0.088
Y244.234 Z0.154
G0 Z5.
X-94.79 Y11.013
Z0.754
G1 Z0.154 F200.
X-94.796 Y11.017 Z0.061
X-94.814 Y11.03 Z-0.031
X-94.844 Y11.05 Z-0.118
X-94.884 Y11.079 Z-0.198
X-94.934 Y11.113 Z-0.27
X-94.993 Y11.154 Z-0.331
X-95.059 Y11.2 Z-0.38
X-95.131 Y11.249 Z-0.416
X-95.206 Y11.302 Z-0.438
X-95.283 Y11.355 Z-0.445
G3 X-97.05 Y12.011 R3.798
G1 X-97.453 Y12.04 F500.
X-97.654 Y12.066
X-98.057 Y12.13
X-98.258 Y12.166
X-98.762 Y12.267
X-98.812 Y12.281
X-98.862 Y12.299
X-99.265 Y12.468
X-99.364 Y12.512
X-100.154 Y12.915
X-100.473 Y13.119
X-100.675 Y13.272
X-100.876 Y13.45
X-100.952 Y13.519
X-101.555 Y14.123
X-101.681 Y14.265
X-101.732 Y14.324
X-101.883 Y14.526
X-102.018 Y14.727
X-102.333 Y15.331
X-102.434 Y15.533
X-102.625 Y15.935
X-102.688 Y16.105
X-102.699 Y16.137
X-102.758 Y16.338
X-102.805 Y16.54
X-102.902 Y17.144
X-102.957 Y17.547
X-102.985 Y17.748
X-102.994 Y17.949
X-102.999 Y18.352
X-103. Y18.553
Y32.449
X-102.996 Y33.053
X-102.982 Y33.254
X-102.925 Y34.138
X-102.938 Y35.024
X-102.947 Y35.91
X-102.954 Y36.797
X-102.959 Y37.683
X-102.964 Y39.455
X-102.968 Y42.113
X-102.97 Y47.43
Y48.549
X-102.971 Y48.597
X-102.973 Y48.644
X-102.977 Y48.692
X-102.985 Y48.76
X-102.996 Y49.163
X-103. Y49.365
Y140.59
X-102.997 Y140.791
X-103.029 Y141.677
X-103.011 Y142.563
X-102.999 Y143.449
X-102.99 Y144.335
X-102.984 Y145.221
X-102.98 Y146.107
X-102.975 Y147.879
X-102.972 Y150.538
X-102.97 Y156.541
X-102.971 Y156.594
X-102.975 Y156.647
X-102.982 Y156.7
X-102.991 Y156.901
X-102.999 Y157.304
X-103. Y157.506
Y172.609
X-102.999 Y172.811
X-102.99 Y173.012
X-102.992 Y173.898
X-102.986 Y174.784
X-102.981 Y175.67
X-102.975 Y177.442
X-102.972 Y180.101
X-102.97 Y186.304
Y188.61
X-102.971 Y188.66
X-102.974 Y188.708
X-102.978 Y188.757
X-102.996 Y188.921
X-102.999 Y189.122
X-103. Y190.733
Y240.725
G3 X-103.941 Y241.197 R0.6
G1 X-103.993 Y241.145 Z-0.441
X-104.045 Y241.093 Z-0.427
X-104.094 Y241.043 Z-0.404
X-104.127 Y240.971 Z-0.366
X-104.156 Y240.904 Z-0.317
X-104.183 Y240.845 Z-0.257
X-104.188 Y240.798 Z-0.201
X-104.193 Y240.759 Z-0.139
X-104.197 Y240.727 Z-0.072
X-104.2 Y240.704 Z-0.003
Y240.698 Z0.021
X-104.199 Y240.687 Z0.088
Y240.683 Z0.154
G0 Z5.
X-103.935 Y170.729
Z0.754
G1 Z0.154 F200.
X-103.931 Y170.735 Z0.061
X-103.919 Y170.754 Z-0.031
X-103.899 Y170.784 Z-0.118
X-103.872 Y170.825 Z-0.198
X-103.838 Y170.876 Z-0.27
X-103.799 Y170.936 Z-0.331
X-103.755 Y171.003 Z-0.38
X-103.707 Y171.075 Z-0.416
X-103.656 Y171.152 Z-0.438
X-103.605 Y171.23 Z-0.445
G3 X-102.99 Y173.012 R3.798
G1 X-102.971 Y173.415 F500.
X-102.876 Y174.019
X-102.767 Y174.623
X-102.711 Y174.824
X-102.688 Y174.9
X-102.641 Y175.026
X-102.556 Y175.227
X-102.455 Y175.428
X-102.25 Y175.831
X-102.138 Y176.033
X-101.883 Y176.481
X-101.866 Y176.505
X-101.758 Y176.681
X-101.551 Y177.089
X-101.332 Y177.625
X-101.105 Y178.352
X-100.911 Y179.217
X-100.778 Y180.092
X-100.685 Y180.974
X-100.62 Y181.857
X-100.575 Y182.742
X-100.547 Y183.524
X-100.568 Y183.812
X-100.65 Y184.088
X-100.79 Y184.34
X-100.98 Y184.556
X-101.077 Y184.645
X-101.125 Y184.692
X-101.323 Y184.893
X-101.681 Y185.261
X-101.714 Y185.296
X-101.86 Y185.497
X-102.084 Y185.846
X-102.113 Y185.9
X-102.318 Y186.303
X-102.42 Y186.504
X-102.692 Y187.108
X-102.751 Y187.31
X-102.796 Y187.511
X-102.834 Y187.713
X-102.929 Y188.317
X-102.978 Y188.757
G3 X-104.169 Y188.609 R0.6
G1 X-104.166 Y188.584
X-102.991 Y177.243
X-102.945 Y176.8 F200.
G3 X-101.866 Y176.505 R0.6
G1 X-101.829 Y176.559 F500.
X-101.761 Y176.637
X-101.39 Y177.039
X-101.279 Y177.154
X-101.192 Y177.241
X-100.776 Y177.644
X-100.675 Y177.738
X-100.534 Y177.845
X-100.5 Y177.867
X-100.372 Y177.963
X-100.184 Y178.129
X-99.984 Y178.339
X-99.766 Y178.609
X-99.543 Y178.938
X-99.304 Y179.362
X-99.058 Y179.899
X-98.805 Y180.6
X-98.608 Y181.328
X-98.508 Y181.88
X-98.482 Y182.155
X-98.484 Y182.426
X-98.544 Y182.691
X-98.658 Y182.938
X-98.821 Y183.155
X-99.027 Y183.333
X-99.265 Y183.463
X-99.307 Y183.484
X-99.869 Y183.769
X-100.089 Y183.886
X-100.272 Y183.987
X-100.44 Y184.088
X-100.473 Y184.111
X-100.675 Y184.276
X-100.98 Y184.556
G3 X-101.967 Y184.042 R0.6
G1 X-101.922 Y183.582
X-101.479 Y178.982
X-101.415 Y178.319 F200.
G3 X-100.5 Y177.867 R0.6
G1 X-100.272 Y178.018 F500.
X-100.07 Y178.126
X-99.835 Y178.248
X-99.44 Y178.449
X-99.265 Y178.535
X-99.064 Y178.627
X-99.005 Y178.651
X-98.852 Y178.711
X-98.671 Y178.801
X-98.476 Y178.92
X-98.255 Y179.081
X-98.041 Y179.266
X-97.81 Y179.502
X-97.593 Y179.763
X-97.399 Y180.042
X-97.225 Y180.342
X-97.093 Y180.62
X-96.981 Y180.921
X-96.902 Y181.198
X-96.845 Y181.492
X-96.828 Y181.65
Y181.94
X-96.89 Y182.222
X-97.012 Y182.485
X-97.188 Y182.715
X-97.409 Y182.902
X-97.665 Y183.036
X-97.944 Y183.112
X-98.057 Y183.13
X-98.258 Y183.167
X-98.46 Y183.207
G3 X-99.146 Y182.723 R0.6
G1 X-99.319 Y181.784
X-99.65 Y179.979
X-99.769 Y179.333 F200.
G3 X-99.005 Y178.651 R0.6
G1 X-98.862 Y178.699 F500.
X-98.661 Y178.753
X-98.165 Y178.852
X-98.057 Y178.87
X-97.654 Y178.934
X-97.543 Y178.948
X-97.396 Y178.976
X-97.234 Y179.02
X-97.064 Y179.082
X-96.887 Y179.164
X-96.701 Y179.27
X-96.517 Y179.396
X-96.331 Y179.548
X-96.155 Y179.717
X-95.99 Y179.906
X-95.839 Y180.11
X-95.715 Y180.311
X-95.598 Y180.539
X-95.508 Y180.761
X-95.436 Y180.991
X-95.381 Y181.233
X-95.35 Y181.461
X-95.336 Y181.71
X-95.377 Y182.
X-95.479 Y182.273
X-95.639 Y182.517
X-95.849 Y182.72
X-96.098 Y182.873
X-96.374 Y182.968
X-96.664 Y183.
X-96.849
X-97.05 Y183.011
X-97.453 Y183.04
X-97.654 Y183.066
X-97.944 Y183.112
G3 X-98.612 Y182.434 R0.6
G1 X-98.503 Y181.656
X-98.33 Y180.421
X-98.196 Y179.462 F200.
G3 X-97.543 Y178.948 R0.6
G1 X-97.453 Y178.96 F500.
X-97.05 Y178.989
X-96.849 Y179.
X-96.245
X-96.062 Y179.009
X-95.913 Y179.029
X-95.764 Y179.063
X-95.603 Y179.114
X-95.44 Y179.18
X-95.271 Y179.266
X-95.096 Y179.375
X-94.925 Y179.502
X-94.758 Y179.649
X-94.592 Y179.822
X-94.451 Y179.995
X-94.316 Y180.192
X-94.201 Y180.395
X-94.108 Y180.597
X-94.024 Y180.825
X-93.965 Y181.044
X-93.923 Y181.269
X-93.899 Y181.507
X-93.896 Y181.731
X-93.955 Y182.045
X-94.087 Y182.335
X-94.284 Y182.585
X-94.534 Y182.782
X-94.825 Y182.914
X-95.138 Y182.973
X-95.439 Y182.993
X-95.641 Y183.
X-96.664
G3 X-97.236 Y182.312 R0.6
G1 X-97.107 Y181.447
X-96.973 Y180.552
X-96.817 Y179.511 F200.
G3 X-96.245 Y179. R0.6
G1 X-95.641 F500.
X-95.439 Y179.007
X-94.835 Y179.048
X-94.634 Y179.074
X-94.533 Y179.089
X-94.432 Y179.117
X-94.099 Y179.255
X-94.03 Y179.287
X-93.828 Y179.432
X-93.797 Y179.456
X-93.627 Y179.59
X-93.563 Y179.657
X-93.332 Y179.959
X-93.299 Y180.01
X-93.272 Y180.06
X-93.187 Y180.262
X-93.107 Y180.463
X-93.083 Y180.564
X-93.044 Y180.866
X-93.033 Y180.966
X-93.035 Y181.067
X-93.061 Y181.268
X-93.089 Y181.47
X-93.118 Y181.571
X-93.243 Y181.873
X-93.29 Y181.973
X-93.357 Y182.074
X-93.511 Y182.275
X-93.627 Y182.41
X-93.709 Y182.477
X-93.828 Y182.568
X-93.974 Y182.678
X-94.03 Y182.713
X-94.231 Y182.8
X-94.432 Y182.883
X-94.533 Y182.911
X-94.634 Y182.926
X-94.835 Y182.952
X-95.138 Y182.973
G3 X-95.672 Y182.065 R0.6
G1 X-95.623 Y182.01 Z-0.441
X-95.575 Y181.955 Z-0.427
X-95.528 Y181.902 Z-0.404
X-95.458 Y181.865 Z-0.366
X-95.394 Y181.831 Z-0.317
X-95.336 Y181.801 Z-0.257
X-95.286 Y181.792 Z-0.196
X-95.245 Y181.784 Z-0.128
X-95.213 Y181.778 Z-0.055
X-95.19 Y181.774 Z0.021
X-95.179 Z0.088
X-95.176 Y181.773 Z0.154
G0 Z5.
X-103.867 Y138.479
Z0.754
G1 Z0.154 F200.
X-103.863 Y138.485 Z0.061
X-103.852 Y138.504 Z-0.031
X-103.833 Y138.534 Z-0.118
X-103.807 Y138.576 Z-0.198
X-103.775 Y138.628 Z-0.27
X-103.738 Y138.689 Z-0.331
X-103.696 Y138.758 Z-0.38
X-103.65 Y138.832 Z-0.416
X-103.602 Y138.91 Z-0.438
X-103.553 Y138.99 Z-0.445
G3 X-102.997 Y140.791 R3.798
G1 X-102.992 Y141.194 F500.
X-102.966 Y141.395
X-102.91 Y141.798
X-102.879 Y141.999
X-102.814 Y142.402
X-102.772 Y142.604
X-102.719 Y142.805
X-102.65 Y143.006
X-102.558 Y143.208
X-102.462 Y143.409
X-102.362 Y143.61
X-102.152 Y144.013
X-102.047 Y144.215
X-101.924 Y144.416
X-101.75 Y144.7
X-101.542 Y145.116
X-101.322 Y145.662
X-101.093 Y146.405
X-100.904 Y147.271
X-100.773 Y148.147
X-100.682 Y149.029
X-100.618 Y149.913
X-100.574 Y150.798
X-100.549 Y151.516
X-100.567 Y151.789
X-100.641 Y152.052
X-100.766 Y152.294
X-100.939 Y152.506
X-101.508 Y153.075
X-101.687 Y153.277
X-101.852 Y153.478
X-101.883 Y153.522
X-101.988 Y153.679
X-102.308 Y154.284
X-102.411 Y154.485
X-102.606 Y154.888
X-102.688 Y155.104
X-102.745 Y155.29
X-102.795 Y155.492
X-102.894 Y156.096
X-102.982 Y156.7
G3 X-104.169 Y156.535 R0.6
G1 X-104.164 Y156.487
X-103.047 Y145.149
X-103.004 Y144.712 F200.
G3 X-101.924 Y144.416 R0.6
G1 X-101.883 Y144.476 F500.
X-101.782 Y144.617
X-101.606 Y144.819
X-101.48 Y144.953
X-101.01 Y145.423
X-100.876 Y145.552
X-100.675 Y145.729
X-100.56 Y145.826
X-100.533 Y145.842
X-100.411 Y145.928
X-100.221 Y146.091
X-100.026 Y146.289
X-99.81 Y146.548
X-99.588 Y146.865
X-99.349 Y147.273
X-99.107 Y147.781
X-98.854 Y148.448
X-98.64 Y149.197
X-98.524 Y149.779
X-98.488 Y150.1
X-98.486 Y150.379
X-98.542 Y150.651
X-98.653 Y150.906
X-98.814 Y151.132
X-99.019 Y151.321
X-99.258 Y151.462
X-99.466 Y151.564
X-100.059 Y151.867
X-100.181 Y151.933
G3 X-101.048 Y151.443 R0.6
G1 X-101.102 Y150.735
X-101.389 Y146.986
X-101.433 Y146.407 F200.
G3 X-100.533 Y145.842 R0.6
G1 X-100.239 Y146.027 F500.
X-100.07 Y146.128
X-99.466 Y146.436
X-99.265 Y146.535
X-99.057 Y146.631
X-98.95 Y146.669
X-98.811 Y146.726
X-98.63 Y146.822
X-98.42 Y146.955
X-98.208 Y147.116
X-97.985 Y147.317
X-97.761 Y147.555
X-97.546 Y147.826
X-97.355 Y148.112
X-97.197 Y148.399
X-97.068 Y148.686
X-96.966 Y148.977
X-96.893 Y149.258
X-96.842 Y149.552
X-96.831 Y149.679
X-96.836 Y149.964
X-96.902 Y150.242
X-97.026 Y150.499
X-97.201 Y150.724
X-97.421 Y150.907
X-97.674 Y151.038
X-97.95 Y151.113
X-98.057 Y151.13
X-98.258 Y151.165
X-98.661 Y151.239
X-98.751 Y151.263
X-98.862 Y151.301
X-99.064 Y151.373
X-99.258 Y151.462
G3 X-99.999 Y150.916 R0.537
G1 X-99.927 Y150.14
X-99.733 Y148.054
X-99.647 Y147.132 F200.
G3 X-98.95 Y146.669 R0.537
G1 X-98.862 Y146.7 F500.
X-98.661 Y146.753
X-98.258 Y146.833
X-98.057 Y146.87
X-97.654 Y146.934
X-97.543 Y146.948
X-97.396 Y146.976
X-97.232 Y147.021
X-97.066 Y147.082
X-96.886 Y147.165
X-96.703 Y147.27
X-96.52 Y147.395
X-96.332 Y147.549
X-96.156 Y147.719
X-95.995 Y147.903
X-95.841 Y148.111
X-95.717 Y148.313
X-95.602 Y148.54
X-95.511 Y148.765
X-95.44 Y148.991
X-95.385 Y149.236
X-95.354 Y149.465
X-95.341 Y149.713
X-95.381 Y150.001
X-95.484 Y150.274
X-95.644 Y150.518
X-95.853 Y150.721
X-96.102 Y150.873
X-96.378 Y150.968
X-96.667 Y151.
X-96.849
X-97.05 Y151.011
X-97.453 Y151.04
X-97.624 Y151.061
X-97.95 Y151.113
G3 X-98.617 Y150.433 R0.6
G1 X-98.507 Y149.657
X-98.332 Y148.421
X-98.195 Y147.461 F200.
G3 X-97.543 Y146.948 R0.6
G1 X-97.453 Y146.96 F500.
X-97.05 Y146.989
X-96.849 Y147.
X-96.245
X-96.065 Y147.009
X-95.917 Y147.029
X-95.768 Y147.063
X-95.606 Y147.113
X-95.443 Y147.18
X-95.275 Y147.266
X-95.1 Y147.375
X-94.929 Y147.502
X-94.762 Y147.649
X-94.596 Y147.822
X-94.455 Y147.995
X-94.32 Y148.192
X-94.205 Y148.396
X-94.112 Y148.597
X-94.028 Y148.826
X-93.969 Y149.045
X-93.927 Y149.27
X-93.903 Y149.508
X-93.9 Y149.732
X-93.959 Y150.045
X-94.091 Y150.335
X-94.288 Y150.586
X-94.538 Y150.782
X-94.829 Y150.914
X-95.142 Y150.973
X-95.439 Y150.993
X-95.641 Y151.
X-96.667
G3 X-97.24 Y150.311 R0.6
G1 X-97.109 Y149.447
X-96.974 Y148.552
X-96.817 Y147.51 F200.
G3 X-96.245 Y147. R0.6
G1 X-95.641 F500.
X-95.439 Y147.007
X-94.835 Y147.048
X-94.634 Y147.074
X-94.533 Y147.089
X-94.432 Y147.117
X-94.146 Y147.235
X-94.03 Y147.287
X-93.822 Y147.437
X-93.627 Y147.59
X-93.58 Y147.638
X-93.423 Y147.839
X-93.346 Y147.94
X-93.31 Y147.99
X-93.281 Y148.041
X-93.224 Y148.173
X-93.113 Y148.444
X-93.087 Y148.544
X-93.046 Y148.846
X-93.034 Y148.947
X-93.033 Y149.048
X-93.059 Y149.249
X-93.086 Y149.45
X-93.111 Y149.551
X-93.152 Y149.652
X-93.235 Y149.853
X-93.279 Y149.954
X-93.308 Y150.004
X-93.342 Y150.055
X-93.497 Y150.256
X-93.627 Y150.409
X-93.684 Y150.457
X-93.946 Y150.659
X-94.03 Y150.713
X-94.231 Y150.8
X-94.432 Y150.883
X-94.533 Y150.911
X-94.634 Y150.926
X-94.835 Y150.952
X-95.142 Y150.973
G3 X-95.676 Y150.065 R0.6
G1 X-95.627 Y150.01 Z-0.441
X-95.579 Y149.955 Z-0.427
X-95.532 Y149.902 Z-0.404
X-95.462 Y149.865 Z-0.366
X-95.398 Y149.831 Z-0.317
X-95.34 Y149.801 Z-0.257
X-95.291 Y149.792 Z-0.196
X-95.249 Y149.784 Z-0.128
X-95.217 Y149.778 Z-0.055
X-95.194 Y149.774 Z0.021
X-95.183 Z0.088
X-95.18 Z0.154
G0 Z5.
X-104.114 Y31.058
Z0.754
G1 Z0.154 F200.
X-104.11 Y31.064 Z0.061
X-104.096 Y31.081 Z-0.031
X-104.074 Y31.109 Z-0.118
X-104.044 Y31.148 Z-0.198
X-104.006 Y31.196 Z-0.27
X-103.961 Y31.252 Z-0.331
X-103.912 Y31.316 Z-0.38
X-103.858 Y31.384 Z-0.416
X-103.801 Y31.456 Z-0.438
X-103.743 Y31.53 Z-0.445
G3 X-102.982 Y33.254 R3.798
G1 X-102.93 Y33.657 F500.
X-102.901 Y33.858
X-102.837 Y34.261
X-102.803 Y34.462
X-102.758 Y34.664
X-102.698 Y34.865
X-102.688 Y34.896
X-102.622 Y35.067
X-102.432 Y35.469
X-102.331 Y35.671
X-102.084 Y36.149
X-102.015 Y36.275
X-101.883 Y36.473
X-101.715 Y36.753
X-101.508 Y37.175
X-101.29 Y37.733
X-101.063 Y38.496
X-100.881 Y39.363
X-100.756 Y40.241
X-100.669 Y41.122
X-100.609 Y42.006
X-100.567 Y42.892
X-100.546 Y43.518
X-100.565 Y43.791
X-100.64 Y44.054
X-100.766 Y44.297
X-100.94 Y44.509
X-101.279 Y44.845
X-101.367 Y44.934
X-101.48 Y45.049
X-101.739 Y45.337
X-101.883 Y45.519
X-101.897 Y45.538
X-102.016 Y45.74
X-102.285 Y46.238
X-102.441 Y46.545
X-102.54 Y46.747
X-102.63 Y46.948
X-102.707 Y47.149
X-102.761 Y47.351
X-102.803 Y47.552
X-102.889 Y48.066
X-102.963 Y48.559
X-102.977 Y48.692
G3 X-104.168 Y48.546 R0.6
G1 X-104.166 Y48.522
X-103.011 Y37.197
X-102.966 Y36.763 F200.
G3 X-101.883 Y36.473 R0.6
G1 X-101.732 Y36.678 F500.
X-101.681 Y36.737
X-101.552 Y36.879
X-101.077 Y37.356
X-100.948 Y37.483
X-100.675 Y37.727
X-100.473 Y37.883
X-100.327 Y37.997
X-100.134 Y38.175
X-99.933 Y38.394
X-99.711 Y38.679
X-99.486 Y39.025
X-99.245 Y39.472
X-98.998 Y40.041
X-98.746 Y40.783
X-98.576 Y41.464
X-98.49 Y41.995
X-98.479 Y42.144
X-98.485 Y42.414
X-98.546 Y42.678
X-98.659 Y42.923
X-98.819 Y43.141
X-99.02 Y43.323
X-99.253 Y43.459
X-99.389 Y43.525
X-99.869 Y43.769
X-100.07 Y43.874
G3 X-100.926 Y43.387 R0.6
G1 X-100.993 Y42.659
X-101.329 Y39.011
X-101.381 Y38.452 F200.
G3 X-100.473 Y37.883 R0.6
G1 X-100.272 Y38.015 F500.
X-100.147 Y38.087
X-99.755 Y38.289
X-99.36 Y38.49
X-99.265 Y38.533
X-99.064 Y38.621
X-98.895 Y38.691
X-98.756 Y38.749
X-98.561 Y38.857
X-98.36 Y38.992
X-98.134 Y39.173
X-97.917 Y39.378
X-97.686 Y39.636
X-97.481 Y39.908
X-97.3 Y40.195
X-97.151 Y40.482
X-97.03 Y40.77
X-96.936 Y41.059
X-96.87 Y41.342
X-96.827 Y41.632
X-96.822 Y41.71
X-96.834 Y41.991
X-96.904 Y42.263
X-97.029 Y42.514
X-97.205 Y42.733
X-97.423 Y42.911
X-97.673 Y43.039
X-97.944 Y43.112
X-98.258 Y43.162
X-98.369 Y43.181
G3 X-99.041 Y42.695 R0.6
G1 X-99.216 Y41.742
X-99.529 Y40.033
X-99.649 Y39.377 F200.
G3 X-98.895 Y38.691 R0.6
G1 X-98.862 Y38.702 F500.
X-98.661 Y38.753
X-98.258 Y38.834
X-98.057 Y38.87
X-97.654 Y38.934
X-97.543 Y38.948
X-97.393 Y38.976
X-97.236 Y39.019
X-97.066 Y39.08
X-96.888 Y39.162
X-96.708 Y39.264
X-96.52 Y39.392
X-96.335 Y39.542
X-96.156 Y39.714
X-95.997 Y39.894
X-95.842 Y40.102
X-95.715 Y40.307
X-95.602 Y40.527
X-95.508 Y40.756
X-95.437 Y40.978
X-95.381 Y41.225
X-95.349 Y41.456
X-95.335 Y41.702
X-95.375 Y41.993
X-95.478 Y42.268
X-95.638 Y42.514
X-95.848 Y42.718
X-96.098 Y42.872
X-96.376 Y42.968
X-96.668 Y43.
X-96.849
X-97.05 Y43.011
X-97.453 Y43.04
X-97.654 Y43.066
X-97.944 Y43.112
G3 X-98.611 Y42.433 R0.6
G1 X-98.502 Y41.655
X-98.33 Y40.421
X-98.196 Y39.463 F200.
G3 X-97.543 Y38.948 R0.6
G1 X-97.453 Y38.96 F500.
X-97.05 Y38.989
X-96.849 Y39.
X-96.245
X-96.06 Y39.009
X-95.911 Y39.029
X-95.763 Y39.063
X-95.602 Y39.113
X-95.438 Y39.18
X-95.27 Y39.266
X-95.096 Y39.374
X-94.924 Y39.501
X-94.757 Y39.648
X-94.591 Y39.82
X-94.451 Y39.993
X-94.316 Y40.19
X-94.201 Y40.393
X-94.108 Y40.594
X-94.025 Y40.822
X-93.965 Y41.041
X-93.923 Y41.266
X-93.899 Y41.504
X-93.896 Y41.731
X-93.955 Y42.044
X-94.087 Y42.334
X-94.283 Y42.585
X-94.534 Y42.782
X-94.824 Y42.914
X-95.138 Y42.973
X-95.439 Y42.993
X-95.641 Y43.
X-96.668
G3 X-97.24 Y42.311 R0.6
G1 X-97.11 Y41.447
X-96.974 Y40.552
X-96.817 Y39.51 F200.
G3 X-96.245 Y39. R0.6
G1 X-95.641 F500.
X-95.439 Y39.007
X-94.835 Y39.048
X-94.634 Y39.074
X-94.507 Y39.094
X-94.432 Y39.117
X-94.231 Y39.2
X-94.03 Y39.287
X-94.015 Y39.296
X-93.828 Y39.432
X-93.744 Y39.497
X-93.627 Y39.591
X-93.532 Y39.698
X-93.377 Y39.9
X-93.304 Y40.
X-93.254 Y40.101
X-93.17 Y40.302
X-93.095 Y40.504
X-93.065 Y40.705
X-93.038 Y40.907
X-93.032 Y41.007
X-93.04 Y41.108
X-93.067 Y41.309
X-93.099 Y41.511
X-93.177 Y41.712
X-93.26 Y41.914
X-93.313 Y42.014
X-93.388 Y42.115
X-93.543 Y42.316
X-93.627 Y42.409
X-93.763 Y42.518
X-93.828 Y42.568
X-94.03 Y42.713
X-94.042 Y42.719
X-94.231 Y42.8
X-94.432 Y42.883
X-94.512 Y42.907
X-94.592 Y42.92
X-94.835 Y42.952
X-95.138 Y42.973
G3 X-95.671 Y42.065 R0.6
G1 X-95.623 Y42.01 Z-0.441
X-95.575 Y41.955 Z-0.427
X-95.528 Y41.902 Z-0.404
X-95.458 Y41.865 Z-0.366
X-95.394 Y41.831 Z-0.317
X-95.336 Y41.801 Z-0.257
X-95.287 Y41.791 Z-0.196
X-95.245 Y41.784 Z-0.128
X-95.213 Y41.778 Z-0.055
X-95.191 Y41.774 Z0.021
X-95.179 Y41.773 Z0.088
X-95.176 Z0.154
G0 Z5.
X-16.162 Y251.659
Z0.754
G1 Z0.154 F200.
X-16.166 Y251.653 Z0.061
X-16.177 Y251.634 Z-0.031
X-16.196 Y251.603 Z-0.118
X-16.221 Y251.561 Z-0.198
X-16.252 Y251.508 Z-0.27
X-16.289 Y251.447 Z-0.331
X-16.33 Y251.378 Z-0.38
X-16.374 Y251.303 Z-0.416
X-16.421 Y251.224 Z-0.438
X-16.469 Y251.143 Z-0.445
G3 X-17. Y249.335 R3.798
G1 Y246.918 F500.
X-16.979 Y246.498
X-16.915 Y246.02
X-16.724 Y245.155
X-16.467 Y244.307
X-16.192 Y243.464
X-15.929 Y242.618
X-15.69 Y241.765
X-15.481 Y240.904
X-15.302 Y240.036
X-15.152 Y239.163
X-15.027 Y238.285
X-14.925 Y237.405
X-14.843 Y236.523
X-14.776 Y235.639
X-14.723 Y234.755
X-14.681 Y233.869
X-14.648 Y232.984
X-14.621 Y232.098
X-14.601 Y231.212
X-14.585 Y230.326
X-14.572 Y229.44
X-14.562 Y228.554
X-14.555 Y227.668
X-14.549 Y226.782
X-14.545 Y225.896
X-14.539 Y224.124
X-14.534 Y221.465
X-14.531 Y217.035
X-14.53 Y198.426
Y196.654
Y146.145
Y95.636
Y45.127
Y19.429
X-14.592 Y18.545
X-14.925 Y17.724
X-15.47 Y17.025
X-16.148 Y16.455
X-16.911 Y16.004
X-17.001 Y15.964
X-17.269 Y15.81
X-17.494 Y15.597
X-17.664 Y15.339
X-17.982 Y14.727
X-18.117 Y14.525
X-18.268 Y14.324
X-18.319 Y14.265
X-18.445 Y14.123
X-19.048 Y13.519
X-19.124 Y13.45
X-19.325 Y13.272
X-19.531 Y13.116
X-19.847 Y12.915
X-20.636 Y12.512
X-20.735 Y12.468
X-21.138 Y12.299
X-21.188 Y12.281
X-21.238 Y12.267
X-21.742 Y12.166
X-21.859 Y12.145
G3 X-22.156 Y11.135 R0.6
G1 X-22.095 Y11.093 Z-0.441
X-22.035 Y11.052 Z-0.427
X-21.977 Y11.012 Z-0.404
X-21.9 Y10.993 Z-0.366
X-21.83 Y10.975 Z-0.317
X-21.767 Y10.96 Z-0.257
X-21.731 Y10.959 Z-0.217
X-21.682 Y10.964 Z-0.143
X-21.644 Y10.967 Z-0.063
X-21.619 Y10.97 Z0.021
X-21.608 Y10.972 Z0.088
X-21.604 Y10.973 Z0.154
G0 Z5.
X-16.162 Y249.243
Z0.754
G1 Z0.154 F200.
X-16.166 Y249.236 Z0.061
X-16.177 Y249.217 Z-0.031
X-16.196 Y249.186 Z-0.118
X-16.221 Y249.144 Z-0.198
X-16.252 Y249.092 Z-0.27
X-16.289 Y249.03 Z-0.331
X-16.33 Y248.961 Z-0.38
X-16.374 Y248.886 Z-0.416
X-16.421 Y248.808 Z-0.438
X-16.469 Y248.727 Z-0.445
G3 X-17. Y246.918 R3.798
G1 Y189.324 F500.
X-17.001 Y189.122
X-17.004 Y188.921
X-17.017 Y188.035
X-17.021 Y187.149
X-17.025 Y185.377
X-17.028 Y182.718
X-17.03 Y175.629
Y173.438
X-17.028 Y173.396
X-17.001 Y172.811
X-17. Y172.408
Y157.506
X-17.001 Y157.304
X-17.005 Y157.103
X-16.978 Y156.217
X-16.994 Y155.331
X-17.004 Y154.445
X-17.012 Y153.559
X-17.017 Y152.673
X-17.021 Y151.787
X-17.026 Y150.015
X-17.029 Y147.356
X-17.03 Y141.447
X-17.029 Y141.391
X-17.025 Y141.335
X-17.019 Y141.279
X-17.008 Y141.194
X-17. Y140.59
Y49.365
X-17.004 Y49.163
X-16.984 Y48.277
X-16.998 Y47.391
X-17.007 Y46.505
X-17.014 Y45.619
X-17.019 Y44.733
X-17.025 Y42.961
X-17.028 Y40.302
X-17.03 Y34.1
Y33.435
X-17.029 Y33.377
X-17.025 Y33.319
X-17.019 Y33.262
X-17.004 Y33.053
X-17. Y32.449
Y18.553
X-17.001 Y18.352
X-17.006 Y17.949
X-17.015 Y17.748
X-17.07 Y17.345
X-17.098 Y17.144
X-17.195 Y16.54
X-17.242 Y16.338
X-17.301 Y16.137
X-17.312 Y16.105
X-17.375 Y15.935
X-17.566 Y15.533
X-17.664 Y15.339
G3 X-16.58 Y14.825 R0.6
X-16.573 Y14.838 R0.6
G1 X-16.534 Y14.923 Z-0.438
X-16.496 Y15.007 Z-0.416
X-16.459 Y15.086 Z-0.38
X-16.426 Y15.159 Z-0.331
X-16.396 Y15.224 Z-0.27
X-16.371 Y15.279 Z-0.198
X-16.35 Y15.324 Z-0.118
X-16.335 Y15.357 Z-0.031
X-16.326 Y15.377 Z0.061
X-16.323 Y15.383 Z0.154
G0 Z5.
X-16.104 Y51.464
Z0.754
G1 Z0.154 F200.
X-16.108 Y51.458 Z0.061
X-16.119 Y51.439 Z-0.031
X-16.139 Y51.409 Z-0.118
X-16.165 Y51.367 Z-0.198
X-16.198 Y51.315 Z-0.27
X-16.236 Y51.255 Z-0.331
X-16.279 Y51.187 Z-0.38
X-16.325 Y51.113 Z-0.416
X-16.374 Y51.036 Z-0.438
X-16.424 Y50.957 Z-0.445
G3 X-17.004 Y49.163 R3.798
G1 X-17.015 Y48.76 F500.
X-17.037 Y48.559
X-17.111 Y48.066
X-17.197 Y47.552
X-17.239 Y47.351
X-17.293 Y47.149
X-17.37 Y46.948
X-17.46 Y46.747
X-17.559 Y46.545
X-17.715 Y46.238
X-17.984 Y45.74
X-18.103 Y45.538
X-18.285 Y45.231
X-18.496 Y44.796
X-18.717 Y44.223
X-18.947 Y43.437
X-19.124 Y42.568
X-19.246 Y41.691
X-19.332 Y40.809
X-19.391 Y39.925
X-19.433 Y39.04
X-19.451 Y38.479
X-19.432 Y38.204
X-19.356 Y37.939
X-19.228 Y37.695
X-19.052 Y37.483
X-18.923 Y37.356
X-18.448 Y36.879
X-18.319 Y36.737
X-18.268 Y36.678
X-18.117 Y36.473
X-17.985 Y36.275
X-17.916 Y36.149
X-17.669 Y35.671
X-17.568 Y35.469
X-17.378 Y35.067
X-17.312 Y34.896
X-17.302 Y34.865
X-17.242 Y34.664
X-17.197 Y34.462
X-17.163 Y34.261
X-17.099 Y33.858
X-17.07 Y33.657
X-17.019 Y33.262
G3 X-15.83 Y33.421 R0.6
G1 X-15.834 Y33.459
X-16.983 Y44.787
X-17.029 Y45.236 F200.
G3 X-18.103 Y45.538 R0.6
G1 X-18.117 Y45.519 F500.
X-18.261 Y45.337
X-18.52 Y45.049
X-18.633 Y44.934
X-18.923 Y44.645
X-19.124 Y44.445
X-19.25 Y44.33
X-19.325 Y44.266
X-19.505 Y44.129
X-19.65 Y44.018
X-19.846 Y43.84
X-20.045 Y43.627
X-20.264 Y43.348
X-20.491 Y43.005
X-20.732 Y42.565
X-20.978 Y42.01
X-21.232 Y41.277
X-21.411 Y40.581
X-21.501 Y40.047
X-21.516 Y39.867
X-21.511 Y39.593
X-21.451 Y39.326
X-21.337 Y39.077
X-21.175 Y38.855
X-20.972 Y38.672
X-20.735 Y38.533
X-20.64 Y38.49
X-20.131 Y38.231
X-19.93 Y38.127
G3 X-19.077 Y38.611 R0.6
G1 X-19.005 Y39.345
X-18.645 Y43.013
X-18.591 Y43.561 F200.
G3 X-19.505 Y44.129 R0.6
G1 X-19.728 Y43.982 F500.
X-19.93 Y43.874
X-20.131 Y43.769
X-20.611 Y43.525
X-20.735 Y43.465
X-20.936 Y43.373
X-21.072 Y43.323
X-21.211 Y43.268
X-21.402 Y43.165
X-21.602 Y43.034
X-21.827 Y42.859
X-22.044 Y42.659
X-22.275 Y42.407
X-22.484 Y42.138
X-22.669 Y41.854
X-22.824 Y41.564
X-22.948 Y41.279
X-23.048 Y40.986
X-23.117 Y40.706
X-23.164 Y40.412
X-23.173 Y40.306
X-23.164 Y40.023
X-23.096 Y39.748
X-22.971 Y39.494
X-22.796 Y39.271
X-22.577 Y39.091
X-22.325 Y38.961
X-22.052 Y38.887
X-21.943 Y38.87
X-21.742 Y38.834
X-21.54 Y38.793
G3 X-20.851 Y39.289 R0.6
G1 X-20.701 Y40.219
X-20.413 Y41.992
X-20.306 Y42.653 F200.
G3 X-21.072 Y43.323 R0.6
G1 X-21.138 Y43.301 F500.
X-21.339 Y43.243
X-21.54 Y43.197
X-21.742 Y43.162
X-22.346 Y43.066
X-22.457 Y43.052
X-22.604 Y43.024
X-22.765 Y42.98
X-22.931 Y42.92
X-23.112 Y42.836
X-23.292 Y42.734
X-23.477 Y42.608
X-23.665 Y42.455
X-23.842 Y42.285
X-24.001 Y42.104
X-24.156 Y41.895
X-24.282 Y41.692
X-24.396 Y41.468
X-24.489 Y41.241
X-24.56 Y41.017
X-24.615 Y40.771
X-24.647 Y40.541
X-24.661 Y40.296
X-24.621 Y40.005
X-24.518 Y39.731
X-24.358 Y39.485
X-24.147 Y39.281
X-23.898 Y39.127
X-23.62 Y39.032
X-23.329 Y39.
X-23.151
X-22.95 Y38.989
X-22.547 Y38.96
X-22.346 Y38.934
X-22.052 Y38.887
G3 X-21.385 Y39.567 R0.6
G1 X-21.494 Y40.344
X-21.669 Y41.579
X-21.805 Y42.538 F200.
G3 X-22.457 Y43.052 R0.6
G1 X-22.547 Y43.04 F500.
X-22.95 Y43.011
X-23.151 Y43.
X-23.755
X-23.936 Y42.991
X-24.085 Y42.971
X-24.233 Y42.938
X-24.395 Y42.887
X-24.558 Y42.82
X-24.726 Y42.734
X-24.901 Y42.626
X-25.072 Y42.499
X-25.24 Y42.351
X-25.405 Y42.179
X-25.546 Y42.007
X-25.68 Y41.81
X-25.796 Y41.606
X-25.889 Y41.405
X-25.972 Y41.177
X-26.032 Y40.958
X-26.073 Y40.733
X-26.097 Y40.495
X-26.1 Y40.269
X-26.041 Y39.956
X-25.91 Y39.665
X-25.713 Y39.415
X-25.462 Y39.218
X-25.172 Y39.086
X-24.859 Y39.027
X-24.561 Y39.007
X-24.359 Y39.
X-23.329
G3 X-22.757 Y39.69 R0.6
G1 X-22.888 Y40.553
X-23.024 Y41.449
X-23.183 Y42.491 F200.
G3 X-23.755 Y43. R0.6
G1 X-24.359 F500.
X-24.561 Y42.993
X-25.165 Y42.952
X-25.408 Y42.92
X-25.488 Y42.907
X-25.568 Y42.883
X-25.769 Y42.8
X-25.958 Y42.719
X-25.97 Y42.713
X-26.172 Y42.568
X-26.237 Y42.518
X-26.373 Y42.409
X-26.457 Y42.316
X-26.612 Y42.115
X-26.687 Y42.014
X-26.74 Y41.914
X-26.823 Y41.712
X-26.901 Y41.511
X-26.933 Y41.309
X-26.96 Y41.108
X-26.968 Y41.007
X-26.962 Y40.907
X-26.935 Y40.705
X-26.905 Y40.504
X-26.83 Y40.302
X-26.746 Y40.101
X-26.696 Y40.
X-26.623 Y39.9
X-26.468 Y39.698
X-26.373 Y39.591
X-26.256 Y39.497
X-26.172 Y39.432
X-25.985 Y39.296
X-25.97 Y39.287
X-25.769 Y39.2
X-25.568 Y39.117
X-25.493 Y39.094
X-25.366 Y39.074
X-25.165 Y39.048
X-24.859 Y39.027
G3 X-24.821 Y40.226 R0.6
G1 X-24.915 Y40.229 Z-0.438
X-25.006 Y40.232 Z-0.416
X-25.093 Y40.235 Z-0.38
X-25.173 Y40.238 Z-0.331
X-25.245 Y40.24 Z-0.27
X-25.306 Y40.242 Z-0.198
X-25.355 Y40.243 Z-0.118
X-25.391 Y40.245 Z-0.031
X-25.413 Z0.061
X-25.42 Y40.246 Z0.154
G0 Z5.
X-16.123 Y159.411
Z0.754
G1 Z0.154 F200.
X-16.127 Y159.404 Z0.061
X-16.138 Y159.386 Z-0.031
X-16.157 Y159.355 Z-0.118
X-16.183 Y159.313 Z-0.198
X-16.216 Y159.261 Z-0.27
X-16.253 Y159.2 Z-0.331
X-16.296 Y159.132 Z-0.38
X-16.342 Y159.058 Z-0.416
X-16.39 Y158.981 Z-0.438
X-16.439 Y158.901 Z-0.445
G3 X-17.005 Y157.103 R3.798
G1 X-17.009 Y156.901 F500.
X-17.018 Y156.7
X-17.106 Y156.096
X-17.205 Y155.492
X-17.255 Y155.29
X-17.312 Y155.104
X-17.394 Y154.888
X-17.589 Y154.485
X-17.692 Y154.284
X-18.012 Y153.679
X-18.117 Y153.522
X-18.232 Y153.338
X-18.439 Y152.932
X-18.658 Y152.4
X-18.885 Y151.679
X-19.081 Y150.815
X-19.217 Y149.94
X-19.311 Y149.058
X-19.377 Y148.175
X-19.423 Y147.29
X-19.452 Y146.484
X-19.433 Y146.205
X-19.356 Y145.937
X-19.225 Y145.69
X-19.045 Y145.476
X-18.99 Y145.423
X-18.52 Y144.953
X-18.394 Y144.819
X-18.218 Y144.617
X-18.117 Y144.476
X-18.076 Y144.416
X-17.953 Y144.215
X-17.715 Y143.759
X-17.638 Y143.61
X-17.538 Y143.409
X-17.442 Y143.208
X-17.35 Y143.006
X-17.281 Y142.805
X-17.228 Y142.604
X-17.186 Y142.402
X-17.111 Y141.932
X-17.09 Y141.798
X-17.034 Y141.395
X-17.019 Y141.279
G3 X-15.83 Y141.437 R0.6
G1 X-15.834 Y141.472
X-16.994 Y152.781
X-17.04 Y153.224 F200.
G3 X-18.117 Y153.522 R0.6
G1 X-18.148 Y153.478 F500.
X-18.319 Y153.27
X-18.492 Y153.075
X-19.124 Y152.443
X-19.325 Y152.269
X-19.527 Y152.113
X-19.665 Y152.007
X-19.852 Y151.836
X-20.057 Y151.614
X-20.275 Y151.334
X-20.503 Y150.986
X-20.742 Y150.545
X-20.991 Y149.977
X-21.245 Y149.237
X-21.418 Y148.551
X-21.505 Y148.02
X-21.518 Y147.858
X-21.512 Y147.588
X-21.452 Y147.325
X-21.34 Y147.079
X-21.181 Y146.861
X-20.981 Y146.679
X-20.748 Y146.541
X-20.522 Y146.43
X-19.93 Y146.128
X-19.761 Y146.027
X-19.441 Y145.826
X-19.325 Y145.729
X-19.124 Y145.552
X-19.045 Y145.476
G3 X-18.047 Y145.982 R0.6
G1 X-18.091 Y146.423
X-18.545 Y151.003
X-18.61 Y151.665 F200.
G3 X-19.527 Y152.113 R0.6
G1 X-19.593 Y152.068 F500.
X-19.728 Y151.983
X-19.941 Y151.867
X-20.534 Y151.564
X-20.737 Y151.464
X-20.936 Y151.373
X-21.047 Y151.333
X-21.186 Y151.276
X-21.38 Y151.173
X-21.575 Y151.049
X-21.797 Y150.881
X-22.016 Y150.684
X-22.246 Y150.439
X-22.459 Y150.17
X-22.645 Y149.892
X-22.807 Y149.597
X-22.933 Y149.317
X-23.037 Y149.02
X-23.109 Y148.743
X-23.16 Y148.448
X-23.171 Y148.321
X-23.166 Y148.036
X-23.1 Y147.758
X-22.976 Y147.501
X-22.8 Y147.276
X-22.581 Y147.093
X-22.327 Y146.962
X-22.052 Y146.887
X-21.943 Y146.87
X-21.737 Y146.832
X-21.54 Y146.793
G3 X-20.852 Y147.284 R0.6
G1 X-20.692 Y148.217
X-20.384 Y150.015
X-20.273 Y150.66 F200.
G3 X-21.047 Y151.333 R0.6
G1 X-21.138 Y151.301 F500.
X-21.249 Y151.263
X-21.339 Y151.239
X-21.742 Y151.165
X-21.943 Y151.13
X-22.376 Y151.061
X-22.47 Y151.049
X-22.618 Y151.023
X-22.782 Y150.976
X-22.949 Y150.914
X-23.129 Y150.829
X-23.313 Y150.722
X-23.496 Y150.595
X-23.684 Y150.439
X-23.859 Y150.268
X-24.02 Y150.081
X-24.171 Y149.874
X-24.294 Y149.672
X-24.408 Y149.443
X-24.497 Y149.219
X-24.567 Y148.99
X-24.62 Y148.746
X-24.65 Y148.518
X-24.656 Y148.395
X-24.635 Y148.089
X-24.544 Y147.795
X-24.388 Y147.53
X-24.176 Y147.308
X-23.918 Y147.14
X-23.629 Y147.035
X-23.324 Y147.
X-23.151
X-22.95 Y146.989
X-22.547 Y146.96
X-22.346 Y146.934
X-22.052 Y146.887
G3 X-21.385 Y147.57 R0.6
G1 X-21.499 Y148.343
X-21.68 Y149.575
X-21.821 Y150.539 F200.
G3 X-22.47 Y151.049 R0.6
G1 X-22.547 Y151.04 F500.
X-22.95 Y151.011
X-23.151 Y151.
X-23.755
X-23.938 Y150.991
X-24.086 Y150.971
X-24.237 Y150.937
X-24.397 Y150.886
X-24.56 Y150.819
X-24.729 Y150.733
X-24.904 Y150.624
X-25.074 Y150.498
X-25.242 Y150.349
X-25.398 Y150.187
X-25.545 Y150.006
X-25.68 Y149.808
X-25.789 Y149.616
X-25.889 Y149.397
X-25.969 Y149.178
X-26.027 Y148.965
X-26.071 Y148.725
X-26.094 Y148.497
X-26.097 Y148.274
Y148.267
X-26.037 Y147.954
X-25.905 Y147.664
X-25.709 Y147.414
X-25.458 Y147.217
X-25.168 Y147.086
X-24.855 Y147.027
X-24.561 Y147.007
X-24.359 Y147.
X-23.324
G3 X-22.752 Y147.691 R0.6
G1 X-22.885 Y148.553
X-23.023 Y149.449
X-23.183 Y150.492 F200.
G3 X-23.755 Y151. R0.6
G1 X-24.359 F500.
X-24.561 Y150.993
X-25.165 Y150.952
X-25.366 Y150.926
X-25.467 Y150.911
X-25.568 Y150.883
X-25.769 Y150.8
X-25.97 Y150.713
X-26.054 Y150.659
X-26.316 Y150.457
X-26.373 Y150.409
X-26.503 Y150.256
X-26.658 Y150.055
X-26.692 Y150.004
X-26.721 Y149.954
X-26.776 Y149.827
X-26.848 Y149.652
X-26.889 Y149.551
X-26.914 Y149.45
X-26.941 Y149.249
X-26.967 Y149.048
X-26.966 Y148.947
X-26.927 Y148.645
X-26.913 Y148.544
X-26.887 Y148.444
X-26.776 Y148.173
X-26.719 Y148.041
X-26.69 Y147.99
X-26.654 Y147.94
X-26.574 Y147.837
X-26.42 Y147.638
X-26.373 Y147.59
X-26.172 Y147.432
X-25.97 Y147.287
X-25.854 Y147.235
X-25.568 Y147.117
X-25.467 Y147.089
X-25.366 Y147.074
X-25.165 Y147.048
X-24.855 Y147.027
G3 X-24.817 Y148.226 R0.6
G1 X-24.911 Y148.229 Z-0.438
X-25.002 Y148.232 Z-0.416
X-25.089 Y148.235 Z-0.38
X-25.17 Y148.237 Z-0.331
X-25.241 Y148.239 Z-0.27
X-25.302 Y148.241 Z-0.198
X-25.351 Y148.243 Z-0.118
X-25.387 Y148.244 Z-0.031
X-25.409 Y148.245 Z0.061
X-25.417 Z0.154
G0 Z5.
X-15.915 Y191.139
Z0.754
G1 Z0.154 F200.
X-15.919 Y191.133 Z0.061
X-15.933 Y191.115 Z-0.031
X-15.954 Y191.087 Z-0.118
X-15.984 Y191.047 Z-0.198
X-16.021 Y190.999 Z-0.27
X-16.064 Y190.941 Z-0.331
X-16.112 Y190.877 Z-0.38
X-16.165 Y190.808 Z-0.416
X-16.22 Y190.735 Z-0.438
X-16.277 Y190.66 Z-0.445
G3 X-17.004 Y188.921 R3.798
G1 X-17.071 Y188.317 F500.
X-17.166 Y187.713
X-17.204 Y187.511
X-17.249 Y187.31
X-17.308 Y187.108
X-17.58 Y186.504
X-17.785 Y186.102
X-17.887 Y185.9
X-17.916 Y185.846
X-18.011 Y185.699
X-18.32 Y185.16
X-18.532 Y184.709
X-18.754 Y184.111
X-18.984 Y183.284
X-19.15 Y182.413
X-19.265 Y181.535
X-19.345 Y180.652
X-19.401 Y179.768
X-19.439 Y178.882
X-19.452 Y178.471
X-19.432 Y178.194
X-19.355 Y177.928
X-19.224 Y177.684
X-19.046 Y177.471
X-18.808 Y177.241
X-18.721 Y177.154
X-18.61 Y177.039
X-18.239 Y176.637
X-18.171 Y176.559
X-18.117 Y176.481
X-17.862 Y176.033
X-17.75 Y175.831
X-17.513 Y175.365
X-17.444 Y175.227
X-17.359 Y175.026
X-17.312 Y174.9
X-17.289 Y174.824
X-17.233 Y174.623
X-17.124 Y174.019
X-17.029 Y173.415
X-17.028 Y173.396
G3 X-16.381 Y172.847 R0.6
X-15.833 Y173.495 R0.6
G1 Y173.5
X-16.882 Y184.995
X-16.92 Y185.411 F200.
G3 X-18.011 Y185.699 R0.6
G1 X-18.14 Y185.497 F500.
X-18.286 Y185.296
X-18.319 Y185.261
X-18.721 Y184.848
X-18.875 Y184.692
X-18.923 Y184.645
X-19.325 Y184.276
X-19.527 Y184.111
X-19.56 Y184.088
X-19.684 Y184.002
X-19.881 Y183.817
X-20.085 Y183.592
X-20.305 Y183.303
X-20.535 Y182.943
X-20.777 Y182.483
X-21.025 Y181.901
X-21.275 Y181.143
X-21.435 Y180.475
X-21.516 Y179.95
X-21.523 Y179.845
X-21.514 Y179.576
X-21.452 Y179.315
X-21.339 Y179.072
X-21.179 Y178.856
X-20.979 Y178.676
X-20.748 Y178.541
X-20.534 Y178.436
X-20.131 Y178.231
X-19.93 Y178.126
G3 X-19.074 Y178.619 R0.6
G1 X-19.014 Y179.341
X-18.721 Y182.924
X-18.673 Y183.513 F200.
G3 X-19.56 Y184.088 R0.6
G1 X-19.728 Y183.987 F500.
X-19.93 Y183.876
X-20.131 Y183.769
X-20.693 Y183.484
X-20.735 Y183.463
X-20.936 Y183.379
X-21.047 Y183.338
X-21.193 Y183.276
X-21.391 Y183.171
X-21.587 Y183.045
X-21.805 Y182.879
X-22.028 Y182.676
X-22.255 Y182.433
X-22.472 Y182.158
X-22.655 Y181.881
X-22.817 Y181.585
X-22.941 Y181.306
X-23.044 Y181.009
X-23.115 Y180.732
X-23.165 Y180.437
X-23.175 Y180.317
X-23.169 Y180.033
X-23.102 Y179.756
X-22.978 Y179.499
X-22.802 Y179.275
X-22.583 Y179.093
X-22.33 Y178.962
X-22.055 Y178.888
X-21.835 Y178.852
X-21.54 Y178.793
G3 X-20.852 Y179.283 R0.6
G1 X-20.691 Y180.217
X-20.378 Y182.027
X-20.268 Y182.666 F200.
G3 X-21.047 Y183.338 R0.6
G1 X-21.199 Y183.282 F500.
X-21.339 Y183.247
X-21.742 Y183.167
X-21.943 Y183.13
X-22.346 Y183.066
X-22.457 Y183.052
X-22.604 Y183.024
X-22.767 Y182.98
X-22.932 Y182.92
X-23.113 Y182.837
X-23.294 Y182.735
X-23.477 Y182.61
X-23.666 Y182.457
X-23.842 Y182.287
X-24.003 Y182.105
X-24.157 Y181.897
X-24.283 Y181.696
X-24.398 Y181.471
X-24.491 Y181.245
X-24.562 Y181.02
X-24.618 Y180.774
X-24.65 Y180.545
X-24.664 Y180.298
X-24.624 Y180.007
X-24.521 Y179.732
X-24.361 Y179.486
X-24.151 Y179.282
X-23.901 Y179.128
X-23.623 Y179.032
X-23.331 Y179.
X-23.151
X-22.95 Y178.989
X-22.547 Y178.96
X-22.346 Y178.934
X-22.055 Y178.888
G3 X-21.388 Y179.566 R0.6
G1 X-21.497 Y180.344
X-21.67 Y181.579
X-21.804 Y182.538 F200.
G3 X-22.457 Y183.052 R0.6
G1 X-22.547 Y183.04 F500.
X-22.95 Y183.011
X-23.151 Y183.
X-23.755
X-23.939 Y182.991
X-24.088 Y182.971
X-24.236 Y182.937
X-24.397 Y182.887
X-24.561 Y182.82
X-24.729 Y182.734
X-24.903 Y182.626
X-25.075 Y182.499
X-25.242 Y182.352
X-25.408 Y182.18
X-25.548 Y182.007
X-25.683 Y181.81
X-25.798 Y181.607
X-25.891 Y181.406
X-25.974 Y181.177
X-26.034 Y180.959
X-26.076 Y180.734
X-26.1 Y180.496
X-26.103 Y180.269
X-26.044 Y179.956
X-25.912 Y179.665
X-25.716 Y179.415
X-25.465 Y179.218
X-25.174 Y179.086
X-24.861 Y179.027
X-24.561 Y179.007
X-24.359 Y179.
X-23.331
G3 X-22.759 Y179.689 R0.6
G1 X-22.89 Y180.553
X-23.025 Y181.448
X-23.183 Y182.49 F200.
G3 X-23.755 Y183. R0.6
G1 X-24.359 F500.
X-24.561 Y182.993
X-25.165 Y182.952
X-25.366 Y182.926
X-25.467 Y182.911
X-25.568 Y182.883
X-25.769 Y182.8
X-25.97 Y182.713
X-26.026 Y182.678
X-26.172 Y182.568
X-26.291 Y182.477
X-26.373 Y182.41
X-26.489 Y182.275
X-26.643 Y182.074
X-26.71 Y181.973
X-26.757 Y181.873
X-26.882 Y181.571
X-26.911 Y181.47
X-26.939 Y181.268
X-26.965 Y181.067
X-26.967 Y180.966
X-26.956 Y180.866
X-26.917 Y180.564
X-26.893 Y180.463
X-26.813 Y180.262
X-26.728 Y180.06
X-26.701 Y180.01
X-26.668 Y179.959
X-26.437 Y179.657
X-26.373 Y179.59
X-26.203 Y179.456
X-26.172 Y179.432
X-25.97 Y179.287
X-25.901 Y179.255
X-25.568 Y179.117
X-25.467 Y179.089
X-25.366 Y179.074
X-25.165 Y179.048
X-24.861 Y179.027
G3 X-24.327 Y179.935 R0.6
G1 X-24.376 Y179.99 Z-0.441
X-24.424 Y180.045 Z-0.427
X-24.471 Y180.098 Z-0.404
X-24.541 Y180.135 Z-0.366
X-24.605 Y180.169 Z-0.317
X-24.663 Y180.199 Z-0.257
X-24.712 Y180.208 Z-0.196
X-24.754 Y180.216 Z-0.128
X-24.786 Y180.222 Z-0.055
X-24.808 Y180.226 Z0.021
X-24.82 Z0.088
X-24.823 Y180.227 Z0.154
G0 Z5.
X-120.387 Y-5.461
Z0.477
G1 Z-0.123 F200.
X-120.385 Y-5.454 Z-0.217
X-120.38 Y-5.433 Z-0.308
X-120.371 Y-5.398 Z-0.395
X-120.359 Y-5.35 Z-0.475
X-120.344 Y-5.291 Z-0.547
X-120.326 Y-5.222 Z-0.608
X-120.306 Y-5.144 Z-0.657
X-120.284 Y-5.06 Z-0.693
X-120.262 Y-4.971 Z-0.715
X-120.238 Y-4.88 Z-0.723
G3 X-119.97 Y-3.014 R8.75
G1 Y-2.864 F500.
X-120.118 Y-1.99
X-120.222 Y-1.11
X-120.296 Y-0.227
X-120.348 Y0.657
X-120.384 Y1.543
X-120.41 Y2.428
X-120.428 Y3.314
X-120.44 Y4.2
X-120.449 Y5.086
X-120.456 Y5.972
X-120.46 Y6.859
X-120.465 Y8.631
X-120.468 Y11.289
X-120.47 Y17.492
Y47.62
Y98.129
Y148.638
Y199.147
Y249.656
Y252.315
X-120.332 Y252.736
X-119.859 Y253.485
X-119.173 Y254.046
X-118.387 Y254.455
X-117.552 Y254.751
X-116.691 Y254.962
X-115.818 Y255.112
X-114.938 Y255.218
X-114.055 Y255.293
X-113.171 Y255.346
X-112.285 Y255.383
X-111.399 Y255.409
X-110.514 Y255.427
X-109.627 Y255.44
X-108.741 Y255.449
X-107.855 Y255.455
X-106.969 Y255.46
X-105.197 Y255.465
X-104.317 Y255.466
X-104.024 Y255.5
X-103.746 Y255.598
X-103.496 Y255.755
X-103.287 Y255.964
X-103.13 Y256.214
X-103.033 Y256.493
X-103. Y256.786
G3 X-104.2 Y256.759 R0.6
X-104.199 Y256.744 R0.6
G1 X-104.196 Y256.65 Z-0.715
X-104.193 Y256.559 Z-0.693
X-104.19 Y256.472 Z-0.657
X-104.187 Y256.392 Z-0.608
X-104.184 Y256.32 Z-0.547
X-104.182 Y256.259 Z-0.475
X-104.181 Y256.21 Z-0.395
X-104.179 Y256.174 Z-0.308
Y256.152 Z-0.217
X-104.178 Y256.144 Z-0.123
G0 Z5.
X-16.162 Y260.319
Z0.477
G1 Z-0.123 F200.
X-16.166 Y260.312 Z-0.217
X-16.177 Y260.293 Z-0.308
X-16.196 Y260.262 Z-0.395
X-16.221 Y260.22 Z-0.475
X-16.252 Y260.167 Z-0.547
X-16.289 Y260.106 Z-0.608
X-16.33 Y260.037 Z-0.657
X-16.374 Y259.962 Z-0.693
X-16.421 Y259.883 Z-0.715
X-16.469 Y259.803 Z-0.723
G3 X-17. Y257.994 R3.798
G1 Y257.682 F500.
X-16.998 Y257.645
X-16.908 Y257.522
X-16.785 Y257.382
X-16.622 Y257.226
X-16.41 Y257.053
X-16.138 Y256.867
X-15.786 Y256.667
X-15.329 Y256.455
X-14.722 Y256.233
X-13.879 Y256.003
X-13.008 Y255.84
X-12.129 Y255.728
X-11.246 Y255.65
X-10.362 Y255.596
X-9.476 Y255.558
X-8.591 Y255.532
X-7.705 Y255.513
X-6.819 Y255.5
X-5.933 Y255.491
X-5.047 Y255.485
X-4.16 Y255.48
X-2.831 Y255.476
X-2.397 Y255.389
X-2.007 Y255.179
X-1.32 Y254.619
X-0.811 Y253.893
X-0.441 Y253.088
X-0.175 Y252.243
X0.015 Y251.377
X0.149 Y250.502
X0.245 Y249.621
X0.312 Y248.737
X0.359 Y247.852
X0.392 Y246.967
X0.415 Y246.081
X0.432 Y245.195
X0.443 Y244.309
X0.451 Y243.423
X0.457 Y242.537
X0.461 Y241.651
X0.465 Y239.878
X0.468 Y237.22
X0.47 Y230.131
Y221.27
Y170.761
Y120.252
Y69.743
Y19.234
Y2.84
X0.386 Y2.405
X0.178 Y2.014
X-0.38 Y1.326
X-1.104 Y0.815
X-1.909 Y0.444
X-2.754 Y0.177
X-3.619 Y-0.013
X-4.495 Y-0.148
X-5.376 Y-0.244
X-6.259 Y-0.311
X-7.144 Y-0.359
X-8.03 Y-0.392
X-8.915 Y-0.415
X-9.801 Y-0.432
X-10.687 Y-0.443
X-11.574 Y-0.451
X-12.46 Y-0.457
X-13.346 Y-0.461
X-15.118 Y-0.465
X-17.776 Y-0.468
X-24.865 Y-0.47
X-31.954
X-82.463
X-114.364
X-114.585 Y-0.465
X-115.02 Y-0.382
X-115.799 Y0.042
X-116.393 Y0.699
X-116.834 Y1.468
X-117.156 Y2.294
X-117.389 Y3.149
X-117.556 Y4.019
X-117.676 Y4.897
X-117.761 Y5.779
X-117.822 Y6.663
X-117.865 Y7.548
X-117.896 Y8.434
X-117.917 Y9.319
X-117.933 Y10.205
X-117.944 Y11.091
X-117.951 Y11.977
X-117.957 Y12.864
X-117.961 Y13.75
X-117.965 Y15.522
X-117.967 Y16.408
X-117.969 Y19.953
X-117.97 Y39.447
Y66.917
Y117.426
Y167.935
Y218.444
Y249.015
X-117.879 Y249.449
X-117.534 Y250.265
X-116.95 Y250.932
X-116.233 Y251.453
X-115.441 Y251.849
X-114.606 Y252.147
X-113.748 Y252.368
X-112.877 Y252.531
X-111.999 Y252.651
X-111.117 Y252.739
X-110.234 Y252.803
X-109.349 Y252.849
X-108.463 Y252.883
X-107.577 Y252.907
X-106.691 Y252.925
X-105.806 Y252.952
X-105.144 Y253.017
X-104.613 Y253.115
X-104.189 Y253.23
X-103.786 Y253.377
X-103.775 Y253.382
X-103.516 Y253.539
X-103.299 Y253.751
X-103.136 Y254.006
X-103.034 Y254.291
X-103. Y254.592
Y254.883
G3 X-104.2 Y254.856 R0.6
X-104.199 Y254.841 R0.6
G1 X-104.196 Y254.747 Z-0.715
X-104.193 Y254.656 Z-0.693
X-104.19 Y254.569 Z-0.657
X-104.187 Y254.489 Z-0.608
X-104.184 Y254.417 Z-0.547
X-104.182 Y254.356 Z-0.475
X-104.181 Y254.307 Z-0.395
X-104.179 Y254.271 Z-0.308
Y254.249 Z-0.217
X-104.178 Y254.241 Z-0.123
G0 Z5.
X-16.162 Y260.006
Z0.477
G1 Z-0.123 F200.
X-16.166 Y260. Z-0.217
X-16.177 Y259.981 Z-0.308
X-16.196 Y259.95 Z-0.395
X-16.221 Y259.908 Z-0.475
X-16.252 Y259.855 Z-0.547
X-16.289 Y259.794 Z-0.608
X-16.33 Y259.725 Z-0.657
X-16.374 Y259.65 Z-0.693
X-16.421 Y259.571 Z-0.715
X-16.469 Y259.491 Z-0.723
G3 X-17. Y257.682 R3.798
G1 Y256.786 F500.
X-16.993 Y256.636
X-16.933 Y256.469
X-16.846 Y256.276
X-16.73 Y256.069
X-16.588 Y255.857
X-16.395 Y255.615
X-16.165 Y255.372
X-15.884 Y255.121
X-15.53 Y254.854
X-15.107 Y254.587
X-14.578 Y254.312
X-13.908 Y254.032
X-13.065 Y253.759
X-12.203 Y253.555
X-11.33 Y253.402
X-10.451 Y253.289
X-9.569 Y253.205
X-8.685 Y253.143
X-7.8 Y253.097
X-6.914 Y253.063
X-6.029 Y253.038
X-5.595 Y252.949
X-4.776 Y252.611
X-4.103 Y252.034
X-3.576 Y251.322
X-3.173 Y250.532
X-2.871 Y249.699
X-2.645 Y248.842
X-2.479 Y247.972
X-2.357 Y247.094
X-2.267 Y246.213
X-2.202 Y245.329
X-2.154 Y244.444
X-2.12 Y243.559
X-2.095 Y242.673
X-2.077 Y241.787
X-2.064 Y240.901
X-2.054 Y240.015
X-2.047 Y239.129
X-2.042 Y238.243
X-2.036 Y236.471
X-2.032 Y233.812
X-2.03 Y228.496
Y216.09
Y165.581
Y115.072
Y64.563
Y14.054
Y6.079
X-2.103 Y5.642
X-2.419 Y4.814
X-2.985 Y4.132
X-3.691 Y3.597
X-4.478 Y3.189
X-5.309 Y2.882
X-6.165 Y2.653
X-7.035 Y2.484
X-7.912 Y2.36
X-8.794 Y2.27
X-9.678 Y2.204
X-10.562 Y2.156
X-11.448 Y2.121
X-12.334 Y2.095
X-13.219 Y2.077
X-14.106 Y2.064
X-14.992 Y2.054
X-15.878 Y2.048
X-16.764 Y2.043
X-18.536 Y2.036
X-21.194 Y2.032
X-26.511 Y2.03
X-42.461
X-92.97
X-111.579
X-112.007 Y2.143
X-112.809 Y2.521
X-113.461 Y3.121
X-113.97 Y3.846
X-114.359 Y4.642
X-114.652 Y5.479
X-114.87 Y6.338
X-115.031 Y7.209
X-115.15 Y8.087
X-115.237 Y8.969
X-115.301 Y9.853
X-115.347 Y10.738
X-115.381 Y11.623
X-115.406 Y12.509
X-115.423 Y13.395
X-115.436 Y14.281
X-115.446 Y15.167
X-115.453 Y16.053
X-115.457 Y16.939
X-115.463 Y18.711
X-115.468 Y21.37
X-115.47 Y26.686
Y32.003
Y82.512
Y133.021
Y183.53
Y234.039
Y246.445
X-115.213 Y247.293
X-114.706 Y248.02
X-114.042 Y248.606
X-113.284 Y249.065
X-112.471 Y249.418
X-111.626 Y249.686
X-110.764 Y249.888
X-109.891 Y250.04
X-109.012 Y250.152
X-108.13 Y250.239
X-107.247 Y250.318
X-106.366 Y250.411
X-105.489 Y250.539
X-104.79 Y250.689
X-104.274 Y250.845
X-103.814 Y251.028
X-103.74 Y251.064
X-103.492 Y251.224
X-103.285 Y251.435
X-103.129 Y251.686
X-103.033 Y251.965
X-103. Y252.258
Y254.592
G3 X-103.621 Y255.171 R0.6
X-104.199 Y254.551 R0.6
G1 X-104.196 Y254.457 Z-0.715
X-104.193 Y254.365 Z-0.693
X-104.19 Y254.278 Z-0.657
X-104.187 Y254.198 Z-0.608
X-104.184 Y254.127 Z-0.547
X-104.182 Y254.065 Z-0.475
X-104.181 Y254.016 Z-0.395
X-104.179 Y253.98 Z-0.308
Y253.958 Z-0.217
X-104.178 Y253.951 Z-0.123
G0 Z5.
X-16.162 Y259.11
Z0.477
G1 Z-0.123 F200.
X-16.166 Y259.104 Z-0.217
X-16.177 Y259.085 Z-0.308
X-16.196 Y259.054 Z-0.395
X-16.221 Y259.012 Z-0.475
X-16.252 Y258.959 Z-0.547
X-16.289 Y258.898 Z-0.608
X-16.33 Y258.829 Z-0.657
X-16.374 Y258.754 Z-0.693
X-16.421 Y258.675 Z-0.715
X-16.469 Y258.595 Z-0.723
G3 X-17. Y256.786 R3.798
G1 Y255.376 F500.
X-16.993 Y255.226
X-16.96 Y255.038
X-16.909 Y254.839
X-16.833 Y254.62
X-16.725 Y254.38
X-16.59 Y254.134
X-16.405 Y253.854
X-16.191 Y253.583
X-15.906 Y253.279
X-15.573 Y252.977
X-15.156 Y252.659
X-14.667 Y252.346
X-14.05 Y252.021
X-13.286 Y251.696
X-12.444 Y251.418
X-11.585 Y251.2
X-10.715 Y251.031
X-9.839 Y250.899
X-8.959 Y250.797
X-8.088 Y250.632
X-7.31 Y250.208
X-6.666 Y249.599
X-6.152 Y248.877
X-5.752 Y248.087
X-5.445 Y247.255
X-5.212 Y246.4
X-5.037 Y245.532
X-4.905 Y244.656
X-4.807 Y243.775
X-4.734 Y242.892
X-4.68 Y242.007
X-4.641 Y241.122
X-4.611 Y240.236
X-4.59 Y239.351
X-4.574 Y238.465
X-4.562 Y237.578
X-4.553 Y236.692
X-4.547 Y235.806
X-4.542 Y234.92
X-4.537 Y233.148
X-4.533 Y230.49
X-4.53 Y225.173
Y211.881
Y161.372
Y110.863
Y60.354
Y9.845
Y8.959
X-4.586 Y8.519
X-4.85 Y7.674
X-5.364 Y6.951
X-6.033 Y6.37
X-6.794 Y5.916
X-7.608 Y5.566
X-8.454 Y5.301
X-9.317 Y5.102
X-10.19 Y4.953
X-11.07 Y4.842
X-11.952 Y4.76
X-12.836 Y4.699
X-13.721 Y4.654
X-14.606 Y4.621
X-15.492 Y4.596
X-16.378 Y4.579
X-17.264 Y4.565
X-18.15 Y4.556
X-19.036 Y4.549
X-19.922 Y4.544
X-20.809 Y4.54
X-22.581 Y4.535
X-25.239 Y4.532
X-31.442 Y4.53
X-51.823
X-102.332
X-108.535
X-109.413 Y4.648
X-110.199 Y5.057
X-110.847 Y5.661
X-111.362 Y6.382
X-111.762 Y7.173
X-112.067 Y8.005
X-112.298 Y8.861
X-112.471 Y9.73
X-112.601 Y10.606
X-112.697 Y11.487
X-112.769 Y12.37
X-112.822 Y13.255
X-112.861 Y14.14
X-112.89 Y15.026
X-112.912 Y15.912
X-112.927 Y16.798
X-112.939 Y17.684
X-112.947 Y18.57
X-112.953 Y19.456
X-112.958 Y20.342
X-112.963 Y22.114
X-112.967 Y24.773
X-112.97 Y30.089
Y46.926
Y97.435
Y147.944
Y198.453
Y243.645
X-112.777 Y244.51
X-112.322 Y245.27
X-111.693 Y245.894
X-110.958 Y246.39
X-110.161 Y246.776
X-109.327 Y247.077
X-108.474 Y247.317
X-107.612 Y247.52
X-106.746 Y247.708
X-105.881 Y247.902
X-105.024 Y248.126
X-104.343 Y248.351
X-103.838 Y248.566
X-103.711 Y248.633
X-103.472 Y248.795
X-103.273 Y249.004
X-103.124 Y249.251
X-103.031 Y249.525
X-103. Y249.812
Y252.258
G3 X-104.2 Y252.232 R0.6
X-104.199 Y252.217 R0.6
G1 X-104.196 Y252.123 Z-0.715
X-104.193 Y252.031 Z-0.693
X-104.19 Y251.944 Z-0.657
X-104.187 Y251.864 Z-0.608
X-104.184 Y251.793 Z-0.547
X-104.182 Y251.731 Z-0.475
X-104.181 Y251.682 Z-0.395
X-104.179 Y251.646 Z-0.308
Y251.624 Z-0.217
X-104.178 Y251.617 Z-0.123
G0 Z5.
X-16.162 Y257.701
Z0.477
G1 Z-0.123 F200.
X-16.166 Y257.694 Z-0.217
X-16.177 Y257.675 Z-0.308
X-16.196 Y257.644 Z-0.395
X-16.221 Y257.602 Z-0.475
X-16.252 Y257.55 Z-0.547
X-16.289 Y257.488 Z-0.608
X-16.33 Y257.419 Z-0.657
X-16.374 Y257.344 Z-0.693
X-16.421 Y257.266 Z-0.715
X-16.469 Y257.185 Z-0.723
G3 X-17. Y255.376 R3.798
G1 Y253.564 F500.
X-16.99 Y253.361
X-16.962 Y253.156
X-16.916 Y252.944
X-16.839 Y252.697
X-16.739 Y252.449
X-16.597 Y252.166
X-16.42 Y251.877
X-16.192 Y251.566
X-15.905 Y251.237
X-15.562 Y250.903
X-15.138 Y250.554
X-14.617 Y250.194
X-14.006 Y249.843
X-13.236 Y249.482
X-12.406 Y249.174
X-11.555 Y248.925
X-10.711 Y248.656
X-9.952 Y248.198
X-9.311 Y247.586
X-8.79 Y246.87
X-8.377 Y246.086
X-8.054 Y245.261
X-7.805 Y244.41
X-7.614 Y243.545
X-7.469 Y242.671
X-7.359 Y241.791
X-7.276 Y240.909
X-7.214 Y240.025
X-7.167 Y239.14
X-7.132 Y238.255
X-7.106 Y237.369
X-7.086 Y236.483
X-7.072 Y235.597
X-7.061 Y234.711
X-7.053 Y233.825
X-7.047 Y232.939
X-7.042 Y232.053
X-7.037 Y230.281
X-7.033 Y227.622
X-7.03 Y222.306
Y208.128
Y157.619
Y107.11
Y56.601
Y11.408
X-7.211 Y10.541
X-7.656 Y9.775
X-8.277 Y9.142
X-9.007 Y8.639
X-9.801 Y8.247
X-10.635 Y7.946
X-11.491 Y7.716
X-12.359 Y7.543
X-13.236 Y7.412
X-14.117 Y7.314
X-15. Y7.241
X-15.884 Y7.186
X-16.769 Y7.146
X-17.655 Y7.116
X-18.541 Y7.093
X-19.427 Y7.077
X-20.313 Y7.064
X-21.199 Y7.055
X-22.085 Y7.049
X-22.971 Y7.044
X-24.743 Y7.037
X-27.402 Y7.033
X-31.832 Y7.031
X-61.074 Y7.03
X-106.267
X-107.119 Y7.271
X-107.859 Y7.759
X-108.465 Y8.405
X-108.944 Y9.151
X-109.316 Y9.955
X-109.602 Y10.794
X-109.819 Y11.653
X-109.984 Y12.524
X-110.107 Y13.401
X-110.2 Y14.282
X-110.269 Y15.166
X-110.321 Y16.05
X-110.36 Y16.936
X-110.388 Y17.821
X-110.41 Y18.707
X-110.425 Y19.593
X-110.437 Y20.479
X-110.446 Y21.365
X-110.452 Y22.251
X-110.457 Y23.137
X-110.463 Y24.91
X-110.467 Y27.568
X-110.469 Y31.999
X-110.47 Y61.241
Y111.75
Y162.259
Y212.768
Y241.124
X-110.256 Y241.984
X-109.796 Y242.741
X-109.174 Y243.372
X-108.455 Y243.89
X-107.68 Y244.319
X-106.873 Y244.686
X-106.051 Y245.016
X-105.224 Y245.335
X-104.403 Y245.669
X-103.803 Y245.961
X-103.653 Y246.05
X-103.432 Y246.215
X-103.249 Y246.421
X-103.113 Y246.661
X-103.028 Y246.923
X-103. Y247.197
Y249.812
G3 X-104.2 Y249.785 R0.6
X-104.199 Y249.77 R0.6
G1 X-104.196 Y249.676 Z-0.715
X-104.193 Y249.585 Z-0.693
X-104.19 Y249.498 Z-0.657
X-104.187 Y249.418 Z-0.608
X-104.184 Y249.346 Z-0.547
X-104.182 Y249.285 Z-0.475
X-104.181 Y249.236 Z-0.395
X-104.179 Y249.2 Z-0.308
Y249.178 Z-0.217
X-104.178 Y249.171 Z-0.123
G0 Z5.
X-16.162 Y255.888
Z0.477
G1 Z-0.123 F200.
X-16.166 Y255.882 Z-0.217
X-16.177 Y255.863 Z-0.308
X-16.196 Y255.832 Z-0.395
X-16.221 Y255.79 Z-0.475
X-16.252 Y255.737 Z-0.547
X-16.289 Y255.676 Z-0.608
X-16.33 Y255.607 Z-0.657
X-16.374 Y255.532 Z-0.693
X-16.421 Y255.453 Z-0.715
X-16.469 Y255.372 Z-0.723
G3 X-17. Y253.564 R3.798
G1 Y251.55 F500.
X-16.986 Y251.273
X-16.958 Y251.06
X-16.907 Y250.83
X-16.825 Y250.566
X-16.719 Y250.301
X-16.564 Y249.995
X-16.379 Y249.692
X-16.129 Y249.351
X-15.83 Y249.008
X-15.451 Y248.639
X-15.007 Y248.274
X-14.395 Y247.851
X-13.627 Y247.409
X-12.883 Y246.927
X-12.222 Y246.337
X-11.66 Y245.652
X-11.198 Y244.896
X-10.826 Y244.092
X-10.53 Y243.256
X-10.298 Y242.401
X-10.118 Y241.534
X-9.978 Y240.659
X-9.871 Y239.779
X-9.788 Y238.897
X-9.725 Y238.013
X-9.678 Y237.128
X-9.641 Y236.243
X-9.614 Y235.357
X-9.593 Y234.471
X-9.577 Y233.585
X-9.565 Y232.699
X-9.557 Y231.813
X-9.55 Y230.927
X-9.545 Y230.041
X-9.538 Y228.268
X-9.533 Y225.61
X-9.531 Y221.179
X-9.53 Y203.457
Y152.948
Y102.439
Y51.93
Y13.827
X-9.763 Y12.972
X-10.239 Y12.225
X-10.877 Y11.609
X-11.615 Y11.119
X-12.415 Y10.736
X-13.25 Y10.442
X-14.107 Y10.216
X-14.977 Y10.045
X-15.853 Y9.916
X-16.734 Y9.819
X-17.617 Y9.746
X-18.502 Y9.691
X-19.387 Y9.65
X-20.272 Y9.619
X-21.158 Y9.596
X-22.044 Y9.579
X-22.93 Y9.567
X-23.816 Y9.557
X-24.702 Y9.55
X-25.588 Y9.545
X-27.361 Y9.538
X-29.133 Y9.534
X-32.677 Y9.531
X-42.425 Y9.53
X-70.781
X-103.567
X-104.432 Y9.726
X-105.195 Y10.176
X-105.825 Y10.798
X-106.329 Y11.528
X-106.722 Y12.322
X-107.027 Y13.154
X-107.259 Y14.009
X-107.436 Y14.877
X-107.57 Y15.753
X-107.671 Y16.633
X-107.747 Y17.516
X-107.803 Y18.401
X-107.846 Y19.286
X-107.877 Y20.171
X-107.901 Y21.057
X-107.919 Y21.943
X-107.932 Y22.829
X-107.942 Y23.715
X-107.949 Y24.601
X-107.954 Y25.487
X-107.959 Y26.373
X-107.964 Y28.146
X-107.967 Y30.804
X-107.97 Y36.121
Y75.996
Y126.505
Y177.014
Y227.523
Y238.157
X-107.899 Y239.04
X-107.579 Y239.866
X-107.074 Y240.594
X-106.451 Y241.224
X-105.756 Y241.774
X-105.02 Y242.268
X-104.266 Y242.734
X-103.612 Y243.154
X-103.404 Y243.32
X-103.233 Y243.523
X-103.105 Y243.757
X-103.027 Y244.011
X-103. Y244.276
Y247.197
G3 X-104.2 Y247.17 R0.6
X-104.199 Y247.155 R0.6
G1 X-104.196 Y247.061 Z-0.715
X-104.193 Y246.97 Z-0.693
X-104.19 Y246.883 Z-0.657
X-104.187 Y246.803 Z-0.608
X-104.184 Y246.731 Z-0.547
X-104.182 Y246.67 Z-0.475
X-104.181 Y246.621 Z-0.395
X-104.179 Y246.585 Z-0.308
Y246.563 Z-0.217
X-104.178 Y246.555 Z-0.123
G0 Z5.
X-16.162 Y253.874
Z0.477
G1 Z-0.123 F200.
X-16.166 Y253.868 Z-0.217
X-16.177 Y253.849 Z-0.308
X-16.196 Y253.818 Z-0.395
X-16.221 Y253.776 Z-0.475
X-16.252 Y253.723 Z-0.547
X-16.289 Y253.662 Z-0.608
X-16.33 Y253.593 Z-0.657
X-16.374 Y253.518 Z-0.693
X-16.421 Y253.439 Z-0.715
X-16.469 Y253.359 Z-0.723
G3 X-17. Y251.55 R3.798
G1 Y249.335 F500.
X-16.988 Y249.102
X-16.958 Y248.873
X-16.906 Y248.64
X-16.823 Y248.369
X-16.705 Y248.078
X-16.55 Y247.77
X-16.314 Y247.385
X-15.79 Y246.67
X-15.217 Y245.994
X-14.672 Y245.296
X-14.184 Y244.556
X-13.764 Y243.776
X-13.412 Y242.962
X-13.123 Y242.125
X-12.889 Y241.27
X-12.702 Y240.404
X-12.552 Y239.53
X-12.435 Y238.652
X-12.343 Y237.771
X-12.271 Y236.888
X-12.215 Y236.003
X-12.172 Y235.118
X-12.138 Y234.233
X-12.113 Y233.347
X-12.093 Y232.461
X-12.078 Y231.575
X-12.066 Y230.689
X-12.058 Y229.803
X-12.051 Y228.917
X-12.046 Y228.031
X-12.039 Y226.258
X-12.034 Y223.6
X-12.031 Y220.056
X-12.03 Y208.536
Y199.675
Y149.166
Y98.657
Y48.148
Y17.133
X-12.036 Y16.247
X-12.307 Y15.403
X-12.807 Y14.672
X-13.459 Y14.072
X-14.204 Y13.593
X-15.008 Y13.219
X-15.846 Y12.931
X-16.704 Y12.71
X-17.574 Y12.542
X-18.451 Y12.415
X-19.332 Y12.319
X-20.215 Y12.247
X-21.1 Y12.192
X-21.683 Y12.165
X-21.742 Y12.161
X-21.801 Y12.154
X-21.859 Y12.145
X-21.943 Y12.13
X-22.346 Y12.066
X-22.547 Y12.04
X-22.95 Y12.011
X-23.151 Y12.
X-96.849
X-97.05 Y12.011
X-97.936 Y12.029
X-100.594 Y12.03
X-101.478 Y12.09
X-102.298 Y12.427
X-102.997 Y12.972
X-103.564 Y13.653
X-104.013 Y14.417
X-104.362 Y15.231
X-104.631 Y16.075
X-104.837 Y16.937
X-104.994 Y17.81
X-105.112 Y18.688
X-105.201 Y19.569
X-105.269 Y20.453
X-105.319 Y21.338
X-105.357 Y22.223
X-105.386 Y23.109
X-105.407 Y23.994
X-105.423 Y24.88
X-105.435 Y25.766
X-105.444 Y26.652
X-105.451 Y27.539
X-105.456 Y28.425
X-105.462 Y30.197
X-105.467 Y32.855
X-105.469 Y37.286
X-105.47 Y56.781
Y107.29
Y157.799
Y208.308
Y235.777
X-105.401 Y236.661
X-105.129 Y237.504
X-104.695 Y238.277
X-104.153 Y238.978
X-103.546 Y239.624
X-103.383 Y239.789
X-103.22 Y239.991
X-103.099 Y240.219
X-103.025 Y240.467
X-103. Y240.725
Y244.276
G3 X-103.941 Y244.748 R0.6
G1 X-103.993 Y244.696 Z-0.718
X-104.045 Y244.645 Z-0.704
X-104.094 Y244.595 Z-0.682
X-104.127 Y244.522 Z-0.643
X-104.156 Y244.456 Z-0.594
X-104.183 Y244.396 Z-0.535
X-104.188 Y244.35 Z-0.478
X-104.193 Y244.31 Z-0.416
X-104.197 Y244.278 Z-0.35
X-104.2 Y244.255 Z-0.28
Y244.249 Z-0.256
X-104.199 Y244.238 Z-0.19
Y244.234 Z-0.123
G0 Z5.
X-94.79 Y11.013
Z0.477
G1 Z-0.123 F200.
X-94.796 Y11.017 Z-0.217
X-94.814 Y11.03 Z-0.308
X-94.844 Y11.05 Z-0.395
X-94.884 Y11.079 Z-0.475
X-94.934 Y11.113 Z-0.547
X-94.993 Y11.154 Z-0.608
X-95.059 Y11.2 Z-0.657
X-95.131 Y11.249 Z-0.693
X-95.206 Y11.302 Z-0.715
X-95.283 Y11.355 Z-0.723
G3 X-97.05 Y12.011 R3.798
G1 X-97.453 Y12.04 F500.
X-97.654 Y12.066
X-98.057 Y12.13
X-98.258 Y12.166
X-98.762 Y12.267
X-98.812 Y12.281
X-98.862 Y12.299
X-99.265 Y12.468
X-99.364 Y12.512
X-100.154 Y12.915
X-100.473 Y13.119
X-100.675 Y13.272
X-100.876 Y13.45
X-100.952 Y13.519
X-101.555 Y14.123
X-101.681 Y14.265
X-101.732 Y14.324
X-101.883 Y14.526
X-102.018 Y14.727
X-102.333 Y15.331
X-102.434 Y15.533
X-102.625 Y15.935
X-102.688 Y16.105
X-102.699 Y16.137
X-102.758 Y16.338
X-102.805 Y16.54
X-102.902 Y17.144
X-102.957 Y17.547
X-102.985 Y17.748
X-102.994 Y17.949
X-102.999 Y18.352
X-103. Y18.553
Y32.449
X-102.996 Y33.053
X-102.982 Y33.254
X-102.925 Y34.138
X-102.938 Y35.024
X-102.947 Y35.91
X-102.954 Y36.797
X-102.959 Y37.683
X-102.964 Y39.455
X-102.968 Y42.113
X-102.97 Y47.43
Y48.549
X-102.971 Y48.597
X-102.973 Y48.644
X-102.977 Y48.692
X-102.985 Y48.76
X-102.996 Y49.163
X-103. Y49.365
Y140.59
X-102.997 Y140.791
X-103.029 Y141.677
X-103.011 Y142.563
X-102.999 Y143.449
X-102.99 Y144.335
X-102.984 Y145.221
X-102.98 Y146.107
X-102.975 Y147.879
X-102.972 Y150.538
X-102.97 Y156.541
X-102.971 Y156.594
X-102.975 Y156.647
X-102.982 Y156.7
X-102.991 Y156.901
X-102.999 Y157.304
X-103. Y157.506
Y172.609
X-102.999 Y172.811
X-102.99 Y173.012
X-102.992 Y173.898
X-102.986 Y174.784
X-102.981 Y175.67
X-102.975 Y177.442
X-102.972 Y180.101
X-102.97 Y186.304
Y188.61
X-102.971 Y188.66
X-102.974 Y188.708
X-102.978 Y188.757
X-102.996 Y188.921
X-102.999 Y189.122
X-103. Y190.733
Y240.725
G3 X-103.941 Y241.197 R0.6
G1 X-103.993 Y241.145 Z-0.718
X-104.045 Y241.093 Z-0.704
X-104.094 Y241.043 Z-0.682
X-104.127 Y240.971 Z-0.643
X-104.156 Y240.904 Z-0.594
X-104.183 Y240.845 Z-0.535
X-104.188 Y240.798 Z-0.478
X-104.193 Y240.759 Z-0.416
X-104.197 Y240.727 Z-0.35
X-104.2 Y240.704 Z-0.28
Y240.698 Z-0.256
X-104.199 Y240.687 Z-0.19
Y240.683 Z-0.123
G0 Z5.
X-103.935 Y170.729
Z0.477
G1 Z-0.123 F200.
X-103.931 Y170.735 Z-0.217
X-103.919 Y170.754 Z-0.308
X-103.899 Y170.784 Z-0.395
X-103.872 Y170.825 Z-0.475
X-103.838 Y170.876 Z-0.547
X-103.799 Y170.936 Z-0.608
X-103.755 Y171.003 Z-0.657
X-103.707 Y171.075 Z-0.693
X-103.656 Y171.152 Z-0.715
X-103.605 Y171.23 Z-0.723
G3 X-102.99 Y173.012 R3.798
G1 X-102.971 Y173.415 F500.
X-102.876 Y174.019
X-102.767 Y174.623
X-102.711 Y174.824
X-102.688 Y174.9
X-102.641 Y175.026
X-102.556 Y175.227
X-102.455 Y175.428
X-102.25 Y175.831
X-102.138 Y176.033
X-101.883 Y176.481
X-101.866 Y176.505
X-101.758 Y176.681
X-101.551 Y177.089
X-101.332 Y177.625
X-101.105 Y178.352
X-100.911 Y179.217
X-100.778 Y180.092
X-100.685 Y180.974
X-100.62 Y181.857
X-100.575 Y182.742
X-100.547 Y183.524
X-100.568 Y183.812
X-100.65 Y184.088
X-100.79 Y184.34
X-100.98 Y184.556
X-101.077 Y184.645
X-101.125 Y184.692
X-101.323 Y184.893
X-101.681 Y185.261
X-101.714 Y185.296
X-101.86 Y185.497
X-102.084 Y185.846
X-102.113 Y185.9
X-102.318 Y186.303
X-102.42 Y186.504
X-102.692 Y187.108
X-102.751 Y187.31
X-102.796 Y187.511
X-102.834 Y187.713
X-102.929 Y188.317
X-102.978 Y188.757
G3 X-104.169 Y188.609 R0.6
G1 X-104.166 Y188.584
X-102.991 Y177.243
X-102.945 Y176.8 F200.
G3 X-101.866 Y176.505 R0.6
G1 X-101.829 Y176.559 F500.
X-101.761 Y176.637
X-101.39 Y177.039
X-101.279 Y177.154
X-101.192 Y177.241
X-100.776 Y177.644
X-100.675 Y177.738
X-100.534 Y177.845
X-100.5 Y177.867
X-100.372 Y177.963
X-100.184 Y178.129
X-99.984 Y178.339
X-99.766 Y178.609
X-99.543 Y178.938
X-99.304 Y179.362
X-99.058 Y179.899
X-98.805 Y180.6
X-98.608 Y181.328
X-98.508 Y181.88
X-98.482 Y182.155
X-98.484 Y182.426
X-98.544 Y182.691
X-98.658 Y182.938
X-98.821 Y183.155
X-99.027 Y183.333
X-99.265 Y183.463
X-99.307 Y183.484
X-99.869 Y183.769
X-100.089 Y183.886
X-100.272 Y183.987
X-100.44 Y184.088
X-100.473 Y184.111
X-100.675 Y184.276
X-100.98 Y184.556
G3 X-101.967 Y184.042 R0.6
G1 X-101.922 Y183.582
X-101.479 Y178.982
X-101.415 Y178.319 F200.
G3 X-100.5 Y177.867 R0.6
G1 X-100.272 Y178.018 F500.
X-100.07 Y178.126
X-99.835 Y178.248
X-99.44 Y178.449
X-99.265 Y178.535
X-99.064 Y178.627
X-99.005 Y178.651
X-98.852 Y178.711
X-98.671 Y178.801
X-98.476 Y178.92
X-98.255 Y179.081
X-98.041 Y179.266
X-97.81 Y179.502
X-97.593 Y179.763
X-97.399 Y180.042
X-97.225 Y180.342
X-97.093 Y180.62
X-96.981 Y180.921
X-96.902 Y181.198
X-96.845 Y181.492
X-96.828 Y181.65
Y181.94
X-96.89 Y182.222
X-97.012 Y182.485
X-97.188 Y182.715
X-97.409 Y182.902
X-97.665 Y183.036
X-97.944 Y183.112
X-98.057 Y183.13
X-98.258 Y183.167
X-98.46 Y183.207
G3 X-99.146 Y182.723 R0.6
G1 X-99.319 Y181.784
X-99.65 Y179.979
X-99.769 Y179.333 F200.
G3 X-99.005 Y178.651 R0.6
G1 X-98.862 Y178.699 F500.
X-98.661 Y178.753
X-98.165 Y178.852
X-98.057 Y178.87
X-97.654 Y178.934
X-97.543 Y178.948
X-97.396 Y178.976
X-97.234 Y179.02
X-97.064 Y179.082
X-96.887 Y179.164
X-96.701 Y179.27
X-96.517 Y179.396
X-96.331 Y179.548
X-96.155 Y179.717
X-95.99 Y179.906
X-95.839 Y180.11
X-95.715 Y180.311
X-95.598 Y180.539
X-95.508 Y180.761
X-95.436 Y180.991
X-95.381 Y181.233
X-95.35 Y181.461
X-95.336 Y181.71
X-95.377 Y182.
X-95.479 Y182.273
X-95.639 Y182.517
X-95.849 Y182.72
X-96.098 Y182.873
X-96.374 Y182.968
X-96.664 Y183.
X-96.849
X-97.05 Y183.011
X-97.453 Y183.04
X-97.654 Y183.066
X-97.944 Y183.112
G3 X-98.612 Y182.434 R0.6
G1 X-98.503 Y181.656
X-98.33 Y180.421
X-98.196 Y179.462 F200.
G3 X-97.543 Y178.948 R0.6
G1 X-97.453 Y178.96 F500.
X-97.05 Y178.989
X-96.849 Y179.
X-96.245
X-96.062 Y179.009
X-95.913 Y179.029
X-95.764 Y179.063
X-95.603 Y179.114
X-95.44 Y179.18
X-95.271 Y179.266
X-95.096 Y179.375
X-94.925 Y179.502
X-94.758 Y179.649
X-94.592 Y179.822
X-94.451 Y179.995
X-94.316 Y180.192
X-94.201 Y180.395
X-94.108 Y180.597
X-94.024 Y180.825
X-93.965 Y181.044
X-93.923 Y181.269
X-93.899 Y181.507
X-93.896 Y181.731
X-93.955 Y182.045
X-94.087 Y182.335
X-94.284 Y182.585
X-94.534 Y182.782
X-94.825 Y182.914
X-95.138 Y182.973
X-95.439 Y182.993
X-95.641 Y183.
X-96.664
G3 X-97.236 Y182.312 R0.6
G1 X-97.107 Y181.447
X-96.973 Y180.552
X-96.817 Y179.511 F200.
G3 X-96.245 Y179. R0.6
G1 X-95.641 F500.
X-95.439 Y179.007
X-94.835 Y179.048
X-94.634 Y179.074
X-94.533 Y179.089
X-94.432 Y179.117
X-94.099 Y179.255
X-94.03 Y179.287
X-93.828 Y179.432
X-93.797 Y179.456
X-93.627 Y179.59
X-93.563 Y179.657
X-93.332 Y179.959
X-93.299 Y180.01
X-93.272 Y180.06
X-93.187 Y180.262
X-93.107 Y180.463
X-93.083 Y180.564
X-93.044 Y180.866
X-93.033 Y180.966
X-93.035 Y181.067
X-93.061 Y181.268
X-93.089 Y181.47
X-93.118 Y181.571
X-93.243 Y181.873
X-93.29 Y181.973
X-93.357 Y182.074
X-93.511 Y182.275
X-93.627 Y182.41
X-93.709 Y182.477
X-93.828 Y182.568
X-93.974 Y182.678
X-94.03 Y182.713
X-94.231 Y182.8
X-94.432 Y182.883
X-94.533 Y182.911
X-94.634 Y182.926
X-94.835 Y182.952
X-95.138 Y182.973
G3 X-95.672 Y182.065 R0.6
G1 X-95.623 Y182.01 Z-0.718
X-95.575 Y181.955 Z-0.704
X-95.528 Y181.902 Z-0.682
X-95.458 Y181.865 Z-0.643
X-95.394 Y181.831 Z-0.594
X-95.336 Y181.801 Z-0.535
X-95.286 Y181.792 Z-0.473
X-95.245 Y181.784 Z-0.405
X-95.213 Y181.778 Z-0.332
X-95.19 Y181.774 Z-0.256
X-95.179 Z-0.19
X-95.176 Y181.773 Z-0.123
G0 Z5.
X-103.867 Y138.479
Z0.477
G1 Z-0.123 F200.
X-103.863 Y138.485 Z-0.217
X-103.852 Y138.504 Z-0.308
X-103.833 Y138.534 Z-0.395
X-103.807 Y138.576 Z-0.475
X-103.775 Y138.628 Z-0.547
X-103.738 Y138.689 Z-0.608
X-103.696 Y138.758 Z-0.657
X-103.65 Y138.832 Z-0.693
X-103.602 Y138.91 Z-0.715
X-103.553 Y138.99 Z-0.723
G3 X-102.997 Y140.791 R3.798
G1 X-102.992 Y141.194 F500.
X-102.966 Y141.395
X-102.91 Y141.798
X-102.879 Y141.999
X-102.814 Y142.402
X-102.772 Y142.604
X-102.719 Y142.805
X-102.65 Y143.006
X-102.558 Y143.208
X-102.462 Y143.409
X-102.362 Y143.61
X-102.152 Y144.013
X-102.047 Y144.215
X-101.924 Y144.416
X-101.75 Y144.7
X-101.542 Y145.116
X-101.322 Y145.662
X-101.093 Y146.405
X-100.904 Y147.271
X-100.773 Y148.147
X-100.682 Y149.029
X-100.618 Y149.913
X-100.574 Y150.798
X-100.549 Y151.516
X-100.567 Y151.789
X-100.641 Y152.052
X-100.766 Y152.294
X-100.939 Y152.506
X-101.508 Y153.075
X-101.687 Y153.277
X-101.852 Y153.478
X-101.883 Y153.522
X-101.988 Y153.679
X-102.308 Y154.284
X-102.411 Y154.485
X-102.606 Y154.888
X-102.688 Y155.104
X-102.745 Y155.29
X-102.795 Y155.492
X-102.894 Y156.096
X-102.982 Y156.7
G3 X-104.169 Y156.535 R0.6
G1 X-104.164 Y156.487
X-103.047 Y145.149
X-103.004 Y144.712 F200.
G3 X-101.924 Y144.416 R0.6
G1 X-101.883 Y144.476 F500.
X-101.782 Y144.617
X-101.606 Y144.819
X-101.48 Y144.953
X-101.01 Y145.423
X-100.876 Y145.552
X-100.675 Y145.729
X-100.56 Y145.826
X-100.533 Y145.842
X-100.411 Y145.928
X-100.221 Y146.091
X-100.026 Y146.289
X-99.81 Y146.548
X-99.588 Y146.865
X-99.349 Y147.273
X-99.107 Y147.781
X-98.854 Y148.448
X-98.64 Y149.197
X-98.524 Y149.779
X-98.488 Y150.1
X-98.486 Y150.379
X-98.542 Y150.651
X-98.653 Y150.906
X-98.814 Y151.132
X-99.019 Y151.321
X-99.258 Y151.462
X-99.466 Y151.564
X-100.059 Y151.867
X-100.181 Y151.933
G3 X-101.048 Y151.443 R0.6
G1 X-101.102 Y150.735
X-101.389 Y146.986
X-101.433 Y146.407 F200.
G3 X-100.533 Y145.842 R0.6
G1 X-100.239 Y146.027 F500.
X-100.07 Y146.128
X-99.466 Y146.436
X-99.265 Y146.535
X-99.057 Y146.631
X-98.95 Y146.669
X-98.811 Y146.726
X-98.63 Y146.822
X-98.42 Y146.955
X-98.208 Y147.116
X-97.985 Y147.317
X-97.761 Y147.555
X-97.546 Y147.826
X-97.355 Y148.112
X-97.197 Y148.399
X-97.068 Y148.686
X-96.966 Y148.977
X-96.893 Y149.258
X-96.842 Y149.552
X-96.831 Y149.679
X-96.836 Y149.964
X-96.902 Y150.242
X-97.026 Y150.499
X-97.201 Y150.724
X-97.421 Y150.907
X-97.674 Y151.038
X-97.95 Y151.113
X-98.057 Y151.13
X-98.258 Y151.165
X-98.661 Y151.239
X-98.751 Y151.263
X-98.862 Y151.301
X-99.064 Y151.373
X-99.258 Y151.462
G3 X-99.999 Y150.916 R0.537
G1 X-99.927 Y150.14
X-99.733 Y148.054
X-99.647 Y147.132 F200.
G3 X-98.95 Y146.669 R0.537
G1 X-98.862 Y146.7 F500.
X-98.661 Y146.753
X-98.258 Y146.833
X-98.057 Y146.87
X-97.654 Y146.934
X-97.543 Y146.948
X-97.396 Y146.976
X-97.232 Y147.021
X-97.066 Y147.082
X-96.886 Y147.165
X-96.703 Y147.27
X-96.52 Y147.395
X-96.332 Y147.549
X-96.156 Y147.719
X-95.995 Y147.903
X-95.841 Y148.111
X-95.717 Y148.313
X-95.602 Y148.54
X-95.511 Y148.765
X-95.44 Y148.991
X-95.385 Y149.236
X-95.354 Y149.465
X-95.341 Y149.713
X-95.381 Y150.001
X-95.484 Y150.274
X-95.644 Y150.518
X-95.853 Y150.721
X-96.102 Y150.873
X-96.378 Y150.968
X-96.667 Y151.
X-96.849
X-97.05 Y151.011
X-97.453 Y151.04
X-97.624 Y151.061
X-97.95 Y151.113
G3 X-98.617 Y150.433 R0.6
G1 X-98.507 Y149.657
X-98.332 Y148.421
X-98.195 Y147.461 F200.
G3 X-97.543 Y146.948 R0.6
G1 X-97.453 Y146.96 F500.
X-97.05 Y146.989
X-96.849 Y147.
X-96.245
X-96.065 Y147.009
X-95.917 Y147.029
X-95.768 Y147.063
X-95.606 Y147.113
X-95.443 Y147.18
X-95.275 Y147.266
X-95.1 Y147.375
X-94.929 Y147.502
X-94.762 Y147.649
X-94.596 Y147.822
X-94.455 Y147.995
X-94.32 Y148.192
X-94.205 Y148.396
X-94.112 Y148.597
X-94.028 Y148.826
X-93.969 Y149.045
X-93.927 Y149.27
X-93.903 Y149.508
X-93.9 Y149.732
X-93.959 Y150.045
X-94.091 Y150.335
X-94.288 Y150.586
X-94.538 Y150.782
X-94.829 Y150.914
X-95.142 Y150.973
X-95.439 Y150.993
X-95.641 Y151.
X-96.667
G3 X-97.24 Y150.311 R0.6
G1 X-97.109 Y149.447
X-96.974 Y148.552
X-96.817 Y147.51 F200.
G3 X-96.245 Y147. R0.6
G1 X-95.641 F500.
X-95.439 Y147.007
X-94.835 Y147.048
X-94.634 Y147.074
X-94.533 Y147.089
X-94.432 Y147.117
X-94.146 Y147.235
X-94.03 Y147.287
X-93.822 Y147.437
X-93.627 Y147.59
X-93.58 Y147.638
X-93.423 Y147.839
X-93.346 Y147.94
X-93.31 Y147.99
X-93.281 Y148.041
X-93.224 Y148.173
X-93.113 Y148.444
X-93.087 Y148.544
X-93.046 Y148.846
X-93.034 Y148.947
X-93.033 Y149.048
X-93.059 Y149.249
X-93.086 Y149.45
X-93.111 Y149.551
X-93.152 Y149.652
X-93.235 Y149.853
X-93.279 Y149.954
X-93.308 Y150.004
X-93.342 Y150.055
X-93.497 Y150.256
X-93.627 Y150.409
X-93.684 Y150.457
X-93.946 Y150.659
X-94.03 Y150.713
X-94.231 Y150.8
X-94.432 Y150.883
X-94.533 Y150.911
X-94.634 Y150.926
X-94.835 Y150.952
X-95.142 Y150.973
G3 X-95.676 Y150.065 R0.6
G1 X-95.627 Y150.01 Z-0.718
X-95.579 Y149.955 Z-0.704
X-95.532 Y149.902 Z-0.682
X-95.462 Y149.865 Z-0.643
X-95.398 Y149.831 Z-0.594
X-95.34 Y149.801 Z-0.535
X-95.291 Y149.792 Z-0.473
X-95.249 Y149.784 Z-0.405
X-95.217 Y149.778 Z-0.332
X-95.194 Y149.774 Z-0.256
X-95.183 Z-0.19
X-95.18 Z-0.123
G0 Z5.
X-104.114 Y31.058
Z0.477
G1 Z-0.123 F200.
X-104.11 Y31.064 Z-0.217
X-104.096 Y31.081 Z-0.308
X-104.074 Y31.109 Z-0.395
X-104.044 Y31.148 Z-0.475
X-104.006 Y31.196 Z-0.547
X-103.961 Y31.252 Z-0.608
X-103.912 Y31.316 Z-0.657
X-103.858 Y31.384 Z-0.693
X-103.801 Y31.456 Z-0.715
X-103.743 Y31.53 Z-0.723
G3 X-102.982 Y33.254 R3.798
G1 X-102.93 Y33.657 F500.
X-102.901 Y33.858
X-102.837 Y34.261
X-102.803 Y34.462
X-102.758 Y34.664
X-102.698 Y34.865
X-102.688 Y34.896
X-102.622 Y35.067
X-102.432 Y35.469
X-102.331 Y35.671
X-102.084 Y36.149
X-102.015 Y36.275
X-101.883 Y36.473
X-101.715 Y36.753
X-101.508 Y37.175
X-101.29 Y37.733
X-101.063 Y38.496
X-100.881 Y39.363
X-100.756 Y40.241
X-100.669 Y41.122
X-100.609 Y42.006
X-100.567 Y42.892
X-100.546 Y43.518
X-100.565 Y43.791
X-100.64 Y44.054
X-100.766 Y44.297
X-100.94 Y44.509
X-101.279 Y44.845
X-101.367 Y44.934
X-101.48 Y45.049
X-101.739 Y45.337
X-101.883 Y45.519
X-101.897 Y45.538
X-102.016 Y45.74
X-102.285 Y46.238
X-102.441 Y46.545
X-102.54 Y46.747
X-102.63 Y46.948
X-102.707 Y47.149
X-102.761 Y47.351
X-102.803 Y47.552
X-102.889 Y48.066
X-102.963 Y48.559
X-102.977 Y48.692
G3 X-104.168 Y48.546 R0.6
G1 X-104.166 Y48.522
X-103.011 Y37.197
X-102.966 Y36.763 F200.
G3 X-101.883 Y36.473 R0.6
G1 X-101.732 Y36.678 F500.
X-101.681 Y36.737
X-101.552 Y36.879
X-101.077 Y37.356
X-100.948 Y37.483
X-100.675 Y37.727
X-100.473 Y37.883
X-100.327 Y37.997
X-100.134 Y38.175
X-99.933 Y38.394
X-99.711 Y38.679
X-99.486 Y39.025
X-99.245 Y39.472
X-98.998 Y40.041
X-98.746 Y40.783
X-98.576 Y41.464
X-98.49 Y41.995
X-98.479 Y42.144
X-98.485 Y42.414
X-98.546 Y42.678
X-98.659 Y42.923
X-98.819 Y43.141
X-99.02 Y43.323
X-99.253 Y43.459
X-99.389 Y43.525
X-99.869 Y43.769
X-100.07 Y43.874
G3 X-100.926 Y43.387 R0.6
G1 X-100.993 Y42.659
X-101.329 Y39.011
X-101.381 Y38.452 F200.
G3 X-100.473 Y37.883 R0.6
G1 X-100.272 Y38.015 F500.
X-100.147 Y38.087
X-99.755 Y38.289
X-99.36 Y38.49
X-99.265 Y38.533
X-99.064 Y38.621
X-98.895 Y38.691
X-98.756 Y38.749
X-98.561 Y38.857
X-98.36 Y38.992
X-98.134 Y39.173
X-97.917 Y39.378
X-97.686 Y39.636
X-97.481 Y39.908
X-97.3 Y40.195
X-97.151 Y40.482
X-97.03 Y40.77
X-96.936 Y41.059
X-96.87 Y41.342
X-96.827 Y41.632
X-96.822 Y41.71
X-96.834 Y41.991
X-96.904 Y42.263
X-97.029 Y42.514
X-97.205 Y42.733
X-97.423 Y42.911
X-97.673 Y43.039
X-97.944 Y43.112
X-98.258 Y43.162
X-98.369 Y43.181
G3 X-99.041 Y42.695 R0.6
G1 X-99.216 Y41.742
X-99.529 Y40.033
X-99.649 Y39.377 F200.
G3 X-98.895 Y38.691 R0.6
G1 X-98.862 Y38.702 F500.
X-98.661 Y38.753
X-98.258 Y38.834
X-98.057 Y38.87
X-97.654 Y38.934
X-97.543 Y38.948
X-97.393 Y38.976
X-97.236 Y39.019
X-97.066 Y39.08
X-96.888 Y39.162
X-96.708 Y39.264
X-96.52 Y39.392
X-96.335 Y39.542
X-96.156 Y39.714
X-95.997 Y39.894
X-95.842 Y40.102
X-95.715 Y40.307
X-95.602 Y40.527
X-95.508 Y40.756
X-95.437 Y40.978
X-95.381 Y41.225
X-95.349 Y41.456
X-95.335 Y41.702
X-95.375 Y41.993
X-95.478 Y42.268
X-95.638 Y42.514
X-95.848 Y42.718
X-96.098 Y42.872
X-96.376 Y42.968
X-96.668 Y43.
X-96.849
X-97.05 Y43.011
X-97.453 Y43.04
X-97.654 Y43.066
X-97.944 Y43.112
G3 X-98.611 Y42.433 R0.6
G1 X-98.502 Y41.655
X-98.33 Y40.421
X-98.196 Y39.463 F200.
G3 X-97.543 Y38.948 R0.6
G1 X-97.453 Y38.96 F500.
X-97.05 Y38.989
X-96.849 Y39.
X-96.245
X-96.06 Y39.009
X-95.911 Y39.029
X-95.763 Y39.063
X-95.602 Y39.113
X-95.438 Y39.18
X-95.27 Y39.266
X-95.096 Y39.374
X-94.924 Y39.501
X-94.757 Y39.648
X-94.591 Y39.82
X-94.451 Y39.993
X-94.316 Y40.19
X-94.201 Y40.393
X-94.108 Y40.594
X-94.025 Y40.822
X-93.965 Y41.041
X-93.923 Y41.266
X-93.899 Y41.504
X-93.896 Y41.731
X-93.955 Y42.044
X-94.087 Y42.334
X-94.283 Y42.585
X-94.534 Y42.782
X-94.824 Y42.914
X-95.138 Y42.973
X-95.439 Y42.993
X-95.641 Y43.
X-96.668
G3 X-97.24 Y42.311 R0.6
G1 X-97.11 Y41.447
X-96.974 Y40.552
X-96.817 Y39.51 F200.
G3 X-96.245 Y39. R0.6
G1 X-95.641 F500.
X-95.439 Y39.007
X-94.835 Y39.048
X-94.634 Y39.074
X-94.507 Y39.094
X-94.432 Y39.117
X-94.231 Y39.2
X-94.03 Y39.287
X-94.015 Y39.296
X-93.828 Y39.432
X-93.744 Y39.497
X-93.627 Y39.591
X-93.532 Y39.698
X-93.377 Y39.9
X-93.304 Y40.
X-93.254 Y40.101
X-93.17 Y40.302
X-93.095 Y40.504
X-93.065 Y40.705
X-93.038 Y40.907
X-93.032 Y41.007
X-93.04 Y41.108
X-93.067 Y41.309
X-93.099 Y41.511
X-93.177 Y41.712
X-93.26 Y41.914
X-93.313 Y42.014
X-93.388 Y42.115
X-93.543 Y42.316
X-93.627 Y42.409
X-93.763 Y42.518
X-93.828 Y42.568
X-94.03 Y42.713
X-94.042 Y42.719
X-94.231 Y42.8
X-94.432 Y42.883
X-94.512 Y42.907
X-94.592 Y42.92
X-94.835 Y42.952
X-95.138 Y42.973
G3 X-95.671 Y42.065 R0.6
G1 X-95.623 Y42.01 Z-0.718
X-95.575 Y41.955 Z-0.704
X-95.528 Y41.902 Z-0.682
X-95.458 Y41.865 Z-0.643
X-95.394 Y41.831 Z-0.594
X-95.336 Y41.801 Z-0.535
X-95.287 Y41.791 Z-0.473
X-95.245 Y41.784 Z-0.405
X-95.213 Y41.778 Z-0.332
X-95.191 Y41.774 Z-0.256
X-95.179 Y41.773 Z-0.19
X-95.176 Z-0.123
G0 Z5.
X-16.162 Y251.659
Z0.477
G1 Z-0.123 F200.
X-16.166 Y251.653 Z-0.217
X-16.177 Y251.634 Z-0.308
X-16.196 Y251.603 Z-0.395
X-16.221 Y251.561 Z-0.475
X-16.252 Y251.508 Z-0.547
X-16.289 Y251.447 Z-0.608
X-16.33 Y251.378 Z-0.657
X-16.374 Y251.303 Z-0.693
X-16.421 Y251.224 Z-0.715
X-16.469 Y251.143 Z-0.723
G3 X-17. Y249.335 R3.798
G1 Y246.918 F500.
X-16.979 Y246.498
X-16.915 Y246.02
X-16.724 Y245.155
X-16.467 Y244.307
X-16.192 Y243.464
X-15.929 Y242.618
X-15.69 Y241.765
X-15.481 Y240.904
X-15.302 Y240.036
X-15.152 Y239.163
X-15.027 Y238.285
X-14.925 Y237.405
X-14.843 Y236.523
X-14.776 Y235.639
X-14.723 Y234.755
X-14.681 Y233.869
X-14.648 Y232.984
X-14.621 Y232.098
X-14.601 Y231.212
X-14.585 Y230.326
X-14.572 Y229.44
X-14.562 Y228.554
X-14.555 Y227.668
X-14.549 Y226.782
X-14.545 Y225.896
X-14.539 Y224.124
X-14.534 Y221.465
X-14.531 Y217.035
X-14.53 Y198.426
Y196.654
Y146.145
Y95.636
Y45.127
Y19.429
X-14.592 Y18.545
X-14.925 Y17.724
X-15.47 Y17.025
X-16.148 Y16.455
X-16.911 Y16.004
X-17.001 Y15.964
X-17.269 Y15.81
X-17.494 Y15.597
X-17.664 Y15.339
X-17.982 Y14.727
X-18.117 Y14.525
X-18.268 Y14.324
X-18.319 Y14.265
X-18.445 Y14.123
X-19.048 Y13.519
X-19.124 Y13.45
X-19.325 Y13.272
X-19.531 Y13.116
X-19.847 Y12.915
X-20.636 Y12.512
X-20.735 Y12.468
X-21.138 Y12.299
X-21.188 Y12.281
X-21.238 Y12.267
X-21.742 Y12.166
X-21.859 Y12.145
G3 X-22.156 Y11.135 R0.6
G1 X-22.095 Y11.093 Z-0.718
X-22.035 Y11.052 Z-0.704
X-21.977 Y11.012 Z-0.682
X-21.9 Y10.993 Z-0.643
X-21.83 Y10.975 Z-0.594
X-21.767 Y10.96 Z-0.535
X-21.731 Y10.959 Z-0.494
X-21.682 Y10.964 Z-0.42
X-21.644 Y10.967 Z-0.34
X-21.619 Y10.97 Z-0.256
X-21.608 Y10.972 Z-0.19
X-21.604 Y10.973 Z-0.123
G0 Z5.
X-16.162 Y249.243
Z0.477
G1 Z-0.123 F200.
X-16.166 Y249.236 Z-0.217
X-16.177 Y249.217 Z-0.308
X-16.196 Y249.186 Z-0.395
X-16.221 Y249.144 Z-0.475
X-16.252 Y249.092 Z-0.547
X-16.289 Y249.03 Z-0.608
X-16.33 Y248.961 Z-0.657
X-16.374 Y248.886 Z-0.693
X-16.421 Y248.808 Z-0.715
X-16.469 Y248.727 Z-0.723
G3 X-17. Y246.918 R3.798
G1 Y189.324 F500.
X-17.001 Y189.122
X-17.004 Y188.921
X-17.017 Y188.035
X-17.021 Y187.149
X-17.025 Y185.377
X-17.028 Y182.718
X-17.03 Y175.629
Y173.438
X-17.028 Y173.396
X-17.001 Y172.811
X-17. Y172.408
Y157.506
X-17.001 Y157.304
X-17.005 Y157.103
X-16.978 Y156.217
X-16.994 Y155.331
X-17.004 Y154.445
X-17.012 Y153.559
X-17.017 Y152.673
X-17.021 Y151.787
X-17.026 Y150.015
X-17.029 Y147.356
X-17.03 Y141.447
X-17.029 Y141.391
X-17.025 Y141.335
X-17.019 Y141.279
X-17.008 Y141.194
X-17. Y140.59
Y49.365
X-17.004 Y49.163
X-16.984 Y48.277
X-16.998 Y47.391
X-17.007 Y46.505
X-17.014 Y45.619
X-17.019 Y44.733
X-17.025 Y42.961
X-17.028 Y40.302
X-17.03 Y34.1
Y33.435
X-17.029 Y33.377
X-17.025 Y33.319
X-17.019 Y33.262
X-17.004 Y33.053
X-17. Y32.449
Y18.553
X-17.001 Y18.352
X-17.006 Y17.949
X-17.015 Y17.748
X-17.07 Y17.345
X-17.098 Y17.144
X-17.195 Y16.54
X-17.242 Y16.338
X-17.301 Y16.137
X-17.312 Y16.105
X-17.375 Y15.935
X-17.566 Y15.533
X-17.664 Y15.339
G3 X-16.58 Y14.825 R0.6
X-16.573 Y14.838 R0.6
G1 X-16.534 Y14.923 Z-0.715
X-16.496 Y15.007 Z-0.693
X-16.459 Y15.086 Z-0.657
X-16.426 Y15.159 Z-0.608
X-16.396 Y15.224 Z-0.547
X-16.371 Y15.279 Z-0.475
X-16.35 Y15.324 Z-0.395
X-16.335 Y15.357 Z-0.308
X-16.326 Y15.377 Z-0.217
X-16.323 Y15.383 Z-0.123
G0 Z5.
X-16.104 Y51.464
Z0.477
G1 Z-0.123 F200.
X-16.108 Y51.458 Z-0.217
X-16.119 Y51.439 Z-0.308
X-16.139 Y51.409 Z-0.395
X-16.165 Y51.367 Z-0.475
X-16.198 Y51.315 Z-0.547
X-16.236 Y51.255 Z-0.608
X-16.279 Y51.187 Z-0.657
X-16.325 Y51.113 Z-0.693
X-16.374 Y51.036 Z-0.715
X-16.424 Y50.957 Z-0.723
G3 X-17.004 Y49.163 R3.798
G1 X-17.015 Y48.76 F500.
X-17.037 Y48.559
X-17.111 Y48.066
X-17.197 Y47.552
X-17.239 Y47.351
X-17.293 Y47.149
X-17.37 Y46.948
X-17.46 Y46.747
X-17.559 Y46.545
X-17.715 Y46.238
X-17.984 Y45.74
X-18.103 Y45.538
X-18.285 Y45.231
X-18.496 Y44.796
X-18.717 Y44.223
X-18.947 Y43.437
X-19.124 Y42.568
X-19.246 Y41.691
X-19.332 Y40.809
X-19.391 Y39.925
X-19.433 Y39.04
X-19.451 Y38.479
X-19.432 Y38.204
X-19.356 Y37.939
X-19.228 Y37.695
X-19.052 Y37.483
X-18.923 Y37.356
X-18.448 Y36.879
X-18.319 Y36.737
X-18.268 Y36.678
X-18.117 Y36.473
X-17.985 Y36.275
X-17.916 Y36.149
X-17.669 Y35.671
X-17.568 Y35.469
X-17.378 Y35.067
X-17.312 Y34.896
X-17.302 Y34.865
X-17.242 Y34.664
X-17.197 Y34.462
X-17.163 Y34.261
X-17.099 Y33.858
X-17.07 Y33.657
X-17.019 Y33.262
G3 X-15.83 Y33.421 R0.6
G1 X-15.834 Y33.459
X-16.983 Y44.787
X-17.029 Y45.236 F200.
G3 X-18.103 Y45.538 R0.6
G1 X-18.117 Y45.519 F500.
X-18.261 Y45.337
X-18.52 Y45.049
X-18.633 Y44.934
X-18.923 Y44.645
X-19.124 Y44.445
X-19.25 Y44.33
X-19.325 Y44.266
X-19.505 Y44.129
X-19.65 Y44.018
X-19.846 Y43.84
X-20.045 Y43.627
X-20.264 Y43.348
X-20.491 Y43.005
X-20.732 Y42.565
X-20.978 Y42.01
X-21.232 Y41.277
X-21.411 Y40.581
X-21.501 Y40.047
X-21.516 Y39.867
X-21.511 Y39.593
X-21.451 Y39.326
X-21.337 Y39.077
X-21.175 Y38.855
X-20.972 Y38.672
X-20.735 Y38.533
X-20.64 Y38.49
X-20.131 Y38.231
X-19.93 Y38.127
G3 X-19.077 Y38.611 R0.6
G1 X-19.005 Y39.345
X-18.645 Y43.013
X-18.591 Y43.561 F200.
G3 X-19.505 Y44.129 R0.6
G1 X-19.728 Y43.982 F500.
X-19.93 Y43.874
X-20.131 Y43.769
X-20.611 Y43.525
X-20.735 Y43.465
X-20.936 Y43.373
X-21.072 Y43.323
X-21.211 Y43.268
X-21.402 Y43.165
X-21.602 Y43.034
X-21.827 Y42.859
X-22.044 Y42.659
X-22.275 Y42.407
X-22.484 Y42.138
X-22.669 Y41.854
X-22.824 Y41.564
X-22.948 Y41.279
X-23.048 Y40.986
X-23.117 Y40.706
X-23.164 Y40.412
X-23.173 Y40.306
X-23.164 Y40.023
X-23.096 Y39.748
X-22.971 Y39.494
X-22.796 Y39.271
X-22.577 Y39.091
X-22.325 Y38.961
X-22.052 Y38.887
X-21.943 Y38.87
X-21.742 Y38.834
X-21.54 Y38.793
G3 X-20.851 Y39.289 R0.6
G1 X-20.701 Y40.219
X-20.413 Y41.992
X-20.306 Y42.653 F200.
G3 X-21.072 Y43.323 R0.6
G1 X-21.138 Y43.301 F500.
X-21.339 Y43.243
X-21.54 Y43.197
X-21.742 Y43.162
X-22.346 Y43.066
X-22.457 Y43.052
X-22.604 Y43.024
X-22.765 Y42.98
X-22.931 Y42.92
X-23.112 Y42.836
X-23.292 Y42.734
X-23.477 Y42.608
X-23.665 Y42.455
X-23.842 Y42.285
X-24.001 Y42.104
X-24.156 Y41.895
X-24.282 Y41.692
X-24.396 Y41.468
X-24.489 Y41.241
X-24.56 Y41.017
X-24.615 Y40.771
X-24.647 Y40.541
X-24.661 Y40.296
X-24.621 Y40.005
X-24.518 Y39.731
X-24.358 Y39.485
X-24.147 Y39.281
X-23.898 Y39.127
X-23.62 Y39.032
X-23.329 Y39.
X-23.151
X-22.95 Y38.989
X-22.547 Y38.96
X-22.346 Y38.934
X-22.052 Y38.887
G3 X-21.385 Y39.567 R0.6
G1 X-21.494 Y40.344
X-21.669 Y41.579
X-21.805 Y42.538 F200.
G3 X-22.457 Y43.052 R0.6
G1 X-22.547 Y43.04 F500.
X-22.95 Y43.011
X-23.151 Y43.
X-23.755
X-23.936 Y42.991
X-24.085 Y42.971
X-24.233 Y42.938
X-24.395 Y42.887
X-24.558 Y42.82
X-24.726 Y42.734
X-24.901 Y42.626
X-25.072 Y42.499
X-25.24 Y42.351
X-25.405 Y42.179
X-25.546 Y42.007
X-25.68 Y41.81
X-25.796 Y41.606
X-25.889 Y41.405
X-25.972 Y41.177
X-26.032 Y40.958
X-26.073 Y40.733
X-26.097 Y40.495
X-26.1 Y40.269
X-26.041 Y39.956
X-25.91 Y39.665
X-25.713 Y39.415
X-25.462 Y39.218
X-25.172 Y39.086
X-24.859 Y39.027
X-24.561 Y39.007
X-24.359 Y39.
X-23.329
G3 X-22.757 Y39.69 R0.6
G1 X-22.888 Y40.553
X-23.024 Y41.449
X-23.183 Y42.491 F200.
G3 X-23.755 Y43. R0.6
G1 X-24.359 F500.
X-24.561 Y42.993
X-25.165 Y42.952
X-25.408 Y42.92
X-25.488 Y42.907
X-25.568 Y42.883
X-25.769 Y42.8
X-25.958 Y42.719
X-25.97 Y42.713
X-26.172 Y42.568
X-26.237 Y42.518
X-26.373 Y42.409
X-26.457 Y42.316
X-26.612 Y42.115
X-26.687 Y42.014
X-26.74 Y41.914
X-26.823 Y41.712
X-26.901 Y41.511
X-26.933 Y41.309
X-26.96 Y41.108
X-26.968 Y41.007
X-26.962 Y40.907
X-26.935 Y40.705
X-26.905 Y40.504
X-26.83 Y40.302
X-26.746 Y40.101
X-26.696 Y40.
X-26.623 Y39.9
X-26.468 Y39.698
X-26.373 Y39.591
X-26.256 Y39.497
X-26.172 Y39.432
X-25.985 Y39.296
X-25.97 Y39.287
X-25.769 Y39.2
X-25.568 Y39.117
X-25.493 Y39.094
X-25.366 Y39.074
X-25.165 Y39.048
X-24.859 Y39.027
G3 X-24.821 Y40.226 R0.6
G1 X-24.915 Y40.229 Z-0.715
X-25.006 Y40.232 Z-0.693
X-25.093 Y40.235 Z-0.657
X-25.173 Y40.238 Z-0.608
X-25.245 Y40.24 Z-0.547
X-25.306 Y40.242 Z-0.475
X-25.355 Y40.243 Z-0.395
X-25.391 Y40.245 Z-0.308
X-25.413 Z-0.217
X-25.42 Y40.246 Z-0.123
G0 Z5.
X-16.123 Y159.411
Z0.477
G1 Z-0.123 F200.
X-16.127 Y159.404 Z-0.217
X-16.138 Y159.386 Z-0.308
X-16.157 Y159.355 Z-0.395
X-16.183 Y159.313 Z-0.475
X-16.216 Y159.261 Z-0.547
X-16.253 Y159.2 Z-0.608
X-16.296 Y159.132 Z-0.657
X-16.342 Y159.058 Z-0.693
X-16.39 Y158.981 Z-0.715
X-16.439 Y158.901 Z-0.723
G3 X-17.005 Y157.103 R3.798
G1 X-17.009 Y156.901 F500.
X-17.018 Y156.7
X-17.106 Y156.096
X-17.205 Y155.492
X-17.255 Y155.29
X-17.312 Y155.104
X-17.394 Y154.888
X-17.589 Y154.485
X-17.692 Y154.284
X-18.012 Y153.679
X-18.117 Y153.522
X-18.232 Y153.338
X-18.439 Y152.932
X-18.658 Y152.4
X-18.885 Y151.679
X-19.081 Y150.815
X-19.217 Y149.94
X-19.311 Y149.058
X-19.377 Y148.175
X-19.423 Y147.29
X-19.452 Y146.484
X-19.433 Y146.205
X-19.356 Y145.937
X-19.225 Y145.69
X-19.045 Y145.476
X-18.99 Y145.423
X-18.52 Y144.953
X-18.394 Y144.819
X-18.218 Y144.617
X-18.117 Y144.476
X-18.076 Y144.416
X-17.953 Y144.215
X-17.715 Y143.759
X-17.638 Y143.61
X-17.538 Y143.409
X-17.442 Y143.208
X-17.35 Y143.006
X-17.281 Y142.805
X-17.228 Y142.604
X-17.186 Y142.402
X-17.111 Y141.932
X-17.09 Y141.798
X-17.034 Y141.395
X-17.019 Y141.279
G3 X-15.83 Y141.437 R0.6
G1 X-15.834 Y141.472
X-16.994 Y152.781
X-17.04 Y153.224 F200.
G3 X-18.117 Y153.522 R0.6
G1 X-18.148 Y153.478 F500.
X-18.319 Y153.27
X-18.492 Y153.075
X-19.124 Y152.443
X-19.325 Y152.269
X-19.527 Y152.113
X-19.665 Y152.007
X-19.852 Y151.836
X-20.057 Y151.614
X-20.275 Y151.334
X-20.503 Y150.986
X-20.742 Y150.545
X-20.991 Y149.977
X-21.245 Y149.237
X-21.418 Y148.551
X-21.505 Y148.02
X-21.518 Y147.858
X-21.512 Y147.588
X-21.452 Y147.325
X-21.34 Y147.079
X-21.181 Y146.861
X-20.981 Y146.679
X-20.748 Y146.541
X-20.522 Y146.43
X-19.93 Y146.128
X-19.761 Y146.027
X-19.441 Y145.826
X-19.325 Y145.729
X-19.124 Y145.552
X-19.045 Y145.476
G3 X-18.047 Y145.982 R0.6
G1 X-18.091 Y146.423
X-18.545 Y151.003
X-18.61 Y151.665 F200.
G3 X-19.527 Y152.113 R0.6
G1 X-19.593 Y152.068 F500.
X-19.728 Y151.983
X-19.941 Y151.867
X-20.534 Y151.564
X-20.737 Y151.464
X-20.936 Y151.373
X-21.047 Y151.333
X-21.186 Y151.276
X-21.38 Y151.173
X-21.575 Y151.049
X-21.797 Y150.881
X-22.016 Y150.684
X-22.246 Y150.439
X-22.459 Y150.17
X-22.645 Y149.892
X-22.807 Y149.597
X-22.933 Y149.317
X-23.037 Y149.02
X-23.109 Y148.743
X-23.16 Y148.448
X-23.171 Y148.321
X-23.166 Y148.036
X-23.1 Y147.758
X-22.976 Y147.501
X-22.8 Y147.276
X-22.581 Y147.093
X-22.327 Y146.962
X-22.052 Y146.887
X-21.943 Y146.87
X-21.737 Y146.832
X-21.54 Y146.793
G3 X-20.852 Y147.284 R0.6
G1 X-20.692 Y148.217
X-20.384 Y150.015
X-20.273 Y150.66 F200.
G3 X-21.047 Y151.333 R0.6
G1 X-21.138 Y151.301 F500.
X-21.249 Y151.263
X-21.339 Y151.239
X-21.742 Y151.165
X-21.943 Y151.13
X-22.376 Y151.061
X-22.47 Y151.049
X-22.618 Y151.023
X-22.782 Y150.976
X-22.949 Y150.914
X-23.129 Y150.829
X-23.313 Y150.722
X-23.496 Y150.595
X-23.684 Y150.439
X-23.859 Y150.268
X-24.02 Y150.081
X-24.171 Y149.874
X-24.294 Y149.672
X-24.408 Y149.443
X-24.497 Y149.219
X-24.567 Y148.99
X-24.62 Y148.746
X-24.65 Y148.518
X-24.656 Y148.395
X-24.635 Y148.089
X-24.544 Y147.795
X-24.388 Y147.53
X-24.176 Y147.308
X-23.918 Y147.14
X-23.629 Y147.035
X-23.324 Y147.
X-23.151
X-22.95 Y146.989
X-22.547 Y146.96
X-22.346 Y146.934
X-22.052 Y146.887
G3 X-21.385 Y147.57 R0.6
G1 X-21.499 Y148.343
X-21.68 Y149.575
X-21.821 Y150.539 F200.
G3 X-22.47 Y151.049 R0.6
G1 X-22.547 Y151.04 F500.
X-22.95 Y151.011
X-23.151 Y151.
X-23.755
X-23.938 Y150.991
X-24.086 Y150.971
X-24.237 Y150.937
X-24.397 Y150.886
X-24.56 Y150.819
X-24.729 Y150.733
X-24.904 Y150.624
X-25.074 Y150.498
X-25.242 Y150.349
X-25.398 Y150.187
X-25.545 Y150.006
X-25.68 Y149.808
X-25.789 Y149.616
X-25.889 Y149.397
X-25.969 Y149.178
X-26.027 Y148.965
X-26.071 Y148.725
X-26.094 Y148.497
X-26.097 Y148.274
Y148.267
X-26.037 Y147.954
X-25.905 Y147.664
X-25.709 Y147.414
X-25.458 Y147.217
X-25.168 Y147.086
X-24.855 Y147.027
X-24.561 Y147.007
X-24.359 Y147.
X-23.324
G3 X-22.752 Y147.691 R0.6
G1 X-22.885 Y148.553
X-23.023 Y149.449
X-23.183 Y150.492 F200.
G3 X-23.755 Y151. R0.6
G1 X-24.359 F500.
X-24.561 Y150.993
X-25.165 Y150.952
X-25.366 Y150.926
X-25.467 Y150.911
X-25.568 Y150.883
X-25.769 Y150.8
X-25.97 Y150.713
X-26.054 Y150.659
X-26.316 Y150.457
X-26.373 Y150.409
X-26.503 Y150.256
X-26.658 Y150.055
X-26.692 Y150.004
X-26.721 Y149.954
X-26.776 Y149.827
X-26.848 Y149.652
X-26.889 Y149.551
X-26.914 Y149.45
X-26.941 Y149.249
X-26.967 Y149.048
X-26.966 Y148.947
X-26.927 Y148.645
X-26.913 Y148.544
X-26.887 Y148.444
X-26.776 Y148.173
X-26.719 Y148.041
X-26.69 Y147.99
X-26.654 Y147.94
X-26.574 Y147.837
X-26.42 Y147.638
X-26.373 Y147.59
X-26.172 Y147.432
X-25.97 Y147.287
X-25.854 Y147.235
X-25.568 Y147.117
X-25.467 Y147.089
X-25.366 Y147.074
X-25.165 Y147.048
X-24.855 Y147.027
G3 X-24.817 Y148.226 R0.6
G1 X-24.911 Y148.229 Z-0.715
X-25.002 Y148.232 Z-0.693
X-25.089 Y148.235 Z-0.657
X-25.17 Y148.237 Z-0.608
X-25.241 Y148.239 Z-0.547
X-25.302 Y148.241 Z-0.475
X-25.351 Y148.243 Z-0.395
X-25.387 Y148.244 Z-0.308
X-25.409 Y148.245 Z-0.217
X-25.417 Z-0.123
G0 Z5.
X-15.915 Y191.139
Z0.477
G1 Z-0.123 F200.
X-15.919 Y191.133 Z-0.217
X-15.933 Y191.115 Z-0.308
X-15.954 Y191.087 Z-0.395
X-15.984 Y191.047 Z-0.475
X-16.021 Y190.999 Z-0.547
X-16.064 Y190.941 Z-0.608
X-16.112 Y190.877 Z-0.657
X-16.165 Y190.808 Z-0.693
X-16.22 Y190.735 Z-0.715
X-16.277 Y190.66 Z-0.723
G3 X-17.004 Y188.921 R3.798
G1 X-17.071 Y188.317 F500.
X-17.166 Y187.713
X-17.204 Y187.511
X-17.249 Y187.31
X-17.308 Y187.108
X-17.58 Y186.504
X-17.785 Y186.102
X-17.887 Y185.9
X-17.916 Y185.846
X-18.011 Y185.699
X-18.32 Y185.16
X-18.532 Y184.709
X-18.754 Y184.111
X-18.984 Y183.284
X-19.15 Y182.413
X-19.265 Y181.535
X-19.345 Y180.652
X-19.401 Y179.768
X-19.439 Y178.882
X-19.452 Y178.471
X-19.432 Y178.194
X-19.355 Y177.928
X-19.224 Y177.684
X-19.046 Y177.471
X-18.808 Y177.241
X-18.721 Y177.154
X-18.61 Y177.039
X-18.239 Y176.637
X-18.171 Y176.559
X-18.117 Y176.481
X-17.862 Y176.033
X-17.75 Y175.831
X-17.513 Y175.365
X-17.444 Y175.227
X-17.359 Y175.026
X-17.312 Y174.9
X-17.289 Y174.824
X-17.233 Y174.623
X-17.124 Y174.019
X-17.029 Y173.415
X-17.028 Y173.396
G3 X-16.381 Y172.847 R0.6
X-15.833 Y173.495 R0.6
G1 Y173.5
X-16.882 Y184.995
X-16.92 Y185.411 F200.
G3 X-18.011 Y185.699 R0.6
