(MOTORHALTERUNG_CNC001)
(T1  D=6. CR=0. - ZMIN=-12. - SCHAFTFRSER)
(T2  D=3.175 CR=0. KONIK=45GRAD - ZMIN=-1. - FASENFRSER)
G90 G94 G91.1 G40 G49 G17
G21
G28 G91 Z0.
G90

(2D CONTOUR1)
M5
M9
T1 M6
S10000 M3
G54
M7
G0 X65.48 Y34.742
G43 Z15. H1
Z5.
G1 Z1. F200.
Z-11.1
G18 G3 X64.88 Z-11.7 R0.6
G1 X64.28
G17 G3 X63.68 Y34.142 R0.6
G2 X59.673 Y24.469 R13.68 F450.
G1 X35.531 Y0.327
G2 X25.858 Y-3.68 R13.68
G1 X0.
G3 X-0.6 Y-4.28 R0.6
G1 Y-4.88
G19 G2 Y-5.48 Z-11.1 R0.6
G0 Z5.
X65.37 Y34.742
G1 Z1. F200.
Z-11.1
G18 G3 X64.77 Z-11.7 R0.6
G1 X64.17
G17 G3 X63.57 Y34.142 R0.6
G2 X59.595 Y24.547 R13.57 F450.
G1 X35.453 Y0.405
G2 X25.858 Y-3.57 R13.57
G1 X0.
G3 X-0.6 Y-4.17 R0.6
G1 Y-4.77
G19 G2 Y-5.37 Z-11.1 R0.6
G0 Z5.
X65.26 Y34.742
G1 Z1. F200.
Z-11.1
G18 G3 X64.66 Z-11.7 R0.6
G1 X64.06
G17 G3 X63.46 Y34.142 R0.6
G2 X59.518 Y24.625 R13.46 F450.
G1 X35.375 Y0.482
G2 X25.858 Y-3.46 R13.46
G1 X0.
G3 X-0.6 Y-4.06 R0.6
G1 Y-4.66
G19 G2 Y-5.26 Z-11.1 R0.6
G0 Z5.
X65.15 Y34.742
G1 Z1. F200.
Z-11.1
G18 G3 X64.55 Z-11.7 R0.6
G1 X63.95
G17 G3 X63.35 Y34.142 R0.6
G2 X59.44 Y24.702 R13.35 F450.
G1 X35.298 Y0.56
G2 X25.858 Y-3.35 R13.35
G1 X0.
G3 X-0.6 Y-3.95 R0.6
G1 Y-4.55
G19 G2 Y-5.15 Z-11.1 R0.6
G0 Z5.
X65. Y34.742
G1 Z1. F200.
Z-11.1
G18 G3 X64.4 Z-11.7 R0.6
G1 X63.8
G17 G3 X63.2 Y34.142 R0.6
G2 X59.334 Y24.808 R13.2 F450.
G1 X35.192 Y0.666
G2 X25.858 Y-3.2 R13.2
G1 X0.
G3 X-0.6 Y-3.8 R0.6
G1 Y-4.4
G19 G2 Y-5. Z-11.1 R0.6
G0 Z5.
X64.8 Y34.742
G1 Z1. F200.
Z-11.1
G18 G3 X64.2 Z-11.7 R0.6
G1 X63.6
G17 G3 X63. Y34.142 R0.6
G2 X59.192 Y24.95 R13. F450.
G1 X35.05 Y0.808
G2 X25.858 Y-3. R13.
G1 X0.
G3 X-0.6 Y-3.6 R0.6
G1 Y-4.2
G19 G2 Y-4.8 Z-11.1 R0.6
G0 Z5.
Y125.48
G1 Z1. F200.
Z-11.1
G2 Y124.88 Z-11.7 R0.6
G1 Y124.28
G17 G3 X0. Y123.68 R0.6
G1 X25.858 F450.
G2 X35.531 Y119.673 R13.68
G1 X59.673 Y95.531
G2 X63.68 Y85.858 R13.68
G3 X64.28 Y85.258 R0.6
G1 X64.88
G18 G2 X65.48 Z-11.1 R0.6
G0 Z5.
X-0.6 Y125.37
G1 Z1. F200.
Z-11.1
G19 G2 Y124.77 Z-11.7 R0.6
G1 Y124.17
G17 G3 X0. Y123.57 R0.6
G1 X25.858 F450.
G2 X35.453 Y119.595 R13.57
G1 X59.595 Y95.453
G2 X63.57 Y85.858 R13.57
G3 X64.17 Y85.258 R0.6
G1 X64.77
G18 G2 X65.37 Z-11.1 R0.6
G0 Z5.
X-0.6 Y125.26
G1 Z1. F200.
Z-11.1
G19 G2 Y124.66 Z-11.7 R0.6
G1 Y124.06
G17 G3 X0. Y123.46 R0.6
G1 X25.858 F450.
G2 X35.375 Y119.518 R13.46
G1 X59.518 Y95.375
G2 X63.46 Y85.858 R13.46
G3 X64.06 Y85.258 R0.6
G1 X64.66
G18 G2 X65.26 Z-11.1 R0.6
G0 Z5.
X-0.6 Y125.15
G1 Z1. F200.
Z-11.1
G19 G2 Y124.55 Z-11.7 R0.6
G1 Y123.95
G17 G3 X0. Y123.35 R0.6
G1 X25.858 F450.
G2 X35.298 Y119.44 R13.35
G1 X59.44 Y95.298
G2 X63.35 Y85.858 R13.35
G3 X63.95 Y85.258 R0.6
G1 X64.55
G18 G2 X65.15 Z-11.1 R0.6
G0 Z5.
X-0.6 Y125.
G1 Z1. F200.
Z-11.1
G19 G2 Y124.4 Z-11.7 R0.6
G1 Y123.8
G17 G3 X0. Y123.2 R0.6
G1 X25.858 F450.
G2 X35.192 Y119.334 R13.2
G1 X59.334 Y95.192
G2 X63.2 Y85.858 R13.2
G3 X63.8 Y85.258 R0.6
G1 X64.4
G18 G2 X65. Z-11.1 R0.6
G0 Z5.
X-0.6 Y124.8
G1 Z1. F200.
Z-11.1
G19 G2 Y124.2 Z-11.7 R0.6
G1 Y123.6
G17 G3 X0. Y123. R0.6
G1 X25.858 F450.
G2 X35.05 Y119.192 R13.
G1 X59.192 Y95.05
G2 X63. Y85.858 R13.
G3 X63.6 Y85.258 R0.6
G1 X64.2
G18 G2 X64.8 Z-11.1 R0.6
G0 Z15.
G17

(2D CONTOUR2)
M7
G0 X25.5 Y60.6
Z15.
Z5.
G1 Z1.5 F200.
Z0.1
G18 G3 X24.9 Z-0.5 R0.6
G1 X24.3
G17 G3 X23.7 Y60. R0.6
X40.3 R8.3 F500.
X23.7 R8.3
X43. R9.65
X21. R11.
X45.7 R12.35
X18.3 R13.7
X48.4 R15.05
X15.6 R16.4
X49. R16.7
X15. R17.
X49. R17.
X48.4 Y60.6 R0.6
G1 X47.8
G18 G3 X47.2 Z0.1 R0.6
G1 X25.5
Z-0.4 F200.
G3 X24.9 Z-1. R0.6
G1 X24.3
G17 G3 X23.7 Y60. R0.6
X40.3 R8.3 F500.
X23.7 R8.3
X43. R9.65
X21. R11.
X45.7 R12.35
X18.3 R13.7
X48.4 R15.05
X15.6 R16.4
X49. R16.7
X15. R17.
X49. R17.
X48.4 Y60.6 R0.6
G1 X47.8
G18 G3 X47.2 Z-0.4 R0.6
G1 X25.5
Z-0.9 F200.
G3 X24.9 Z-1.5 R0.6
G1 X24.3
G17 G3 X23.7 Y60. R0.6
X40.3 R8.3 F500.
X23.7 R8.3
X43. R9.65
X21. R11.
X45.7 R12.35
X18.3 R13.7
X48.4 R15.05
X15.6 R16.4
X49. R16.7
X15. R17.
X49. R17.
X48.4 Y60.6 R0.6
G1 X47.8
G18 G3 X47.2 Z-0.9 R0.6
G1 X25.5
Z-1.4 F200.
G3 X24.9 Z-2. R0.6
G1 X24.3
G17 G3 X23.7 Y60. R0.6
X40.3 R8.3 F500.
X23.7 R8.3
X43. R9.65
X21. R11.
X45.7 R12.35
X18.3 R13.7
X48.4 R15.05
X15.6 R16.4
X49. R16.7
X15. R17.
X49. R17.
X48.4 Y60.6 R0.6
G1 X47.8
G18 G3 X47.2 Z-1.4 R0.6
G1 X25.5
Z-1.9 F200.
G3 X24.9 Z-2.5 R0.6
G1 X24.3
G17 G3 X23.7 Y60. R0.6
X40.3 R8.3 F500.
X23.7 R8.3
X43. R9.65
X21. R11.
X45.7 R12.35
X18.3 R13.7
X48.4 R15.05
X15.6 R16.4
X49. R16.7
X15. R17.
X49. R17.
X48.4 Y60.6 R0.6
G1 X47.8
G18 G3 X47.2 Z-1.9 R0.6
G1 X25.5
Z-2.4 F200.
G3 X24.9 Z-3. R0.6
G1 X24.3
G17 G3 X23.7 Y60. R0.6
X40.3 R8.3 F500.
X23.7 R8.3
X43. R9.65
X21. R11.
X45.7 R12.35
X18.3 R13.7
X48.4 R15.05
X15.6 R16.4
X49. R16.7
X15. R17.
X49. R17.
X48.4 Y60.6 R0.6
G1 X47.8
G18 G3 X47.2 Z-2.4 R0.6
G1 X25.5
Z-2.9 F200.
G3 X24.9 Z-3.5 R0.6
G1 X24.3
G17 G3 X23.7 Y60. R0.6
X40.3 R8.3 F500.
X23.7 R8.3
X43. R9.65
X21. R11.
X45.7 R12.35
X18.3 R13.7
X48.4 R15.05
X15.6 R16.4
X49. R16.7
X15. R17.
X49. R17.
X48.4 Y60.6 R0.6
G1 X47.8
G18 G3 X47.2 Z-2.9 R0.6
G1 X25.5
Z-3.4 F200.
G3 X24.9 Z-4. R0.6
G1 X24.3
G17 G3 X23.7 Y60. R0.6
X40.3 R8.3 F500.
X23.7 R8.3
X43. R9.65
X21. R11.
X45.7 R12.35
X18.3 R13.7
X48.4 R15.05
X15.6 R16.4
X49. R16.7
X15. R17.
X49. R17.
X48.4 Y60.6 R0.6
G1 X47.8
G18 G3 X47.2 Z-3.4 R0.6
G1 X25.5
Z-3.9 F200.
G3 X24.9 Z-4.5 R0.6
G1 X24.3
G17 G3 X23.7 Y60. R0.6
X40.3 R8.3 F500.
X23.7 R8.3
X43. R9.65
X21. R11.
X45.7 R12.35
X18.3 R13.7
X48.4 R15.05
X15.6 R16.4
X49. R16.7
X15. R17.
X49. R17.
X48.4 Y60.6 R0.6
G1 X47.8
G18 G3 X47.2 Z-3.9 R0.6
G1 X25.5
Z-4.4 F200.
G3 X24.9 Z-5. R0.6
G1 X24.3
G17 G3 X23.7 Y60. R0.6
X40.3 R8.3 F500.
X23.7 R8.3
X43. R9.65
X21. R11.
X45.7 R12.35
X18.3 R13.7
X48.4 R15.05
X15.6 R16.4
X49. R16.7
X15. R17.
X49. R17.
X48.4 Y60.6 R0.6
G1 X47.8
G18 G3 X47.2 Z-4.4 R0.6
G1 X25.5
Z-4.9 F200.
G3 X24.9 Z-5.5 R0.6
G1 X24.3
G17 G3 X23.7 Y60. R0.6
X40.3 R8.3 F500.
X23.7 R8.3
X43. R9.65
X21. R11.
X45.7 R12.35
X18.3 R13.7
X48.4 R15.05
X15.6 R16.4
X49. R16.7
X15. R17.
X49. R17.
X48.4 Y60.6 R0.6
G1 X47.8
G18 G3 X47.2 Z-4.9 R0.6
G1 X25.5
Z-5.4 F200.
G3 X24.9 Z-6. R0.6
G1 X24.3
G17 G3 X23.7 Y60. R0.6
X40.3 R8.3 F500.
X23.7 R8.3
X43. R9.65
X21. R11.
X45.7 R12.35
X18.3 R13.7
X48.4 R15.05
X15.6 R16.4
X49. R16.7
X15. R17.
X49. R17.
X48.4 Y60.6 R0.6
G1 X47.8
G18 G3 X47.2 Z-5.4 R0.6
G1 X25.5
Z-5.9 F200.
G3 X24.9 Z-6.5 R0.6
G1 X24.3
G17 G3 X23.7 Y60. R0.6
X40.3 R8.3 F500.
X23.7 R8.3
X43. R9.65
X21. R11.
X45.7 R12.35
X18.3 R13.7
X48.4 R15.05
X15.6 R16.4
X49. R16.7
X15. R17.
X49. R17.
X48.4 Y60.6 R0.6
G1 X47.8
G18 G3 X47.2 Z-5.9 R0.6
G1 X25.5
Z-6.4 F200.
G3 X24.9 Z-7. R0.6
G1 X24.3
G17 G3 X23.7 Y60. R0.6
X40.3 R8.3 F500.
X23.7 R8.3
X43. R9.65
X21. R11.
X45.7 R12.35
X18.3 R13.7
X48.4 R15.05
X15.6 R16.4
X49. R16.7
X15. R17.
X49. R17.
X48.4 Y60.6 R0.6
G1 X47.8
G18 G3 X47.2 Z-6.4 R0.6
G1 X25.5
Z-6.9 F200.
G3 X24.9 Z-7.5 R0.6
G1 X24.3
G17 G3 X23.7 Y60. R0.6
X40.3 R8.3 F500.
X23.7 R8.3
X43. R9.65
X21. R11.
X45.7 R12.35
X18.3 R13.7
X48.4 R15.05
X15.6 R16.4
X49. R16.7
X15. R17.
X49. R17.
X48.4 Y60.6 R0.6
G1 X47.8
G18 G3 X47.2 Z-6.9 R0.6
G1 X25.5
Z-7.4 F200.
G3 X24.9 Z-8. R0.6
G1 X24.3
G17 G3 X23.7 Y60. R0.6
X40.3 R8.3 F500.
X23.7 R8.3
X43. R9.65
X21. R11.
X45.7 R12.35
X18.3 R13.7
X48.4 R15.05
X15.6 R16.4
X49. R16.7
X15. R17.
X49. R17.
X48.4 Y60.6 R0.6
G1 X47.8
G18 G3 X47.2 Z-7.4 R0.6
G1 X25.5
Z-7.9 F200.
G3 X24.9 Z-8.5 R0.6
G1 X24.3
G17 G3 X23.7 Y60. R0.6
X40.3 R8.3 F500.
X23.7 R8.3
X43. R9.65
X21. R11.
X45.7 R12.35
X18.3 R13.7
X48.4 R15.05
X15.6 R16.4
X49. R16.7
X15. R17.
X49. R17.
X48.4 Y60.6 R0.6
G1 X47.8
G18 G3 X47.2 Z-7.9 R0.6
G1 X25.5
Z-8.4 F200.
G3 X24.9 Z-9. R0.6
G1 X24.3
G17 G3 X23.7 Y60. R0.6
X40.3 R8.3 F500.
X23.7 R8.3
X43. R9.65
X21. R11.
X45.7 R12.35
X18.3 R13.7
X48.4 R15.05
X15.6 R16.4
X49. R16.7
X15. R17.
X49. R17.
X48.4 Y60.6 R0.6
G1 X47.8
G18 G3 X47.2 Z-8.4 R0.6
G1 X25.5
Z-8.9 F200.
G3 X24.9 Z-9.5 R0.6
G1 X24.3
G17 G3 X23.7 Y60. R0.6
X40.3 R8.3 F500.
X23.7 R8.3
X43. R9.65
X21. R11.
X45.7 R12.35
X18.3 R13.7
X48.4 R15.05
X15.6 R16.4
X49. R16.7
X15. R17.
X49. R17.
X48.4 Y60.6 R0.6
G1 X47.8
G18 G3 X47.2 Z-8.9 R0.6
G1 X25.5
Z-9.4 F200.
G3 X24.9 Z-10. R0.6
G1 X24.3
G17 G3 X23.7 Y60. R0.6
X40.3 R8.3 F500.
X23.7 R8.3
X43. R9.65
X21. R11.
X45.7 R12.35
X18.3 R13.7
X48.4 R15.05
X15.6 R16.4
X49. R16.7
X15. R17.
X49. R17.
X48.4 Y60.6 R0.6
G1 X47.8
G18 G3 X47.2 Z-9.4 R0.6
G1 X25.5
Z-9.9 F200.
G3 X24.9 Z-10.5 R0.6
G1 X24.3
G17 G3 X23.7 Y60. R0.6
X40.3 R8.3 F500.
X23.7 R8.3
X43. R9.65
X21. R11.
X45.7 R12.35
X18.3 R13.7
X48.4 R15.05
X15.6 R16.4
X49. R16.7
X15. R17.
X49. R17.
X48.4 Y60.6 R0.6
G1 X47.8
G18 G3 X47.2 Z-9.9 R0.6
G1 X25.5
Z-10.4 F200.
G3 X24.9 Z-11. R0.6
G1 X24.3
G17 G3 X23.7 Y60. R0.6
X40.3 R8.3 F500.
X23.7 R8.3
X43. R9.65
X21. R11.
X45.7 R12.35
X18.3 R13.7
X48.4 R15.05
X15.6 R16.4
X49. R16.7
X15. R17.
X49. R17.
X48.4 Y60.6 R0.6
G1 X47.8
G18 G3 X47.2 Z-10.4 R0.6
G1 X25.5
Z-10.9 F200.
G3 X24.9 Z-11.5 R0.6
G1 X24.3
G17 G3 X23.7 Y60. R0.6
X40.3 R8.3 F500.
X23.7 R8.3
X43. R9.65
X21. R11.
X45.7 R12.35
X18.3 R13.7
X48.4 R15.05
X15.6 R16.4
X49. R16.7
X15. R17.
X49. R17.
X48.4 Y60.6 R0.6
G1 X47.8
G18 G3 X47.2 Z-10.9 R0.6
G1 X25.5
Z-11.4 F200.
G3 X24.9 Z-12. R0.6
G1 X24.3
G17 G3 X23.7 Y60. R0.6
X40.3 R8.3 F500.
X23.7 R8.3
X43. R9.65
X21. R11.
X45.7 R12.35
X18.3 R13.7
X48.4 R15.05
X15.6 R16.4
X49. R16.7
X15. R17.
X49. R17.
X48.4 Y60.6 R0.6
G1 X47.8
G18 G3 X47.2 Z-11.4 R0.6
G0 Z15.
G17
G28 G91 Z0.
G90

(DRILL2 2)
M5
M9
M1
T2 M6
S20000 M3
M9
G0 X6. Y25.
G43 Z15. H2
Z5.
G98 G81 X6. Y25. Z-1. R5. F200.
X8.43 Y36.43
X55.57
Y83.57
X8.43
X6. Y95.
G80
Z15.

M9
G28 G91 Z0.
G28 X0. Y0.
M30
