(SCHLITTEN_CNC001)
(T1  D=6. CR=0. - ZMIN=-1.5 - SCHAFTFRSER)
G90 G94 G91.1 G40 G49 G17
G21
G28 G91 Z0.
G90

(2D POCKET3)
M5
M9
T1 M6
S10000 M3
G54
M7
G0 X66.195 Y-4.285
G43 Z15. H1
Z5.
G1 Z0.15 F200.
G19 G3 Y-3.685 Z-0.45 R0.6
G1 Y-2.888
Y132.9 F500.
G17 G3 X65.893 Y133.2 R0.3
G1 X64.103 Y133.188
G3 X63.805 Y132.888 R0.3
G1 Y-2.9
G3 X64.105 Y-3.2 R0.3
G1 X69.295 Y-3.192
G3 X69.595 Y-2.892 R0.3
G1 Y132.896
G3 X69.295 Y133.196 R0.3
G1 X60.705 Y133.192
G3 X60.405 Y132.892 R0.3
G1 Y-2.896
G3 X60.705 Y-3.196 R0.3
G1 X72.695 Y-3.195
G3 X72.995 Y-2.895 R0.3
G1 Y132.893
G3 X72.695 Y133.193 R0.3
G1 X57.305 Y133.195
G3 X57.005 Y132.895 R0.3
G1 Y-2.893
G3 X57.305 Y-3.193 R0.3
G1 X76.095 Y-3.199
G3 X76.395 Y-2.899 R0.3
G1 Y132.889
G3 X76.095 Y133.189 R0.3
G1 X53.905 Y133.199
G3 X53.605 Y132.899 R0.3
G1 Y-2.889
G3 X53.905 Y-3.189 R0.3
G1 X79.495 Y-3.19
G3 X79.795 Y-2.89 R0.3
G1 Y132.898
G3 X79.495 Y133.198 R0.3
G1 X50.505 Y133.19
G3 X50.205 Y132.89 R0.3
G1 Y-2.898
G3 X50.505 Y-3.198 R0.3
G1 X82.895 Y-3.194
G3 X83.195 Y-2.894 R0.3
G1 Y132.894
G3 X82.895 Y133.194 R0.3
G1 X47.105
G3 X46.805 Y132.894 R0.3
G1 Y-2.894
G3 X47.105 Y-3.194 R0.3
G1 X86.272 Y-3.197
G3 X86.572 Y-2.897 R0.3
G1 X86.55 Y130.
X86.551 Y132.892
G3 X86.251 Y133.193 R0.3
G1 X43.705 Y133.197
G3 X43.405 Y132.897 R0.3
G1 Y-2.891
G3 X43.705 Y-3.191 R0.3
G1 X89.7 Y-3.189
G3 X90. Y-2.889 R0.3
G1 Y132.892
G3 X89.993 Y132.986 R0.6
G1 X89.872 Y133.75
X89.857 Y133.843 Z-0.443
X89.843 Y133.933 Z-0.421
X89.829 Y134.019 Z-0.385
X89.816 Y134.099 Z-0.335
X89.805 Y134.169 Z-0.274
X89.796 Y134.23 Z-0.203
X89.788 Y134.278 Z-0.122
X89.782 Y134.314 Z-0.035
X89.779 Y134.336 Z0.056
X89.778 Y134.343 Z0.15
X40.224 Y134.35
Z0.09 F200.
X40.223 Y134.343 Z0.006
X40.22 Y134.324 Z-0.077
X40.215 Y134.292 Z-0.155
X40.208 Y134.248 Z-0.227
X40.199 Y134.194 Z-0.292
X40.189 Y134.13 Z-0.347
X40.178 Y134.059 Z-0.391
X40.166 Y133.981 Z-0.424
X40.153 Y133.9 Z-0.443
X40.139 Y133.817 Z-0.45
X40.007 Y132.983
G3 X40. Y132.889 R0.6
G1 Y-2.892 F500.
G3 X42.851 Y-5.742 Z-0.518 R2.85 F300.
G1 X63.346 Y-5.738 Z-0.832
G3 X66.195 Y-2.888 Z-0.9 R2.85
G1 Y132.9 F500.
G3 X65.893 Y133.2 R0.3
G1 X64.103 Y133.188
G3 X63.805 Y132.888 R0.3
G1 Y-2.9
G3 X64.105 Y-3.2 R0.3
G1 X69.295 Y-3.192
G3 X69.595 Y-2.892 R0.3
G1 Y132.896
G3 X69.295 Y133.196 R0.3
G1 X60.705 Y133.192
G3 X60.405 Y132.892 R0.3
G1 Y-2.896
G3 X60.705 Y-3.196 R0.3
G1 X72.695 Y-3.195
G3 X72.995 Y-2.895 R0.3
G1 Y132.893
G3 X72.695 Y133.193 R0.3
G1 X57.305 Y133.195
G3 X57.005 Y132.895 R0.3
G1 Y-2.893
G3 X57.305 Y-3.193 R0.3
G1 X76.095 Y-3.199
G3 X76.395 Y-2.899 R0.3
G1 Y132.889
G3 X76.095 Y133.189 R0.3
G1 X53.905 Y133.199
G3 X53.605 Y132.899 R0.3
G1 Y-2.889
G3 X53.905 Y-3.189 R0.3
G1 X79.495 Y-3.19
G3 X79.795 Y-2.89 R0.3
G1 Y132.898
G3 X79.495 Y133.198 R0.3
G1 X50.505 Y133.19
G3 X50.205 Y132.89 R0.3
G1 Y-2.898
G3 X50.505 Y-3.198 R0.3
G1 X82.895 Y-3.194
G3 X83.195 Y-2.894 R0.3
G1 Y132.894
G3 X82.895 Y133.194 R0.3
G1 X47.105
G3 X46.805 Y132.894 R0.3
G1 Y-2.894
G3 X47.105 Y-3.194 R0.3
G1 X86.272 Y-3.197
G3 X86.572 Y-2.897 R0.3
G1 X86.55 Y130.
X86.551 Y132.892
G3 X86.251 Y133.193 R0.3
G1 X43.705 Y133.197
G3 X43.405 Y132.897 R0.3
G1 Y-2.891
G3 X43.705 Y-3.191 R0.3
G1 X89.7 Y-3.189
G3 X90. Y-2.889 R0.3
G1 Y132.892
G3 X89.993 Y132.986 R0.6
G1 X89.872 Y133.75
X89.857 Y133.843 Z-0.893
X89.843 Y133.933 Z-0.871
X89.829 Y134.019 Z-0.835
X89.816 Y134.099 Z-0.785
X89.805 Y134.169 Z-0.724
X89.796 Y134.23 Z-0.653
X89.788 Y134.278 Z-0.572
X89.782 Y134.314 Z-0.485
X89.779 Y134.336 Z-0.394
X89.778 Y134.343 Z-0.3
X40.224 Y134.35
Z-0.36 F200.
X40.223 Y134.343 Z-0.444
X40.22 Y134.324 Z-0.527
X40.215 Y134.292 Z-0.605
X40.208 Y134.248 Z-0.677
X40.199 Y134.194 Z-0.742
X40.189 Y134.13 Z-0.797
X40.178 Y134.059 Z-0.841
X40.166 Y133.981 Z-0.874
X40.153 Y133.9 Z-0.893
X40.139 Y133.817 Z-0.9
X40.007 Y132.983
G3 X40. Y132.889 R0.6
G1 Y-2.892 F500.
G3 X42.851 Y-5.742 Z-0.968 R2.85 F300.
G1 X63.346 Y-5.738 Z-1.282
G3 X66.195 Y-2.888 Z-1.35 R2.85
G1 Y132.9 F500.
G3 X65.893 Y133.2 R0.3
G1 X64.103 Y133.188
G3 X63.805 Y132.888 R0.3
G1 Y-2.9
G3 X64.105 Y-3.2 R0.3
G1 X69.295 Y-3.192
G3 X69.595 Y-2.892 R0.3
G1 Y132.896
G3 X69.295 Y133.196 R0.3
G1 X60.705 Y133.192
G3 X60.405 Y132.892 R0.3
G1 Y-2.896
G3 X60.705 Y-3.196 R0.3
G1 X72.695 Y-3.195
G3 X72.995 Y-2.895 R0.3
G1 Y132.893
G3 X72.695 Y133.193 R0.3
G1 X57.305 Y133.195
G3 X57.005 Y132.895 R0.3
G1 Y-2.893
G3 X57.305 Y-3.193 R0.3
G1 X76.095 Y-3.199
G3 X76.395 Y-2.899 R0.3
G1 Y132.889
G3 X76.095 Y133.189 R0.3
G1 X53.905 Y133.199
G3 X53.605 Y132.899 R0.3
G1 Y-2.889
G3 X53.905 Y-3.189 R0.3
G1 X79.495 Y-3.19
G3 X79.795 Y-2.89 R0.3
G1 Y132.898
G3 X79.495 Y133.198 R0.3
G1 X50.505 Y133.19
G3 X50.205 Y132.89 R0.3
G1 Y-2.898
G3 X50.505 Y-3.198 R0.3
G1 X82.895 Y-3.194
G3 X83.195 Y-2.894 R0.3
G1 Y132.894
G3 X82.895 Y133.194 R0.3
G1 X47.105
G3 X46.805 Y132.894 R0.3
G1 Y-2.894
G3 X47.105 Y-3.194 R0.3
G1 X86.272 Y-3.197
G3 X86.572 Y-2.897 R0.3
G1 X86.55 Y130.
X86.551 Y132.892
G3 X86.251 Y133.193 R0.3
G1 X43.705 Y133.197
G3 X43.405 Y132.897 R0.3
G1 Y-2.891
G3 X43.705 Y-3.191 R0.3
G1 X89.7 Y-3.189
G3 X90. Y-2.889 R0.3
G1 Y132.892
G3 X89.993 Y132.986 R0.6
G1 X89.872 Y133.75
X89.857 Y133.843 Z-1.343
X89.843 Y133.933 Z-1.321
X89.829 Y134.019 Z-1.285
X89.816 Y134.099 Z-1.235
X89.805 Y134.169 Z-1.174
X89.796 Y134.23 Z-1.103
X89.788 Y134.278 Z-1.022
X89.782 Y134.314 Z-0.935
X89.779 Y134.336 Z-0.844
X89.778 Y134.343 Z-0.75
X40.224 Y134.35
Z-0.81 F200.
X40.223 Y134.343 Z-0.894
X40.22 Y134.324 Z-0.977
X40.215 Y134.292 Z-1.055
X40.208 Y134.248 Z-1.127
X40.199 Y134.194 Z-1.192
X40.189 Y134.13 Z-1.247
X40.178 Y134.059 Z-1.291
X40.166 Y133.981 Z-1.324
X40.153 Y133.9 Z-1.343
X40.139 Y133.817 Z-1.35
X40.007 Y132.983
G3 X40. Y132.889 R0.6
G1 Y-2.892 F500.
G3 X42.851 Y-5.742 Z-1.373 R2.85 F300.
G1 X63.346 Y-5.738 Z-1.477
G3 X66.195 Y-2.888 Z-1.5 R2.85
G1 Y132.9 F500.
G3 X65.893 Y133.2 R0.3
G1 X64.103 Y133.188
G3 X63.805 Y132.888 R0.3
G1 Y-2.9
G3 X64.105 Y-3.2 R0.3
G1 X69.295 Y-3.192
G3 X69.595 Y-2.892 R0.3
G1 Y132.896
G3 X69.295 Y133.196 R0.3
G1 X60.705 Y133.192
G3 X60.405 Y132.892 R0.3
G1 Y-2.896
G3 X60.705 Y-3.196 R0.3
G1 X72.695 Y-3.195
G3 X72.995 Y-2.895 R0.3
G1 Y132.893
G3 X72.695 Y133.193 R0.3
G1 X57.305 Y133.195
G3 X57.005 Y132.895 R0.3
G1 Y-2.893
G3 X57.305 Y-3.193 R0.3
G1 X76.095 Y-3.199
G3 X76.395 Y-2.899 R0.3
G1 Y132.889
G3 X76.095 Y133.189 R0.3
G1 X53.905 Y133.199
G3 X53.605 Y132.899 R0.3
G1 Y-2.889
G3 X53.905 Y-3.189 R0.3
G1 X79.495 Y-3.19
G3 X79.795 Y-2.89 R0.3
G1 Y132.898
G3 X79.495 Y133.198 R0.3
G1 X50.505 Y133.19
G3 X50.205 Y132.89 R0.3
G1 Y-2.898
G3 X50.505 Y-3.198 R0.3
G1 X82.895 Y-3.194
G3 X83.195 Y-2.894 R0.3
G1 Y132.894
G3 X82.895 Y133.194 R0.3
G1 X47.105
G3 X46.805 Y132.894 R0.3
G1 Y-2.894
G3 X47.105 Y-3.194 R0.3
G1 X86.272 Y-3.197
G3 X86.572 Y-2.897 R0.3
G1 X86.55 Y130.
X86.551 Y132.892
G3 X86.251 Y133.193 R0.3
G1 X43.705 Y133.197
G3 X43.405 Y132.897 R0.3
G1 Y-2.891
G3 X43.705 Y-3.191 R0.3
G1 X89.7 Y-3.189
G3 X90. Y-2.889 R0.3
G1 Y132.892
G3 X89.993 Y132.986 R0.6
G1 X89.872 Y133.75
X89.857 Y133.843 Z-1.493
X89.843 Y133.933 Z-1.471
X89.829 Y134.019 Z-1.435
X89.816 Y134.099 Z-1.385
X89.805 Y134.169 Z-1.324
X89.796 Y134.23 Z-1.253
X89.788 Y134.278 Z-1.172
X89.782 Y134.314 Z-1.085
X89.779 Y134.336 Z-0.994
X89.778 Y134.343 Z-0.9
X40.224 Y134.35
Z-0.96 F200.
X40.223 Y134.343 Z-1.044
X40.22 Y134.324 Z-1.127
X40.215 Y134.292 Z-1.205
X40.208 Y134.248 Z-1.277
X40.199 Y134.194 Z-1.342
X40.189 Y134.13 Z-1.397
X40.178 Y134.059 Z-1.441
X40.166 Y133.981 Z-1.474
X40.153 Y133.9 Z-1.493
X40.139 Y133.817 Z-1.5
X40.007 Y132.983
G3 X40. Y132.889 R0.6
G1 Y-2.892 F500.
G3 X40.007 Y-2.986 R0.6
G1 X40.128 Y-3.75
X40.143 Y-3.843 Z-1.493
X40.157 Y-3.933 Z-1.471
X40.171 Y-4.019 Z-1.435
X40.184 Y-4.099 Z-1.385
X40.195 Y-4.169 Z-1.324
X40.204 Y-4.23 Z-1.253
X40.212 Y-4.278 Z-1.172
X40.218 Y-4.314 Z-1.085
X40.221 Y-4.336 Z-0.994
X40.222 Y-4.343 Z-0.9
G0 Z15.

M9
G28 G91 Z0.
G28 X0. Y0.
M30
