(SCHLITTEN_CNC003)
(T1  D=6. CR=0. - ZMIN=-1. - SCHAFTFRSER)
(T5  D=3. CR=0. - ZMIN=-5.6 - SCHAFTFRSER)
G90 G94 G91.1 G40 G49 G17
G21
G28 G91 Z0.
G90

(FACE2 2)
M5
M9
T1 M6
S10000 M3
G54
M7
G0 X130.52 Y133.85
G43 Z5. H1
Z2.
G1 Z0.1 F200.
G19 G2 Y133.25 Z-0.5 R0.6
G1 Y130. F600.
Y0.
G17 G2 X128.066 R1.227
G1 Y130.
G3 X125.611 R1.227
G1 Y0.
G2 X123.156 R1.227
G1 Y130.
G3 X120.701 R1.227
G1 Y0.
G2 X118.247 R1.227
G1 Y130.
G3 X115.792 R1.227
G1 Y0.
G2 X113.337 R1.227
G1 Y130.
G3 X110.883 R1.227
G1 Y0.
G2 X108.428 R1.227
G1 Y130.
G3 X105.973 R1.227
G1 Y0.
G2 X103.518 R1.227
G1 Y130.
G3 X101.064 R1.227
G1 Y0.
G2 X98.609 R1.227
G1 Y130.
G3 X96.154 R1.227
G1 Y0.
G2 X93.7 R1.227
G1 Y130.
G3 X91.245 R1.227
G1 Y0.
G2 X88.79 R1.227
G1 Y130.
G3 X86.335 R1.227
G1 Y0.
G2 X83.881 R1.227
G1 Y130.
G3 X81.426 R1.227
G1 Y0.
G2 X78.971 R1.227
G1 Y130.
G3 X76.517 R1.227
G1 Y0.
G2 X74.062 R1.227
G1 Y130.
G3 X71.607 R1.227
G1 Y0.
G2 X69.152 R1.227
G1 Y130.
G3 X66.698 R1.227
G1 Y0.
G2 X64.243 R1.227
G1 Y130.
G3 X61.788 R1.227
G1 Y0.
G2 X59.333 R1.227
G1 Y130.
G3 X56.879 R1.227
G1 Y0.
G2 X54.424 R1.227
G1 Y130.
G3 X51.969 R1.227
G1 Y0.
G2 X49.515 R1.227
G1 Y130.
G3 X47.06 R1.227
G1 Y0.
G2 X44.605 R1.227
G1 Y130.
G3 X42.15 R1.227
G1 Y0.
G2 X39.696 R1.227
G1 Y130.
G3 X37.241 R1.227
G1 Y0.
G2 X34.786 R1.227
G1 Y130.
G3 X32.332 R1.227
G1 Y0.
G2 X29.877 R1.227
G1 Y130.
G3 X27.422 R1.227
G1 Y0.
G2 X24.967 R1.227
G1 Y130.
G3 X22.513 R1.227
G1 Y0.
G2 X20.058 R1.227
G1 Y130.
G3 X17.603 R1.227
G1 Y0.
G2 X15.149 R1.227
G1 Y130.
G3 X12.694 R1.227
G1 Y0.
G2 X10.239 R1.227
G1 Y130.
G3 X7.784 R1.227
G1 Y0.
G2 X5.33 R1.227
G1 Y130.
G3 X2.875 R1.227
G1 Y0.
G19 G2 Y-0.6 Z0.1 R0.6
G0 Z3.
X130.52 Y-3.85
Z2.
G1 Z-0.4 F200.
G3 Y-3.25 Z-1. R0.6
G1 Y0. F600.
Y130.
G17 G3 X128.066 R1.227
G1 Y0.
G2 X125.611 R1.227
G1 Y130.
G3 X123.156 R1.227
G1 Y0.
G2 X120.701 R1.227
G1 Y130.
G3 X118.247 R1.227
G1 Y0.
G2 X115.792 R1.227
G1 Y130.
G3 X113.337 R1.227
G1 Y0.
G2 X110.883 R1.227
G1 Y130.
G3 X108.428 R1.227
G1 Y0.
G2 X105.973 R1.227
G1 Y130.
G3 X103.518 R1.227
G1 Y0.
G2 X101.064 R1.227
G1 Y130.
G3 X98.609 R1.227
G1 Y0.
G2 X96.154 R1.227
G1 Y130.
G3 X93.7 R1.227
G1 Y0.
G2 X91.245 R1.227
G1 Y130.
G3 X88.79 R1.227
G1 Y0.
G2 X86.335 R1.227
G1 Y130.
G3 X83.881 R1.227
G1 Y0.
G2 X81.426 R1.227
G1 Y130.
G3 X78.971 R1.227
G1 Y0.
G2 X76.517 R1.227
G1 Y130.
G3 X74.062 R1.227
G1 Y0.
G2 X71.607 R1.227
G1 Y130.
G3 X69.152 R1.227
G1 Y0.
G2 X66.698 R1.227
G1 Y130.
G3 X64.243 R1.227
G1 Y0.
G2 X61.788 R1.227
G1 Y130.
G3 X59.333 R1.227
G1 Y0.
G2 X56.879 R1.227
G1 Y130.
G3 X54.424 R1.227
G1 Y0.
G2 X51.969 R1.227
G1 Y130.
G3 X49.515 R1.227
G1 Y0.
G2 X47.06 R1.227
G1 Y130.
G3 X44.605 R1.227
G1 Y0.
G2 X42.15 R1.227
G1 Y130.
G3 X39.696 R1.227
G1 Y0.
G2 X37.241 R1.227
G1 Y130.
G3 X34.786 R1.227
G1 Y0.
G2 X32.332 R1.227
G1 Y130.
G3 X29.877 R1.227
G1 Y0.
G2 X27.422 R1.227
G1 Y130.
G3 X24.967 R1.227
G1 Y0.
G2 X22.513 R1.227
G1 Y130.
G3 X20.058 R1.227
G1 Y0.
G2 X17.603 R1.227
G1 Y130.
G3 X15.149 R1.227
G1 Y0.
G2 X12.694 R1.227
G1 Y130.
G3 X10.239 R1.227
G1 Y0.
G2 X7.784 R1.227
G1 Y130.
G3 X5.33 R1.227
G1 Y0.
G2 X2.875 R1.227
G1 Y130.
G19 G3 Y130.6 Z-0.4 R0.6
G0 Z5.
G17
G28 G91 Z0.
G90

(BORE1)
M5
M9
M1
T5 M6
S27000 M3
M7
G0 X30.245 Y123.985
G43 Z4. H5
Z1.
G1 Z-0.7 F235.
X30.249 Y123.979 Z-0.767
X30.26 Y123.959 Z-0.83
X30.278 Y123.929 Z-0.887
X30.302 Y123.887 Z-0.935
X30.33 Y123.838 Z-0.97
X30.362 Y123.784 Z-0.992
X30.396 Y123.726 Z-1.
X30.471 Y123.596
G3 X30.882 Y123.488 R0.3
X29.118 Y126.512 Z-1.125 R1.75 F650.
X30.882 Y123.488 Z-1.25 R1.75
X29.118 Y126.512 Z-1.375 R1.75
X30.882 Y123.488 Z-1.5 R1.75
X29.118 Y126.512 Z-1.625 R1.75
X30.882 Y123.488 Z-1.75 R1.75
X29.118 Y126.512 Z-1.875 R1.75
X30.882 Y123.488 Z-2. R1.75
X29.118 Y126.512 Z-2.125 R1.75
X30.882 Y123.488 Z-2.25 R1.75
X29.118 Y126.512 Z-2.375 R1.75
X30.882 Y123.488 Z-2.5 R1.75
X29.118 Y126.512 Z-2.625 R1.75
X30.882 Y123.488 Z-2.75 R1.75
X29.118 Y126.512 Z-2.875 R1.75
X30.882 Y123.488 Z-3. R1.75
X29.118 Y126.512 Z-3.125 R1.75
X30.882 Y123.488 Z-3.25 R1.75
X29.118 Y126.512 Z-3.375 R1.75
X30.882 Y123.488 Z-3.5 R1.75
X29.118 Y126.512 Z-3.625 R1.75
X30.882 Y123.488 Z-3.75 R1.75
X29.118 Y126.512 Z-3.875 R1.75
X30.882 Y123.488 Z-4. R1.75
X29.118 Y126.512 Z-4.125 R1.75
X30.882 Y123.488 Z-4.25 R1.75
X29.118 Y126.512 Z-4.375 R1.75
X28.398 Y125.705 Z-4.4 R1.75
X31.602 Y124.295 R1.75
X28.398 Y125.705 R1.75
X28.552 Y125.309 R0.3
G1 X28.689 Y125.249
X28.75 Y125.222 Z-4.392
X28.808 Y125.196 Z-4.37
X28.86 Y125.174 Z-4.335
X28.904 Y125.154 Z-4.287
X28.937 Y125.14 Z-4.23
X28.957 Y125.131 Z-4.167
X28.964 Y125.128 Z-4.1
G0 Z2.
X10.455 Y124.06
Z1.
G1 Z-0.7 F235.
X10.46 Y124.055 Z-0.767
X10.475 Y124.038 Z-0.83
X10.499 Y124.012 Z-0.887
X10.531 Y123.977 Z-0.935
X10.569 Y123.935 Z-0.97
X10.612 Y123.888 Z-0.992
X10.657 Y123.839 Z-1.
X10.759 Y123.728
G3 X11.183 Y123.71 R0.3
X8.817 Y126.29 Z-1.125 R1.75 F650.
X11.183 Y123.71 Z-1.25 R1.75
X8.817 Y126.29 Z-1.375 R1.75
X11.183 Y123.71 Z-1.5 R1.75
X8.817 Y126.29 Z-1.625 R1.75
X11.183 Y123.71 Z-1.75 R1.75
X8.817 Y126.29 Z-1.875 R1.75
X11.183 Y123.71 Z-2. R1.75
X8.817 Y126.29 Z-2.125 R1.75
X11.183 Y123.71 Z-2.25 R1.75
X8.817 Y126.29 Z-2.375 R1.75
X11.183 Y123.71 Z-2.5 R1.75
X8.817 Y126.29 Z-2.625 R1.75
X11.183 Y123.71 Z-2.75 R1.75
X8.817 Y126.29 Z-2.875 R1.75
X11.183 Y123.71 Z-3. R1.75
X8.817 Y126.29 Z-3.125 R1.75
X11.183 Y123.71 Z-3.25 R1.75
X8.817 Y126.29 Z-3.375 R1.75
X11.183 Y123.71 Z-3.5 R1.75
X8.817 Y126.29 Z-3.625 R1.75
X11.183 Y123.71 Z-3.75 R1.75
X8.817 Y126.29 Z-3.875 R1.75
X11.183 Y123.71 Z-4. R1.75
X8.817 Y126.29 Z-4.125 R1.75
X11.183 Y123.71 Z-4.25 R1.75
X8.817 Y126.29 Z-4.375 R1.75
X8.285 Y125.349 Z-4.4 R1.75
X11.715 Y124.651 R1.75
X8.285 Y125.349 R1.75
X8.519 Y124.995 R0.3
G1 X8.666 Y124.965
X8.732 Y124.952 Z-4.392
X8.794 Y124.939 Z-4.37
X8.85 Y124.928 Z-4.335
X8.896 Y124.918 Z-4.287
X8.931 Y124.911 Z-4.23
X8.953 Y124.907 Z-4.167
X8.96 Y124.905 Z-4.1
G0 Z2.
X10.683 Y99.21
Z1.
G1 Z-0.7 F235.
X10.689 Y99.206 Z-0.767
X10.708 Y99.194 Z-0.83
X10.738 Y99.175 Z-0.887
X10.778 Y99.149 Z-0.935
X10.826 Y99.119 Z-0.97
X10.879 Y99.085 Z-0.992
X10.936 Y99.049 Z-1.
X11.062 Y98.968
G3 X11.476 Y99.06 R0.3
X8.524 Y100.94 Z-1.125 R1.75 F650.
X11.476 Y99.06 Z-1.25 R1.75
X8.524 Y100.94 Z-1.375 R1.75
X11.476 Y99.06 Z-1.5 R1.75
X8.524 Y100.94 Z-1.625 R1.75
X11.476 Y99.06 Z-1.75 R1.75
X8.524 Y100.94 Z-1.875 R1.75
X11.476 Y99.06 Z-2. R1.75
X8.524 Y100.94 Z-2.125 R1.75
X11.476 Y99.06 Z-2.25 R1.75
X8.524 Y100.94 Z-2.375 R1.75
X11.476 Y99.06 Z-2.5 R1.75
X8.524 Y100.94 Z-2.625 R1.75
X11.476 Y99.06 Z-2.75 R1.75
X8.524 Y100.94 Z-2.875 R1.75
X11.476 Y99.06 Z-3. R1.75
X8.524 Y100.94 Z-3.125 R1.75
X11.476 Y99.06 Z-3.25 R1.75
X8.524 Y100.94 Z-3.375 R1.75
X11.476 Y99.06 Z-3.5 R1.75
X8.524 Y100.94 Z-3.625 R1.75
X11.476 Y99.06 Z-3.75 R1.75
X8.524 Y100.94 Z-3.875 R1.75
X11.476 Y99.06 Z-4. R1.75
X8.524 Y100.94 Z-4.125 R1.75
X11.476 Y99.06 Z-4.25 R1.75
X8.524 Y100.94 Z-4.375 R1.75
X8.253 Y99.892 Z-4.4 R1.75
X11.747 Y100.108 R1.75
X8.253 Y99.892 R1.75
X8.571 Y99.611 R0.3
G1 X8.721 Y99.621
X8.788 Y99.625 Z-4.392
X8.851 Y99.629 Z-4.37
X8.908 Y99.632 Z-4.335
X8.955 Y99.635 Z-4.287
X8.991 Y99.637 Z-4.23
X9.013 Y99.639 Z-4.167
X9.02 Z-4.1
G0 Z2.
X30.495 Y99.081
Z1.
G1 Z-0.7 F235.
X30.5 Y99.075 Z-0.767
X30.516 Y99.06 Z-0.83
X30.541 Y99.034 Z-0.887
X30.575 Y99.001 Z-0.935
X30.615 Y98.961 Z-0.97
X30.66 Y98.916 Z-0.992
X30.707 Y98.869 Z-1.
X30.813 Y98.763
G3 X31.237 R0.3
X28.763 Y101.237 Z-1.125 R1.75 F650.
X31.237 Y98.763 Z-1.25 R1.75
X28.763 Y101.237 Z-1.375 R1.75
X31.237 Y98.763 Z-1.5 R1.75
X28.763 Y101.237 Z-1.625 R1.75
X31.237 Y98.763 Z-1.75 R1.75
X28.763 Y101.237 Z-1.875 R1.75
X31.237 Y98.763 Z-2. R1.75
X28.763 Y101.237 Z-2.125 R1.75
X31.237 Y98.763 Z-2.25 R1.75
X28.763 Y101.237 Z-2.375 R1.75
X31.237 Y98.763 Z-2.5 R1.75
X28.763 Y101.237 Z-2.625 R1.75
X31.237 Y98.763 Z-2.75 R1.75
X28.763 Y101.237 Z-2.875 R1.75
X31.237 Y98.763 Z-3. R1.75
X28.763 Y101.237 Z-3.125 R1.75
X31.237 Y98.763 Z-3.25 R1.75
X28.763 Y101.237 Z-3.375 R1.75
X31.237 Y98.763 Z-3.5 R1.75
X28.763 Y101.237 Z-3.625 R1.75
X31.237 Y98.763 Z-3.75 R1.75
X28.763 Y101.237 Z-3.875 R1.75
X31.237 Y98.763 Z-4. R1.75
X28.763 Y101.237 Z-4.125 R1.75
X31.237 Y98.763 Z-4.25 R1.75
X28.763 Y101.237 Z-4.375 R1.75
X28.272 Y100.274 Z-4.4 R1.75
X31.728 Y99.726 R1.75
X28.272 Y100.274 R1.75
X28.521 Y99.931 R0.3
G1 X28.669 Y99.907
X28.735 Y99.897 Z-4.392
X28.798 Y99.887 Z-4.37
X28.854 Y99.878 Z-4.335
X28.901 Y99.87 Z-4.287
X28.936 Y99.865 Z-4.23
X28.958 Y99.861 Z-4.167
X28.965 Y99.86 Z-4.1
G0 Z2.
X63.332 Y83.232
Z1.
G1 Z-0.7 F235.
Y83.225 Z-0.767
X63.334 Y83.203 Z-0.83
X63.337 Y83.167 Z-0.887
X63.34 Y83.12 Z-0.935
X63.344 Y83.063 Z-0.97
X63.349 Y83. Z-0.992
X63.354 Y82.933 Z-1.
X63.365 Y82.784
G3 X63.687 Y82.507 R0.3
X63.313 Y87.493 Z-1.125 R2.5 F650.
X63.687 Y82.507 Z-1.25 R2.5
X63.313 Y87.493 Z-1.375 R2.5
X63.687 Y82.507 Z-1.5 R2.5
X63.313 Y87.493 Z-1.625 R2.5
X63.687 Y82.507 Z-1.75 R2.5
X63.313 Y87.493 Z-1.875 R2.5
X63.687 Y82.507 Z-2. R2.5
X63.313 Y87.493 Z-2.125 R2.5
X63.687 Y82.507 Z-2.25 R2.5
X63.313 Y87.493 Z-2.375 R2.5
X63.687 Y82.507 Z-2.5 R2.5
X63.313 Y87.493 Z-2.625 R2.5
X63.687 Y82.507 Z-2.75 R2.5
X63.313 Y87.493 Z-2.875 R2.5
X63.687 Y82.507 Z-3. R2.5
X63.313 Y87.493 Z-3.125 R2.5
X63.687 Y82.507 Z-3.25 R2.5
X63.313 Y87.493 Z-3.375 R2.5
X63.687 Y82.507 Z-3.5 R2.5
X63.313 Y87.493 Z-3.625 R2.5
X63.687 Y82.507 Z-3.75 R2.5
X63.313 Y87.493 Z-3.875 R2.5
X63.687 Y82.507 Z-4. R2.5
X63.313 Y87.493 Z-4.125 R2.5
X63.687 Y82.507 Z-4.25 R2.5
X63.313 Y87.493 Z-4.375 R2.5
X63.687 Y82.507 Z-4.5 R2.5
X63.313 Y87.493 Z-4.625 R2.5
X63.687 Y82.507 Z-4.75 R2.5
X63.313 Y87.493 Z-4.875 R2.5
X63.687 Y82.507 Z-5. R2.5
X63.313 Y87.493 Z-5.125 R2.5
X63.687 Y82.507 Z-5.25 R2.5
X63.313 Y87.493 Z-5.375 R2.5
X63.687 Y82.507 Z-5.5 R2.5
X64.814 Y87.127 Z-5.6 R2.5
X62.186 Y82.873 R2.5
X64.814 Y87.127 R2.5
X64.401 Y87.029 R0.3
G1 X64.322 Y86.902
X64.287 Y86.845 Z-5.592
X64.254 Y86.791 Z-5.57
X64.224 Y86.743 Z-5.535
X64.199 Y86.702 Z-5.487
X64.18 Y86.672 Z-5.43
X64.169 Y86.653 Z-5.367
X64.165 Y86.646 Z-5.3
G0 Z2.
X86.973 Y84.094
Z1.
G1 Z-0.7 F235.
X86.967 Y84.089 Z-0.767
X86.95 Y84.075 Z-0.83
X86.923 Y84.052 Z-0.887
X86.887 Y84.021 Z-0.935
X86.844 Y83.984 Z-0.97
X86.795 Y83.943 Z-0.992
X86.744 Y83.9 Z-1.
X86.63 Y83.803
G3 X86.596 Y83.38 R0.3
X90.404 Y86.62 Z-1.125 R2.5 F650.
X86.596 Y83.38 Z-1.25 R2.5
X90.404 Y86.62 Z-1.375 R2.5
X86.596 Y83.38 Z-1.5 R2.5
X90.404 Y86.62 Z-1.625 R2.5
X86.596 Y83.38 Z-1.75 R2.5
X90.404 Y86.62 Z-1.875 R2.5
X86.596 Y83.38 Z-2. R2.5
X90.404 Y86.62 Z-2.125 R2.5
X86.596 Y83.38 Z-2.25 R2.5
X90.404 Y86.62 Z-2.375 R2.5
X86.596 Y83.38 Z-2.5 R2.5
X90.404 Y86.62 Z-2.625 R2.5
X86.596 Y83.38 Z-2.75 R2.5
X90.404 Y86.62 Z-2.875 R2.5
X86.596 Y83.38 Z-3. R2.5
X90.404 Y86.62 Z-3.125 R2.5
X86.596 Y83.38 Z-3.25 R2.5
X90.404 Y86.62 Z-3.375 R2.5
X86.596 Y83.38 Z-3.5 R2.5
X90.404 Y86.62 Z-3.625 R2.5
X86.596 Y83.38 Z-3.75 R2.5
X90.404 Y86.62 Z-3.875 R2.5
X86.596 Y83.38 Z-4. R2.5
X90.404 Y86.62 Z-4.125 R2.5
X86.596 Y83.38 Z-4.25 R2.5
X90.404 Y86.62 Z-4.375 R2.5
X86.596 Y83.38 Z-4.5 R2.5
X90.404 Y86.62 Z-4.625 R2.5
X86.596 Y83.38 Z-4.75 R2.5
X90.404 Y86.62 Z-4.875 R2.5
X86.596 Y83.38 Z-5. R2.5
X90.404 Y86.62 Z-5.125 R2.5
X86.596 Y83.38 Z-5.25 R2.5
X90.404 Y86.62 Z-5.375 R2.5
X86.596 Y83.38 Z-5.5 R2.5
X90.993 Y85.192 Z-5.6 R2.5
X86.007 Y84.808 R2.5
X90.993 Y85.192 R2.5
X90.671 Y85.468 R0.3
G1 X90.521 Y85.456
X90.454 Y85.451 Z-5.592
X90.391 Y85.446 Z-5.57
X90.334 Y85.442 Z-5.535
X90.287 Y85.438 Z-5.487
X90.251 Y85.436 Z-5.43
X90.229 Y85.434 Z-5.367
X90.222 Y85.433 Z-5.3
G0 Z2.
X94.121 Y99.436
Z1.
G1 Z-0.7 F235.
X94.117 Y99.43 Z-0.767
X94.102 Y99.413 Z-0.83
X94.079 Y99.386 Z-0.887
X94.048 Y99.35 Z-0.935
X94.011 Y99.307 Z-0.97
X93.97 Y99.259 Z-0.992
X93.926 Y99.208 Z-1.
X93.829 Y99.094
G3 X93.861 Y98.671 R0.3
X96.139 Y101.329 Z-1.125 R1.75 F650.
X93.861 Y98.671 Z-1.25 R1.75
X96.139 Y101.329 Z-1.375 R1.75
X93.861 Y98.671 Z-1.5 R1.75
X96.139 Y101.329 Z-1.625 R1.75
X93.861 Y98.671 Z-1.75 R1.75
X96.139 Y101.329 Z-1.875 R1.75
X93.861 Y98.671 Z-2. R1.75
X96.139 Y101.329 Z-2.125 R1.75
X93.861 Y98.671 Z-2.25 R1.75
X96.139 Y101.329 Z-2.375 R1.75
X93.861 Y98.671 Z-2.5 R1.75
X96.139 Y101.329 Z-2.625 R1.75
X93.861 Y98.671 Z-2.75 R1.75
X96.139 Y101.329 Z-2.875 R1.75
X93.861 Y98.671 Z-3. R1.75
X96.139 Y101.329 Z-3.125 R1.75
X93.861 Y98.671 Z-3.25 R1.75
X96.139 Y101.329 Z-3.375 R1.75
X93.861 Y98.671 Z-3.5 R1.75
X96.139 Y101.329 Z-3.625 R1.75
X93.861 Y98.671 Z-3.75 R1.75
X96.139 Y101.329 Z-3.875 R1.75
X93.861 Y98.671 Z-4. R1.75
X96.139 Y101.329 Z-4.125 R1.75
X93.861 Y98.671 Z-4.25 R1.75
X96.139 Y101.329 Z-4.375 R1.75
X95.14 Y101.744 Z-4.4 R1.75
X94.86 Y98.256 R1.75
X95.14 Y101.744 R1.75
X94.817 Y101.469 R0.3
G1 X94.805 Y101.32
X94.8 Y101.253 Z-4.392
X94.795 Y101.19 Z-4.37
X94.79 Y101.133 Z-4.335
X94.786 Y101.086 Z-4.287
X94.784 Y101.05 Z-4.23
X94.782 Y101.028 Z-4.167
X94.781 Y101.021 Z-4.1
G0 Z2.
X115.716 Y100.76
Z1.
G1 Z-0.7 F235.
X115.719 Y100.767 Z-0.767
X115.729 Y100.787 Z-0.83
X115.745 Y100.819 Z-0.887
X115.766 Y100.861 Z-0.935
X115.791 Y100.912 Z-0.97
X115.82 Y100.969 Z-0.992
X115.85 Y101.029 Z-1.
X115.917 Y101.163
G3 X115.783 Y101.565 R0.3
X114.217 Y98.435 Z-1.125 R1.75 F650.
X115.783 Y101.565 Z-1.25 R1.75
X114.217 Y98.435 Z-1.375 R1.75
X115.783 Y101.565 Z-1.5 R1.75
X114.217 Y98.435 Z-1.625 R1.75
X115.783 Y101.565 Z-1.75 R1.75
X114.217 Y98.435 Z-1.875 R1.75
X115.783 Y101.565 Z-2. R1.75
X114.217 Y98.435 Z-2.125 R1.75
X115.783 Y101.565 Z-2.25 R1.75
X114.217 Y98.435 Z-2.375 R1.75
X115.783 Y101.565 Z-2.5 R1.75
X114.217 Y98.435 Z-2.625 R1.75
X115.783 Y101.565 Z-2.75 R1.75
X114.217 Y98.435 Z-2.875 R1.75
X115.783 Y101.565 Z-3. R1.75
X114.217 Y98.435 Z-3.125 R1.75
X115.783 Y101.565 Z-3.25 R1.75
X114.217 Y98.435 Z-3.375 R1.75
X115.783 Y101.565 Z-3.5 R1.75
X114.217 Y98.435 Z-3.625 R1.75
X115.783 Y101.565 Z-3.75 R1.75
X114.217 Y98.435 Z-3.875 R1.75
X115.783 Y101.565 Z-4. R1.75
X114.217 Y98.435 Z-4.125 R1.75
X115.783 Y101.565 Z-4.25 R1.75
X114.217 Y98.435 Z-4.375 R1.75
X115.287 Y98.274 Z-4.4 R1.75
X114.713 Y101.726 R1.75
X115.287 Y98.274 R1.75
X115.534 Y98.619 R0.3
G1 X115.509 Y98.767
X115.498 Y98.833 Z-4.392
X115.488 Y98.895 Z-4.37
X115.478 Y98.951 Z-4.335
X115.471 Y98.998 Z-4.287
X115.465 Y99.033 Z-4.23
X115.461 Y99.055 Z-4.167
X115.46 Y99.063 Z-4.1
G0 Z2.
X116.044 Y125.032
Z1.
G1 Z-0.7 F235.
X116.051 Y125.034 Z-0.767
X116.072 Y125.041 Z-0.83
X116.106 Y125.052 Z-0.887
X116.151 Y125.067 Z-0.935
X116.205 Y125.085 Z-0.97
X116.265 Y125.105 Z-0.992
X116.328 Y125.126 Z-1.
X116.47 Y125.174
G3 X116.66 Y125.553 R0.3
X113.34 Y124.447 Z-1.125 R1.75 F650.
X116.66 Y125.553 Z-1.25 R1.75
X113.34 Y124.447 Z-1.375 R1.75
X116.66 Y125.553 Z-1.5 R1.75
X113.34 Y124.447 Z-1.625 R1.75
X116.66 Y125.553 Z-1.75 R1.75
X113.34 Y124.447 Z-1.875 R1.75
X116.66 Y125.553 Z-2. R1.75
X113.34 Y124.447 Z-2.125 R1.75
X116.66 Y125.553 Z-2.25 R1.75
X113.34 Y124.447 Z-2.375 R1.75
X116.66 Y125.553 Z-2.5 R1.75
X113.34 Y124.447 Z-2.625 R1.75
X116.66 Y125.553 Z-2.75 R1.75
X113.34 Y124.447 Z-2.875 R1.75
X116.66 Y125.553 Z-3. R1.75
X113.34 Y124.447 Z-3.125 R1.75
X116.66 Y125.553 Z-3.25 R1.75
X113.34 Y124.447 Z-3.375 R1.75
X116.66 Y125.553 Z-3.5 R1.75
X113.34 Y124.447 Z-3.625 R1.75
X116.66 Y125.553 Z-3.75 R1.75
X113.34 Y124.447 Z-3.875 R1.75
X116.66 Y125.553 Z-4. R1.75
X113.34 Y124.447 Z-4.125 R1.75
X116.66 Y125.553 Z-4.25 R1.75
X113.34 Y124.447 Z-4.375 R1.75
X113.982 Y123.576 Z-4.4 R1.75
X116.018 Y126.424 R1.75
X113.982 Y123.576 R1.75
X114.401 Y123.646 R0.3
G1 X114.488 Y123.768
X114.527 Y123.822 Z-4.392
X114.564 Y123.874 Z-4.37
X114.597 Y123.92 Z-4.335
X114.624 Y123.959 Z-4.287
X114.645 Y123.988 Z-4.23
X114.658 Y124.006 Z-4.167
X114.662 Y124.012 Z-4.1
G0 Z2.
X96.032 Y124.844
Z1.
G1 Z-0.7 F235.
X96.04 Y124.846 Z-0.767
X96.062 Y124.849 Z-0.83
X96.097 Y124.854 Z-0.887
X96.144 Y124.86 Z-0.935
X96.201 Y124.868 Z-0.97
X96.263 Y124.877 Z-0.992
X96.329 Y124.887 Z-1.
X96.478 Y124.908
G3 X96.732 Y125.247 R0.3
X93.268 Y124.753 Z-1.125 R1.75 F650.
X96.732 Y125.247 Z-1.25 R1.75
X93.268 Y124.753 Z-1.375 R1.75
X96.732 Y125.247 Z-1.5 R1.75
X93.268 Y124.753 Z-1.625 R1.75
X96.732 Y125.247 Z-1.75 R1.75
X93.268 Y124.753 Z-1.875 R1.75
X96.732 Y125.247 Z-2. R1.75
X93.268 Y124.753 Z-2.125 R1.75
X96.732 Y125.247 Z-2.25 R1.75
X93.268 Y124.753 Z-2.375 R1.75
X96.732 Y125.247 Z-2.5 R1.75
X93.268 Y124.753 Z-2.625 R1.75
X96.732 Y125.247 Z-2.75 R1.75
X93.268 Y124.753 Z-2.875 R1.75
X96.732 Y125.247 Z-3. R1.75
X93.268 Y124.753 Z-3.125 R1.75
X96.732 Y125.247 Z-3.25 R1.75
X93.268 Y124.753 Z-3.375 R1.75
X96.732 Y125.247 Z-3.5 R1.75
X93.268 Y124.753 Z-3.625 R1.75
X96.732 Y125.247 Z-3.75 R1.75
X93.268 Y124.753 Z-3.875 R1.75
X96.732 Y125.247 Z-4. R1.75
X93.268 Y124.753 Z-4.125 R1.75
X96.732 Y125.247 Z-4.25 R1.75
X93.268 Y124.753 Z-4.375 R1.75
X93.744 Y123.781 Z-4.4 R1.75
X96.256 Y126.219 R1.75
X93.744 Y123.781 R1.75
X94.168 Y123.775 R0.3
G1 X94.276 Y123.879
X94.324 Y123.926 Z-4.392
X94.369 Y123.97 Z-4.37
X94.41 Y124.01 Z-4.335
X94.444 Y124.043 Z-4.287
X94.47 Y124.068 Z-4.23
X94.486 Y124.083 Z-4.167
X94.491 Y124.088 Z-4.1
G0 Z2.
X94.821 Y6.029
Z1.
G1 Z-0.7 F235.
X94.818 Y6.035 Z-0.767
X94.808 Y6.055 Z-0.83
X94.792 Y6.087 Z-0.887
X94.771 Y6.13 Z-0.935
X94.745 Y6.18 Z-0.97
X94.717 Y6.237 Z-0.992
X94.687 Y6.297 Z-1.
X94.62 Y6.431
G3 X94.217 Y6.565 R0.3
X95.783 Y3.435 Z-1.125 R1.75 F650.
X94.217 Y6.565 Z-1.25 R1.75
X95.783 Y3.435 Z-1.375 R1.75
X94.217 Y6.565 Z-1.5 R1.75
X95.783 Y3.435 Z-1.625 R1.75
X94.217 Y6.565 Z-1.75 R1.75
X95.783 Y3.435 Z-1.875 R1.75
X94.217 Y6.565 Z-2. R1.75
X95.783 Y3.435 Z-2.125 R1.75
X94.217 Y6.565 Z-2.25 R1.75
X95.783 Y3.435 Z-2.375 R1.75
X94.217 Y6.565 Z-2.5 R1.75
X95.783 Y3.435 Z-2.625 R1.75
X94.217 Y6.565 Z-2.75 R1.75
X95.783 Y3.435 Z-2.875 R1.75
X94.217 Y6.565 Z-3. R1.75
X95.783 Y3.435 Z-3.125 R1.75
X94.217 Y6.565 Z-3.25 R1.75
X95.783 Y3.435 Z-3.375 R1.75
X94.217 Y6.565 Z-3.5 R1.75
X95.783 Y3.435 Z-3.625 R1.75
X94.217 Y6.565 Z-3.75 R1.75
X95.783 Y3.435 Z-3.875 R1.75
X94.217 Y6.565 Z-4. R1.75
X95.783 Y3.435 Z-4.125 R1.75
X94.217 Y6.565 Z-4.25 R1.75
X95.783 Y3.435 Z-4.375 R1.75
X96.553 Y4.194 Z-4.4 R1.75
X93.447 Y5.806 R1.75
X96.553 Y4.194 R1.75
X96.425 Y4.598 R0.3
G1 X96.292 Y4.667
X96.233 Y4.698 Z-4.392
X96.176 Y4.727 Z-4.37
X96.126 Y4.753 Z-4.335
X96.084 Y4.775 Z-4.287
X96.052 Y4.792 Z-4.23
X96.032 Y4.802 Z-4.167
X96.026 Y4.806 Z-4.1
G0 Z2.
X114.59 Y5.96
Z1.
G1 Z-0.7 F235.
X114.585 Y5.966 Z-0.767
X114.571 Y5.983 Z-0.83
X114.548 Y6.011 Z-0.887
X114.518 Y6.047 Z-0.935
X114.482 Y6.091 Z-0.97
X114.441 Y6.139 Z-0.992
X114.398 Y6.191 Z-1.
X114.302 Y6.306
G3 X113.88 Y6.344 R0.3
X116.12 Y3.656 Z-1.125 R1.75 F650.
X113.88 Y6.344 Z-1.25 R1.75
X116.12 Y3.656 Z-1.375 R1.75
X113.88 Y6.344 Z-1.5 R1.75
X116.12 Y3.656 Z-1.625 R1.75
X113.88 Y6.344 Z-1.75 R1.75
X116.12 Y3.656 Z-1.875 R1.75
X113.88 Y6.344 Z-2. R1.75
X116.12 Y3.656 Z-2.125 R1.75
X113.88 Y6.344 Z-2.25 R1.75
X116.12 Y3.656 Z-2.375 R1.75
X113.88 Y6.344 Z-2.5 R1.75
X116.12 Y3.656 Z-2.625 R1.75
X113.88 Y6.344 Z-2.75 R1.75
X116.12 Y3.656 Z-2.875 R1.75
X113.88 Y6.344 Z-3. R1.75
X116.12 Y3.656 Z-3.125 R1.75
X113.88 Y6.344 Z-3.25 R1.75
X116.12 Y3.656 Z-3.375 R1.75
X113.88 Y6.344 Z-3.5 R1.75
X116.12 Y3.656 Z-3.625 R1.75
X113.88 Y6.344 Z-3.75 R1.75
X116.12 Y3.656 Z-3.875 R1.75
X113.88 Y6.344 Z-4. R1.75
X116.12 Y3.656 Z-4.125 R1.75
X113.88 Y6.344 Z-4.25 R1.75
X116.12 Y3.656 Z-4.375 R1.75
X116.697 Y4.571 Z-4.4 R1.75
X113.303 Y5.429 R1.75
X116.697 Y4.571 R1.75
X116.479 Y4.935 R0.3
G1 X116.334 Y4.972
X116.269 Y4.988 Z-4.392
X116.208 Y5.004 Z-4.37
X116.153 Y5.018 Z-4.335
X116.106 Y5.03 Z-4.287
X116.072 Y5.038 Z-4.23
X116.05 Y5.044 Z-4.167
X116.043 Y5.046 Z-4.1
G0 Z2.
X114.353 Y30.819
Z1.
G1 Z-0.7 F235.
X114.347 Y30.824 Z-0.767
X114.328 Y30.836 Z-0.83
X114.299 Y30.857 Z-0.887
X114.26 Y30.884 Z-0.935
X114.214 Y30.917 Z-0.97
X114.162 Y30.953 Z-0.992
X114.107 Y30.991 Z-1.
X113.984 Y31.077
G3 X113.566 Y31.004 R0.3
X116.434 Y28.996 Z-1.125 R1.75 F650.
X113.566 Y31.004 Z-1.25 R1.75
X116.434 Y28.996 Z-1.375 R1.75
X113.566 Y31.004 Z-1.5 R1.75
X116.434 Y28.996 Z-1.625 R1.75
X113.566 Y31.004 Z-1.75 R1.75
X116.434 Y28.996 Z-1.875 R1.75
X113.566 Y31.004 Z-2. R1.75
X116.434 Y28.996 Z-2.125 R1.75
X113.566 Y31.004 Z-2.25 R1.75
X116.434 Y28.996 Z-2.375 R1.75
X113.566 Y31.004 Z-2.5 R1.75
X116.434 Y28.996 Z-2.625 R1.75
X113.566 Y31.004 Z-2.75 R1.75
X116.434 Y28.996 Z-2.875 R1.75
X113.566 Y31.004 Z-3. R1.75
X116.434 Y28.996 Z-3.125 R1.75
X113.566 Y31.004 Z-3.25 R1.75
X116.434 Y28.996 Z-3.375 R1.75
X113.566 Y31.004 Z-3.5 R1.75
X116.434 Y28.996 Z-3.625 R1.75
X113.566 Y31.004 Z-3.75 R1.75
X116.434 Y28.996 Z-3.875 R1.75
X113.566 Y31.004 Z-4. R1.75
X116.434 Y28.996 Z-4.125 R1.75
X113.566 Y31.004 Z-4.25 R1.75
X116.434 Y28.996 Z-4.375 R1.75
X116.75 Y30.031 Z-4.4 R1.75
X113.25 Y29.969 R1.75
X116.75 Y30.031 R1.75
X116.444 Y30.325 R0.3
G1 X116.295 Y30.323
X116.228 Y30.322 Z-4.392
X116.164 Y30.321 Z-4.37
X116.108 Y30.32 Z-4.335
X116.06 Y30.319 Z-4.287
X116.024 Y30.318 Z-4.23
X116.002 Z-4.167
X115.995 Z-4.1
G0 Z2.
X94.577 Y30.954
Z1.
G1 Z-0.7 F235.
X94.572 Y30.96 Z-0.767
X94.558 Y30.977 Z-0.83
X94.534 Y31.004 Z-0.887
X94.503 Y31.04 Z-0.935
X94.466 Y31.083 Z-0.97
X94.425 Y31.132 Z-0.992
X94.382 Y31.182 Z-1.
X94.284 Y31.296
G3 X93.861 Y31.329 R0.3
X96.139 Y28.671 Z-1.125 R1.75 F650.
X93.861 Y31.329 Z-1.25 R1.75
X96.139 Y28.671 Z-1.375 R1.75
X93.861 Y31.329 Z-1.5 R1.75
X96.139 Y28.671 Z-1.625 R1.75
X93.861 Y31.329 Z-1.75 R1.75
X96.139 Y28.671 Z-1.875 R1.75
X93.861 Y31.329 Z-2. R1.75
X96.139 Y28.671 Z-2.125 R1.75
X93.861 Y31.329 Z-2.25 R1.75
X96.139 Y28.671 Z-2.375 R1.75
X93.861 Y31.329 Z-2.5 R1.75
X96.139 Y28.671 Z-2.625 R1.75
X93.861 Y31.329 Z-2.75 R1.75
X96.139 Y28.671 Z-2.875 R1.75
X93.861 Y31.329 Z-3. R1.75
X96.139 Y28.671 Z-3.125 R1.75
X93.861 Y31.329 Z-3.25 R1.75
X96.139 Y28.671 Z-3.375 R1.75
X93.861 Y31.329 Z-3.5 R1.75
X96.139 Y28.671 Z-3.625 R1.75
X93.861 Y31.329 Z-3.75 R1.75
X96.139 Y28.671 Z-3.875 R1.75
X93.861 Y31.329 Z-4. R1.75
X96.139 Y28.671 Z-4.125 R1.75
X93.861 Y31.329 Z-4.25 R1.75
X96.139 Y28.671 Z-4.375 R1.75
X96.702 Y29.594 Z-4.4 R1.75
X93.298 Y30.406 R1.75
X96.702 Y29.594 R1.75
X96.48 Y29.956 R0.3
G1 X96.334 Y29.991
X96.269 Y30.006 Z-4.392
X96.208 Y30.021 Z-4.37
X96.152 Y30.034 Z-4.335
X96.106 Y30.045 Z-4.287
X96.071 Y30.053 Z-4.23
X96.05 Y30.058 Z-4.167
X96.042 Y30.06 Z-4.1
G0 Z2.
X87.362 Y46.363
Z1.
G1 Z-0.7 F235.
X87.356 Y46.368 Z-0.767
X87.339 Y46.382 Z-0.83
X87.312 Y46.405 Z-0.887
X87.276 Y46.436 Z-0.935
X87.232 Y46.473 Z-0.97
X87.184 Y46.514 Z-0.992
X87.133 Y46.557 Z-1.
X87.019 Y46.654
G3 X86.596 Y46.62 R0.3
X90.404 Y43.38 Z-1.125 R2.5 F650.
X86.596 Y46.62 Z-1.25 R2.5
X90.404 Y43.38 Z-1.375 R2.5
X86.596 Y46.62 Z-1.5 R2.5
X90.404 Y43.38 Z-1.625 R2.5
X86.596 Y46.62 Z-1.75 R2.5
X90.404 Y43.38 Z-1.875 R2.5
X86.596 Y46.62 Z-2. R2.5
X90.404 Y43.38 Z-2.125 R2.5
X86.596 Y46.62 Z-2.25 R2.5
X90.404 Y43.38 Z-2.375 R2.5
X86.596 Y46.62 Z-2.5 R2.5
X90.404 Y43.38 Z-2.625 R2.5
X86.596 Y46.62 Z-2.75 R2.5
X90.404 Y43.38 Z-2.875 R2.5
X86.596 Y46.62 Z-3. R2.5
X90.404 Y43.38 Z-3.125 R2.5
X86.596 Y46.62 Z-3.25 R2.5
X90.404 Y43.38 Z-3.375 R2.5
X86.596 Y46.62 Z-3.5 R2.5
X90.404 Y43.38 Z-3.625 R2.5
X86.596 Y46.62 Z-3.75 R2.5
X90.404 Y43.38 Z-3.875 R2.5
X86.596 Y46.62 Z-4. R2.5
X90.404 Y43.38 Z-4.125 R2.5
X86.596 Y46.62 Z-4.25 R2.5
X90.404 Y43.38 Z-4.375 R2.5
X86.596 Y46.62 Z-4.5 R2.5
X90.404 Y43.38 Z-4.625 R2.5
X86.596 Y46.62 Z-4.75 R2.5
X90.404 Y43.38 Z-4.875 R2.5
X86.596 Y46.62 Z-5. R2.5
X90.404 Y43.38 Z-5.125 R2.5
X86.596 Y46.62 Z-5.25 R2.5
X90.404 Y43.38 Z-5.375 R2.5
X86.596 Y46.62 Z-5.5 R2.5
X89.088 Y42.57 Z-5.6 R2.5
X87.912 Y47.43 R2.5
X89.088 Y42.57 R2.5
X89.309 Y42.932 R0.3
G1 X89.274 Y43.078
X89.258 Y43.143 Z-5.592
X89.243 Y43.205 Z-5.57
X89.23 Y43.26 Z-5.535
X89.218 Y43.306 Z-5.487
X89.21 Y43.341 Z-5.43
X89.205 Y43.362 Z-5.367
X89.203 Y43.37 Z-5.3
G0 Z2.
X63.93 Y46.723
Z1.
G1 Z-0.7 F235.
X63.931 Y46.73 Z-0.767
X63.932 Y46.752 Z-0.83
X63.935 Y46.788 Z-0.887
X63.938 Y46.835 Z-0.935
X63.943 Y46.892 Z-0.97
X63.947 Y46.955 Z-0.992
X63.952 Y47.022 Z-1.
X63.964 Y47.171
G3 X63.687 Y47.493 R0.3
X63.313 Y42.507 Z-1.125 R2.5 F650.
X63.687 Y47.493 Z-1.25 R2.5
X63.313 Y42.507 Z-1.375 R2.5
X63.687 Y47.493 Z-1.5 R2.5
X63.313 Y42.507 Z-1.625 R2.5
X63.687 Y47.493 Z-1.75 R2.5
X63.313 Y42.507 Z-1.875 R2.5
X63.687 Y47.493 Z-2. R2.5
X63.313 Y42.507 Z-2.125 R2.5
X63.687 Y47.493 Z-2.25 R2.5
X63.313 Y42.507 Z-2.375 R2.5
X63.687 Y47.493 Z-2.5 R2.5
X63.313 Y42.507 Z-2.625 R2.5
X63.687 Y47.493 Z-2.75 R2.5
X63.313 Y42.507 Z-2.875 R2.5
X63.687 Y47.493 Z-3. R2.5
X63.313 Y42.507 Z-3.125 R2.5
X63.687 Y47.493 Z-3.25 R2.5
X63.313 Y42.507 Z-3.375 R2.5
X63.687 Y47.493 Z-3.5 R2.5
X63.313 Y42.507 Z-3.625 R2.5
X63.687 Y47.493 Z-3.75 R2.5
X63.313 Y42.507 Z-3.875 R2.5
X63.687 Y47.493 Z-4. R2.5
X63.313 Y42.507 Z-4.125 R2.5
X63.687 Y47.493 Z-4.25 R2.5
X63.313 Y42.507 Z-4.375 R2.5
X63.687 Y47.493 Z-4.5 R2.5
X63.313 Y42.507 Z-4.625 R2.5
X63.687 Y47.493 Z-4.75 R2.5
X63.313 Y42.507 Z-4.875 R2.5
X63.687 Y47.493 Z-5. R2.5
X63.313 Y42.507 Z-5.125 R2.5
X63.687 Y47.493 Z-5.25 R2.5
X63.313 Y42.507 Z-5.375 R2.5
X63.687 Y47.493 Z-5.5 R2.5
X61.883 Y43.093 Z-5.6 R2.5
X65.117 Y46.907 R2.5
X61.883 Y43.093 R2.5
X62.306 Y43.128 R0.3
G1 X62.403 Y43.242
X62.446 Y43.293 Z-5.592
X62.487 Y43.342 Z-5.57
X62.524 Y43.385 Z-5.535
X62.555 Y43.421 Z-5.487
X62.578 Y43.448 Z-5.43
X62.592 Y43.465 Z-5.367
X62.597 Y43.471 Z-5.3
G0 Z2.
X30.919 Y30.495
Z1.
G1 Z-0.7 F235.
X30.925 Y30.5 Z-0.767
X30.94 Y30.516 Z-0.83
X30.966 Y30.541 Z-0.887
X30.999 Y30.575 Z-0.935
X31.039 Y30.615 Z-0.97
X31.084 Y30.66 Z-0.992
X31.131 Y30.707 Z-1.
X31.237 Y30.813
G3 Y31.237 R0.3
X28.763 Y28.763 Z-1.125 R1.75 F650.
X31.237 Y31.237 Z-1.25 R1.75
X28.763 Y28.763 Z-1.375 R1.75
X31.237 Y31.237 Z-1.5 R1.75
X28.763 Y28.763 Z-1.625 R1.75
X31.237 Y31.237 Z-1.75 R1.75
X28.763 Y28.763 Z-1.875 R1.75
X31.237 Y31.237 Z-2. R1.75
X28.763 Y28.763 Z-2.125 R1.75
X31.237 Y31.237 Z-2.25 R1.75
X28.763 Y28.763 Z-2.375 R1.75
X31.237 Y31.237 Z-2.5 R1.75
X28.763 Y28.763 Z-2.625 R1.75
X31.237 Y31.237 Z-2.75 R1.75
X28.763 Y28.763 Z-2.875 R1.75
X31.237 Y31.237 Z-3. R1.75
X28.763 Y28.763 Z-3.125 R1.75
X31.237 Y31.237 Z-3.25 R1.75
X28.763 Y28.763 Z-3.375 R1.75
X31.237 Y31.237 Z-3.5 R1.75
X28.763 Y28.763 Z-3.625 R1.75
X31.237 Y31.237 Z-3.75 R1.75
X28.763 Y28.763 Z-3.875 R1.75
X31.237 Y31.237 Z-4. R1.75
X28.763 Y28.763 Z-4.125 R1.75
X31.237 Y31.237 Z-4.25 R1.75
X28.763 Y28.763 Z-4.375 R1.75
X29.726 Y28.272 Z-4.4 R1.75
X30.274 Y31.728 R1.75
X29.726 Y28.272 R1.75
X30.069 Y28.521 R0.3
G1 X30.093 Y28.669
X30.103 Y28.735 Z-4.392
X30.113 Y28.798 Z-4.37
X30.122 Y28.854 Z-4.335
X30.13 Y28.901 Z-4.287
X30.135 Y28.936 Z-4.23
X30.139 Y28.958 Z-4.167
X30.14 Y28.965 Z-4.1
G0 Z2.
X11.005 Y30.284
Z1.
G1 Z-0.7 F235.
X11.011 Y30.288 Z-0.767
X11.03 Y30.3 Z-0.83
X11.06 Y30.319 Z-0.887
X11.1 Y30.344 Z-0.935
X11.148 Y30.375 Z-0.97
X11.202 Y30.409 Z-0.992
X11.258 Y30.445 Z-1.
X11.384 Y30.525
G3 X11.476 Y30.94 R0.3
X8.524 Y29.06 Z-1.125 R1.75 F650.
X11.476 Y30.94 Z-1.25 R1.75
X8.524 Y29.06 Z-1.375 R1.75
X11.476 Y30.94 Z-1.5 R1.75
X8.524 Y29.06 Z-1.625 R1.75
X11.476 Y30.94 Z-1.75 R1.75
X8.524 Y29.06 Z-1.875 R1.75
X11.476 Y30.94 Z-2. R1.75
X8.524 Y29.06 Z-2.125 R1.75
X11.476 Y30.94 Z-2.25 R1.75
X8.524 Y29.06 Z-2.375 R1.75
X11.476 Y30.94 Z-2.5 R1.75
X8.524 Y29.06 Z-2.625 R1.75
X11.476 Y30.94 Z-2.75 R1.75
X8.524 Y29.06 Z-2.875 R1.75
X11.476 Y30.94 Z-3. R1.75
X8.524 Y29.06 Z-3.125 R1.75
X11.476 Y30.94 Z-3.25 R1.75
X8.524 Y29.06 Z-3.375 R1.75
X11.476 Y30.94 Z-3.5 R1.75
X8.524 Y29.06 Z-3.625 R1.75
X11.476 Y30.94 Z-3.75 R1.75
X8.524 Y29.06 Z-3.875 R1.75
X11.476 Y30.94 Z-4. R1.75
X8.524 Y29.06 Z-4.125 R1.75
X11.476 Y30.94 Z-4.25 R1.75
X8.524 Y29.06 Z-4.375 R1.75
X9.358 Y28.372 Z-4.4 R1.75
X10.642 Y31.628 R1.75
X9.358 Y28.372 R1.75
X9.747 Y28.541 R0.3
G1 X9.802 Y28.681
X9.827 Y28.743 Z-4.392
X9.85 Y28.802 Z-4.37
X9.871 Y28.855 Z-4.335
X9.888 Y28.899 Z-4.287
X9.901 Y28.932 Z-4.23
X9.909 Y28.953 Z-4.167
X9.912 Y28.96 Z-4.1
G0 Z2.
X10.897 Y5.534
Z1.
G1 Z-0.7 F235.
X10.902 Y5.54 Z-0.767
X10.917 Y5.556 Z-0.83
X10.941 Y5.583 Z-0.887
X10.973 Y5.618 Z-0.935
X11.012 Y5.66 Z-0.97
X11.054 Y5.706 Z-0.992
X11.1 Y5.756 Z-1.
X11.201 Y5.866
G3 X11.183 Y6.29 R0.3
X8.817 Y3.71 Z-1.125 R1.75 F650.
X11.183 Y6.29 Z-1.25 R1.75
X8.817 Y3.71 Z-1.375 R1.75
X11.183 Y6.29 Z-1.5 R1.75
X8.817 Y3.71 Z-1.625 R1.75
X11.183 Y6.29 Z-1.75 R1.75
X8.817 Y3.71 Z-1.875 R1.75
X11.183 Y6.29 Z-2. R1.75
X8.817 Y3.71 Z-2.125 R1.75
X11.183 Y6.29 Z-2.25 R1.75
X8.817 Y3.71 Z-2.375 R1.75
X11.183 Y6.29 Z-2.5 R1.75
X8.817 Y3.71 Z-2.625 R1.75
X11.183 Y6.29 Z-2.75 R1.75
X8.817 Y3.71 Z-2.875 R1.75
X11.183 Y6.29 Z-3. R1.75
X8.817 Y3.71 Z-3.125 R1.75
X11.183 Y6.29 Z-3.25 R1.75
X8.817 Y3.71 Z-3.375 R1.75
X11.183 Y6.29 Z-3.5 R1.75
X8.817 Y3.71 Z-3.625 R1.75
X11.183 Y6.29 Z-3.75 R1.75
X8.817 Y3.71 Z-3.875 R1.75
X11.183 Y6.29 Z-4. R1.75
X8.817 Y3.71 Z-4.125 R1.75
X11.183 Y6.29 Z-4.25 R1.75
X8.817 Y3.71 Z-4.375 R1.75
X9.802 Y3.261 Z-4.4 R1.75
X10.198 Y6.739 R1.75
X9.802 Y3.261 R1.75
X10.134 Y3.525 R0.3
G1 X10.151 Y3.674
X10.158 Y3.741 Z-4.392
X10.165 Y3.804 Z-4.37
X10.172 Y3.86 Z-4.335
X10.177 Y3.907 Z-4.287
X10.181 Y3.943 Z-4.23
X10.184 Y3.965 Z-4.167
X10.185 Y3.972 Z-4.1
G0 Z2.
X30.763 Y5.713
Z1.
G1 Z-0.7 F235.
X30.767 Y5.719 Z-0.767
X30.778 Y5.738 Z-0.83
X30.796 Y5.769 Z-0.887
X30.82 Y5.81 Z-0.935
X30.849 Y5.859 Z-0.97
X30.881 Y5.914 Z-0.992
X30.914 Y5.972 Z-1.
X30.99 Y6.101
G3 X30.882 Y6.512 R0.3
X29.118 Y3.488 Z-1.125 R1.75 F650.
X30.882 Y6.512 Z-1.25 R1.75
X29.118 Y3.488 Z-1.375 R1.75
X30.882 Y6.512 Z-1.5 R1.75
X29.118 Y3.488 Z-1.625 R1.75
X30.882 Y6.512 Z-1.75 R1.75
X29.118 Y3.488 Z-1.875 R1.75
X30.882 Y6.512 Z-2. R1.75
X29.118 Y3.488 Z-2.125 R1.75
X30.882 Y6.512 Z-2.25 R1.75
X29.118 Y3.488 Z-2.375 R1.75
X30.882 Y6.512 Z-2.5 R1.75
X29.118 Y3.488 Z-2.625 R1.75
X30.882 Y6.512 Z-2.75 R1.75
X29.118 Y3.488 Z-2.875 R1.75
X30.882 Y6.512 Z-3. R1.75
X29.118 Y3.488 Z-3.125 R1.75
X30.882 Y6.512 Z-3.25 R1.75
X29.118 Y3.488 Z-3.375 R1.75
X30.882 Y6.512 Z-3.5 R1.75
X29.118 Y3.488 Z-3.625 R1.75
X30.882 Y6.512 Z-3.75 R1.75
X29.118 Y3.488 Z-3.875 R1.75
X30.882 Y6.512 Z-4. R1.75
X29.118 Y3.488 Z-4.125 R1.75
X30.882 Y6.512 Z-4.25 R1.75
X29.118 Y3.488 Z-4.375 R1.75
X30.175 Y3.259 Z-4.4 R1.75
X29.825 Y6.741 R1.75
X30.175 Y3.259 R1.75
X30.444 Y3.587 R0.3
G1 X30.429 Y3.737
X30.422 Y3.803 Z-4.392
X30.416 Y3.866 Z-4.37
X30.41 Y3.923 Z-4.335
X30.405 Y3.97 Z-4.287
X30.402 Y4.005 Z-4.23
X30.399 Y4.028 Z-4.167
Y4.035 Z-4.1
G0 Z4.

M9
G28 G91 Z0.
G28 X0. Y0.
M30
