(SCHLITTEN_CNC002)
(T1  D=6. CR=0. - ZMIN=22.5 - SCHAFTFRSER)
(T2  D=3.175 CR=0. KONIK=45GRAD - ZMIN=21.5 - FASENFRSER)
G90 G94 G91.1 G40 G49 G17
G21
G28 G91 Z0.
G90

(FACE2)
M5
M9
T1 M6
S10000 M3
G54
M7
G0 X129.542 Y133.9
G43 Z29. H1
Z27.
G1 Z25.1 F200.
G19 G2 Y133.3 Z24.5 R0.6
G1 Y130. F500.
Y0.
G17 G2 X126.119 R1.712
G1 Y130.
G3 X122.696 R1.712
G1 Y0.
G2 X119.272 R1.712
G1 Y130.
G3 X115.849 R1.712
G1 Y0.
G2 X112.426 R1.712
G1 Y130.
G3 X109.003 R1.712
G1 Y0.
G2 X105.58 R1.712
G1 Y130.
G3 X102.157 R1.712
G1 Y0.
G2 X98.733 R1.712
G1 Y130.
G3 X95.31 R1.712
G1 Y0.
G19 G2 Y-0.6 Z25.1 R0.6
G0 Z28.
X37.117 Y-3.026
Z27.
G1 Z25.1 F200.
G3 Y-2.426 Z24.5 R0.6
G1 Y0. F500.
Y115.
Y130.
G17 G3 X33.693 R1.712
G1 Y0.
G2 X30.27 R1.712
G1 Y130.
G3 X26.847 R1.712
G1 Y0.
G2 X23.424 R1.712
G1 Y130.
G3 X20.001 R1.712
G1 Y0.
G2 X16.578 R1.712
G1 Y130.
G3 X13.154 R1.712
G1 Y0.
G2 X9.731 R1.712
G1 Y130.
G3 X6.308 R1.712
G1 Y0.
G2 X2.885 R1.712
G1 Y130.
G19 G3 Y130.6 Z25.1 R0.6
G0 Z28.
X37.117 Y118.025
Z27.
G1 Z24.6 F200.
G2 Y117.425 Z24. R0.6
G1 Y115. F500.
Y0.
G17 G2 X33.693 R1.712
G1 Y130.
G3 X30.27 R1.712
G1 Y0.
G2 X26.847 R1.712
G1 Y130.
G3 X23.424 R1.712
G1 Y0.
G2 X20.001 R1.712
G1 Y130.
G3 X16.578 R1.712
G1 Y0.
G2 X13.154 R1.712
G1 Y130.
G3 X9.731 R1.712
G1 Y0.
G2 X6.308 R1.712
G1 Y130.
G3 X2.885 R1.712
G1 Y0.
G19 G2 Y-0.6 Z24.6 R0.6
G0 Z28.
X129.542 Y-3.9
Z27.
G1 Z24.6 F200.
G3 Y-3.3 Z24. R0.6
G1 Y0. F500.
Y130.
G17 G3 X126.119 R1.712
G1 Y0.
G2 X122.696 R1.712
G1 Y130.
G3 X119.272 R1.712
G1 Y0.
G2 X115.849 R1.712
G1 Y130.
G3 X112.426 R1.712
G1 Y0.
G2 X109.003 R1.712
G1 Y130.
G3 X105.58 R1.712
G1 Y0.
G2 X102.157 R1.712
G1 Y130.
G3 X98.733 R1.712
G1 Y0.
G2 X95.31 R1.712
G1 Y130.
G19 G3 Y130.6 Z24.6 R0.6
G0 Z28.
X129.542 Y133.9
Z27.
G1 Z24.1 F200.
G2 Y133.3 Z23.5 R0.6
G1 Y130. F500.
Y0.
G17 G2 X126.119 R1.712
G1 Y130.
G3 X122.696 R1.712
G1 Y0.
G2 X119.272 R1.712
G1 Y130.
G3 X115.849 R1.712
G1 Y0.
G2 X112.426 R1.712
G1 Y130.
G3 X109.003 R1.712
G1 Y0.
G2 X105.58 R1.712
G1 Y130.
G3 X102.157 R1.712
G1 Y0.
G2 X98.733 R1.712
G1 Y130.
G3 X95.31 R1.712
G1 Y0.
G19 G2 Y-0.6 Z24.1 R0.6
G0 Z28.
X37.117 Y-3.026
Z27.
G1 Z24.1 F200.
G3 Y-2.426 Z23.5 R0.6
G1 Y0. F500.
Y115.
Y130.
G17 G3 X33.693 R1.712
G1 Y0.
G2 X30.27 R1.712
G1 Y130.
G3 X26.847 R1.712
G1 Y0.
G2 X23.424 R1.712
G1 Y130.
G3 X20.001 R1.712
G1 Y0.
G2 X16.578 R1.712
G1 Y130.
G3 X13.154 R1.712
G1 Y0.
G2 X9.731 R1.712
G1 Y130.
G3 X6.308 R1.712
G1 Y0.
G2 X2.885 R1.712
G1 Y130.
G19 G3 Y130.6 Z24.1 R0.6
G0 Z28.
X37.117 Y118.025
Z27.
G1 Z23.6 F200.
G2 Y117.425 Z23. R0.6
G1 Y115. F500.
Y0.
G17 G2 X33.693 R1.712
G1 Y130.
G3 X30.27 R1.712
G1 Y0.
G2 X26.847 R1.712
G1 Y130.
G3 X23.424 R1.712
G1 Y0.
G2 X20.001 R1.712
G1 Y130.
G3 X16.578 R1.712
G1 Y0.
G2 X13.154 R1.712
G1 Y130.
G3 X9.731 R1.712
G1 Y0.
G2 X6.308 R1.712
G1 Y130.
G3 X2.885 R1.712
G1 Y0.
G19 G2 Y-0.6 Z23.6 R0.6
G0 Z28.
X129.542 Y-3.9
Z27.
G1 Z23.6 F200.
G3 Y-3.3 Z23. R0.6
G1 Y0. F500.
Y130.
G17 G3 X126.119 R1.712
G1 Y0.
G2 X122.696 R1.712
G1 Y130.
G3 X119.272 R1.712
G1 Y0.
G2 X115.849 R1.712
G1 Y130.
G3 X112.426 R1.712
G1 Y0.
G2 X109.003 R1.712
G1 Y130.
G3 X105.58 R1.712
G1 Y0.
G2 X102.157 R1.712
G1 Y130.
G3 X98.733 R1.712
G1 Y0.
G2 X95.31 R1.712
G1 Y130.
G19 G3 Y130.6 Z23.6 R0.6
G0 Z28.
X129.542 Y133.9
Z27.
G1 Z23.1 F200.
G2 Y133.3 Z22.5 R0.6
G1 Y130. F500.
Y0.
G17 G2 X126.119 R1.712
G1 Y130.
G3 X122.696 R1.712
G1 Y0.
G2 X119.272 R1.712
G1 Y130.
G3 X115.849 R1.712
G1 Y0.
G2 X112.426 R1.712
G1 Y130.
G3 X109.003 R1.712
G1 Y0.
G2 X105.58 R1.712
G1 Y130.
G3 X102.157 R1.712
G1 Y0.
G2 X98.733 R1.712
G1 Y130.
G3 X95.31 R1.712
G1 Y0.
G19 G2 Y-0.6 Z23.1 R0.6
G0 Z28.
X37.117 Y-3.026
Z27.
G1 Z23.1 F200.
G3 Y-2.426 Z22.5 R0.6
G1 Y0. F500.
Y115.
Y130.
G17 G3 X33.693 R1.712
G1 Y0.
G2 X30.27 R1.712
G1 Y130.
G3 X26.847 R1.712
G1 Y0.
G2 X23.424 R1.712
G1 Y130.
G3 X20.001 R1.712
G1 Y0.
G2 X16.578 R1.712
G1 Y130.
G3 X13.154 R1.712
G1 Y0.
G2 X9.731 R1.712
G1 Y130.
G3 X6.308 R1.712
G1 Y0.
G2 X2.885 R1.712
G1 Y130.
G19 G3 Y130.6 Z23.1 R0.6
G0 Z29.
G17
G28 G91 Z0.
G90

(DRILL2 3)
M5
M9
M1
T2 M6
S20000 M3
M9
G0 X5. Y115.
G43 Z28. H2
Z27.
G98 G81 X5. Y115. Z21.5 R24.5 F300.
Y95.
X30.
Y115.
X100.
Y95.
X125.
Y115.
Y30.
Y10.
X100.
Y30.
X30.
Y10.
X5.
Y30.
G80
Z28.

M9
G28 G91 Z0.
G28 X0. Y0.
M30
